ipa320/cob_manipulation/cob_grasp_generation/common/files/database/hotpot2/hotpot2.csv
"id","object","sdh_knuckle_joint","sdh_finger_12_joint","sdh_finger_13_joint","sdh_finger_22_joint","sdh_finger_23_joint","sdh_thumb_2_joint","sdh_thumb_3_joint","direction","qw","qx","qy","qz","pos-x","pos-y","pos-z","eps_l1","vol_l1"
"0","hotpot2","1.0469999999999999","-0.78500000000000092","1.0469999999999999","-0.25099999093450498","1.0469999999999999","-0.41199999206233978","1.046999999999999","SIDE","0.99971820126174404","-0.0094279141364415654","-0.021786062081499306","1.1495782525357259e-17","5.1848021754130471","-40.713123587646272","-216.30265314032115","0.002733655","0.000022666","0"
"1","hotpot2","0.0","-0.98540000000000016","0.94719999999999938","1.0986000337921069","1.570796326794897","-0.57439999351706483","0.94719999999999949","SIDE","-0.15750364024575969","-0.53918790326466604","0.81219555009352384","-0.1575036402457598","25.324171656343129","90.971782425747932","230.436953827721","0.000011176","0.000000208","1"
"2","hotpot2","1.0469999999999999","-0.78500000000000125","1.046999999999999","-0.24999999088701139","1.047000000000001","-0.41399999215733119","1.046999999999999","SIDE","3.5047817720224017e-16","0.023930074061702482","-0.010099628699400121","0.99966261761433073","-14.632066862319444","47.471043105741757","-213.43760053487276","0.000075898","0.000008172","2"
"3","hotpot2","1.0469999999999999","-0.21499998922459709","1.0469999999999999","-0.35399999256711617","1.0469999999999999","-0.7850000000000007","1.0469999999999999","SIDE","0.70686821581378778","0.024062633584138376","0.0097796017025136069","0.70686821581378811","-14.780383274525359","47.533639681469893","-216.53341789219442","0.004535092","0.000017053","3"
"4","hotpot2","1.0469999999999999","-0.25899999131448681","1.046999999999999","-0.78500000000000048","1.0469999999999999","-0.4009999915398646","1.0469999999999999","SIDE","0.056686813123342859","-0.12056377495251455","0.98946328209036527","-0.056686813123342727","-31.372148283254983","64.286875591145304","341.20182328354718","0.000081870","0.000024141","4"
"5","hotpot2","1.0469999999999999","-0.36599999313708359","1.0469999999999999","-0.24799999079201471","1.0469999999999999","-0.78500000000000125","1.047000000000001","SIDE","0.70693272456255751","-0.004494279553882893","-0.021726650372510699","0.70693272456255796","23.62528787702659","48.36348513230547","-213.29786149604087","0.005032432","0.000038330","5"
"6","hotpot2","0.0","1.032600030657278","1.570796326794897","-0.98540000000000016","0.94720000000000004","-0.20339998567439879","0.94719999999999938","SIDE","0.70557313478504369","0.053488297284806863","-0.03836802044391921","0.7055731347850438","-28.294553104238027","-9.0990257045167056","-208.70322863009372","0.000167016","0.000000438","6"
"7","hotpot2","0.0","-0.94339999800511509","1.308200007367692","-0.81439999513757444","1.5402000118678389","-0.98540000000000016","1.382200007622876","SIDE","0.71223195364013292","0.16676052779961889","0.68184790868781897","1.9484927258439798e-17","-161.26177727160149","15.784215804637569","48.493952778989097","0.025377294","0.000504923","7"
"8","hotpot2","0.0","-0.95539999857507596","1.3532000062454479","-0.82239999551754916","1.570796326794897","-0.98539999999999994","1.4142000091427931","SIDE","1.9605942348904834e-16","-0.68694668292841987","0.16453796154899805","0.70783579594630686","152.45193137931085","-8.5229116320209375","50.19647244956316","0.021499298","0.000319342","8"
"9","hotpot2","0.0","-0.50839999038223249","1.0992000039599821","-0.80339999461509515","0.94719999999999971","-0.84039999637250073","0.94719999999999938","SIDE","0.70739606982357994","0.22042882136149955","-0.67156677636057382","7.8472518578032179e-17","159.52768789115095","87.56803830521207","85.817732813816662","0.006911718","0.000088009","9"
"10","hotpot2","0.0","-0.81039999494758974","0.94719999999999915","-0.63939999334477782","0.94719999999999915","-0.81539999518505368","0.94719999999999949","SIDE","0.71223195364013292","0.16676052779961889","0.68184790868781875","3.8969854516879589e-17","-185.45605657985354","21.701445638105785","48.131544373728573","0.009237549","0.000100409","10"
"11","hotpot2","0.0","-0.8033999946150957","0.94719999999999938","-0.64139999343976306","0.94719999999999938","-0.80839999485258895","0.94719999999999938","SIDE","1.7645348114014345e-16","-0.68694668292841954","0.164537961548998","0.70783579594630708","176.58915562072684","-14.304276871610266","50.145268093464303","0.007754419","0.000081544","11"
"12","hotpot2","0.0","-0.98540000000000016","0.94719999999999949","-0.78639999380765113","0.94719999999999949","-0.64239999348726329","0.94719999999999938","SIDE","7.8404056893538267e-17","0.6682613739900507","-0.22834896470598362","0.70801376141331818","-189.60436476328147","104.56081755142054","65.446655550928767","0.006822704","0.000053616","12"
"13","hotpot2","0.0","-0.8903999954877464","0.94719999999999915","-0.77039999630730649","0.94719999999999815","-0.66739999467469668","0.94719999999999949","SIDE","0.70560362748644223","0.19914745522798863","0.68004691893588509","-1.1800779304877745e-16","-229.72037252599972","42.230619411126234","66.823260550710629","0.001659279","0.000108328","13"
"14","hotpot2","1.0469999999999999","-0.78500000000000103","1.0469999999999999","-0.4599999943422135","1.0469999999999999","-0.2439999906020241","1.0469999999999999","SIDE","3.3583644419033116e-16","-0.016889326223982065","0.008140522046797067","0.99982422583197361","22.841818263560153","19.665643958770161","-210.81563809382453","0.009805330","0.000020781","14"
"15","hotpot2","0.0","-0.98539999999999994","0.94720000000000026","-0.79739999433010611","0.94720000000000126","-0.65439999405723825","0.94719999999999949","SIDE","0.70041502921121612","-0.22878721906296898","-0.67607336528551698","-3.170186184826594e-16","180.42290433456819","-96.80794969292478","69.473746473643374","0.000148851","0.000050159","15"
"16","hotpot2","0.0","1.03260003065727","1.5707963267948959","-0.98539999999999983","0.94719999999999938","-0.39939998846464231","0.94719999999999938","TOP","-0.49933721742181786","-0.38201923336502103","0.59614259362511046","-0.49933721742181825","40.177950814590233","254.62900907798868","31.028369714648878","0.000574110","0.000005320","16"
"17","hotpot2","0.0","-0.98539999999999994","0.94719999999999915","-0.9023999960577157","0.94719999999999949","-0.53539999166465735","0.94719999999999938","SIDE","0.71171225767795387","-0.2126577701717971","-0.66950902537345147","-3.8998310505687778e-17","195.94020259544209","-98.066511849992125","47.822679377694101","0.000000423","0.000059513","17"
"18","hotpot2","0.0","-0.98539999999999994","0.94720000000000026","-0.79739999433011433","0.94719999999999971","-0.67439999500717962","0.94719999999999949","SIDE","0.70560362748644212","0.19914745522798863","0.68004691893588509","-7.8671862032518293e-17","-205.81456572600817","35.229954520474486","66.717466740569989","0.008669172","0.000109536","18"
"19","hotpot2","0.0","-0.60439999168236258","0.94719999999999949","-0.44139999045953549","0.94719999999999849","-0.98540000000000028","0.94720000000000004","SIDE","0.70487769334203398","-0.22188418259670525","-0.67373202903098306","1.5750576803775136e-16","203.99256165903378","-80.931035283628944","107.22914752499815","0.008134937","0.000077446","19"
"20","hotpot2","0.0","-0.60839999187236216","0.9471999999999986","-0.43739999026954551","0.94719999999999949","-0.98540000000000016","0.94719999999999949","SIDE","-3.9389309444523185e-17","0.67529617530156194","-0.21782349952882646","0.70464742863087027","-210.56647676358108","85.686803652233266","107.34947301576833","0.007336036","0.000072498","20"
"21","hotpot2","0.0","-0.98540000000000028","0.94720000000000026","-0.81939999537505637","0.94719999999999949","-0.6493999938197399","0.94720000000000126","SIDE","1.7908523757552331e-16","-0.6040969614039704","0.18589227795264313","0.77492639793729268","202.99459029425199","-33.107495264771423","26.696900347415063","0.010705521","0.000160694","21"
"22","hotpot2","1.110223024625157e-16","-0.62239999253731537","0.94719999999999949","-0.48139999235943032","0.94719999999999971","-0.87439999798741264","0.94719999999999949","SIDE","1.5602169656180078e-16","-0.6759356392539666","0.19173266790652732","0.7115824587802716","223.35072929389145","-34.447130646280378","27.797267311313469","0.000796595","0.000086351","22"
"23","hotpot2","0.0","-0.63439999310727913","0.94719999999999938","-0.47939999226443192","0.94719999999999949","-0.98539999999999994","0.94720000000000026","SIDE","0.71456178737743126","0.18404147406379917","0.67492976511959724","-1.3594977561176177e-16","-210.10547738063906","32.880353574246342","26.489834870542225","0.007933156","0.000071540","23"
"24","hotpot2","1.110223024625157e-16","-0.98540000000000016","0.94720000000000004","-0.93139999743512936","0.94719999999999938","-0.50939999042973716","0.94720000000000182","SIDE","1.1802984094707102e-16","-0.68130504553560534","0.19527658447511875","0.70547182118314145","218.54512836583461","-33.710048680389448","86.887212148252473","0.000471265","0.000089523","24"
"25","hotpot2","0.0","-0.63539999315478712","0.94719999999999949","-0.48139999235942948","0.94719999999999915","-0.98539999999999994","0.94719999999999949","SIDE","1.5602169656180078e-16","-0.6759356392539666","0.19173266790652724","0.7115824587802716","199.3881091959629","-27.650008531995297","28.113604166286493","0.008282861","0.000059621","25"
"26","hotpot2","0.0","-0.83039999589752","1.0802000030575309","-0.98539999999999983","0.94719999999999949","-0.58139999384954733","0.94719999999999938","SIDE","0.70671316698860176","0.22213085871423252","-0.67172492972333431","-7.8548347228053186e-17","162.75901885932686","88.963689930690478","66.096841458165088","0.008130173","0.000296665","26"
"27","hotpot2","0.0","-0.98540000000000016","1.5517963291520791","-0.75139999540484881","1.5242000111078819","-0.83839999627751005","0.94720000000000115","SIDE","0.64655763357196194","-0.17073174798235008","-0.74351455715454284","-8.5856462516081989e-17","143.23655750226817","-47.430880572069334","108.83324122591139","0.019387395","0.000375758","27"
"28","hotpot2","1.0469999999999999","-0.74499999810010631","1.0469999999999999","-0.50599999326746226","1.0469999999999999","-0.7850000000000007","1.0469999999999999","SIDE","0.71223195364013292","0.16676052779961889","0.68184790868781897","1.9484927258439798e-17","-238.28330957665861","34.621483200301761","47.340239938951257","0.010434398","0.000115145","28"
"29","hotpot2","1.046999999999995","-0.78500000000000103","1.0469999999999999","-0.5799999967822802","1.0469999999999999","-0.69499999572523763","1.047000000000001","SIDE","0.4985177825313038","0.62943199179085751","0.3267650665391531","0.49851778253130369","-225.0484525070421","89.152041644234004","51.772051461002533","0.000012718","0.000063833","29"
"30","hotpot2","0.0","0.067600017418526309","0.94719999999999782","-0.98540000000000016","0.9542000003324802","-0.57239999342206971","0.95520000037997888","SIDE","0.50491045303696813","-0.58482121513334551","-0.38485713603617183","-0.50491045303696813","-32.669767053037198","-183.16477355102975","47.707715847594585","0.011109597","0.000227499","30"
"31","hotpot2","0.0","-0.79939999442511001","0.94719999999999882","-0.43139998998455448","0.94719999999999938","-0.23639998724181091","0.94720000000000004","SIDE","-6.1882766398874929e-17","0.78490765933556705","-0.61440473366682313","0.080167259926740495","-31.3859915625323","64.297711740108127","341.31040956304565","0.000033695","0.000017146","31"
"32","hotpot2","1.046999999999999","-0.27399999202694769","1.046999999999999","-0.46999999481718829","1.0469999999999999","-0.78500000000000081","1.0469999999999999","TOP","0.50293147914660874","0.6204702178233964","0.33035823489205562","-0.50293147914660952","79.504444045030624","255.46237687862367","27.903762632879978","0.000006714","0.000018808","32"
"33","hotpot2","0.0","-0.98540000000000016","0.94719999999999938","-0.92739999724515199","0.94719999999999971","-0.51439999066722075","0.94720000000000448","SIDE","0.69753252296261603","0.22492442121698944","0.68033622874988064","-1.5916433830349996e-16","-223.61351960072443","47.760159553023819","91.450342059450321","0.000457729","0.000119135","33"
"34","hotpot2","1.0469999999999999","-0.78500000000000092","1.0469999999999999","-0.59999999447257957","1.0469999999999999","-0.68999999548775914","1.0469999999999999","SIDE","-0.49786670562387947","-0.33368692411199696","0.62682575213461422","0.49786670562387986","217.76157651358321","-80.39453055657583","52.3380848337153","0.000130740","0.000062158","34"
"35","hotpot2","0.0","-0.81739999528005203","0.94719999999999882","-0.5953999912548722","0.94719999999999949","-0.77639999659229009","0.94719999999999904","SIDE","0.67685000317268507","-0.22742069477099791","-0.70010992050892462","-8.2013963169170925e-17","155.4427695291445","-86.309997446670877","99.459680490514586","0.009020956","0.000116717","35"
"36","hotpot2","1.0469999999999999","-0.76799999919254747","1.046999999999999","-0.48999999250751131","1.046999999999999","-0.7850000000000007","1.0469999999999999","SIDE","1.9605942348904829e-16","-0.68694668292841954","0.164537961548998","0.70783579594630708","229.48293672534797","-26.973433209148105","50.033059996294703","0.005663290","0.000105881","36"
"37","hotpot2","0.0","-0.98540000000000016","1.397200008335338","-0.75739999568983907","1.570796326794897","-0.82439999561253108","1.1472000062398551","SIDE","0.67685000317268507","-0.22742069477099791","-0.70010992050892484","-4.1006981584585468e-17","131.8345959256057","-78.641219893442567","97.373514163434635","0.000001189","0.000172195","37"
"38","hotpot2","1.0469999999999999","-0.23899999036453681","1.046999999999997","-0.45799999424721921","1.046999999999999","-0.78500000000000059","1.0469999999999999","SIDE","0.038467085801818117","-0.43453930646264122","0.89900843030463162","-0.038467085801818138","-45.364509171555319","-9.0691500245072589","338.95574299262984","0.010527692","0.000034574","38"
"39","hotpot2","0.0","-0.63139999296478899","0.94719999999999938","-0.48539998928978267","0.94719999999999915","-0.98540000000000028","0.94719999999999971","SIDE","1.5602169656180078e-16","-0.6759356392539666","0.19173266790652729","0.7115824587802716","204.96436283340597","-47.198343079191375","27.977722815170281","0.006284569","0.000079757","39"
"40","hotpot2","0.0","-0.8583999972274502","0.94719999999999938","-0.76439999602232156","0.94719999999999949","-0.64239999348726318","0.94719999999999971","SIDE","0.70041502921121612","-0.22878721906296903","-0.67607336528551709","-3.170186184826594e-16","204.01426587907582","-104.79140574787171","69.942990434761924","0.000038648","0.000049557","40"
"41","hotpot2","1.0469999999999999","-0.78500000000000092","1.046999999999999","-0.48899999246000392","1.046999999999999","-0.20999998898711331","1.0469999999999999","TOP","0.7061694650755781","0.69166486096254454","-0.15140808005035891","-1.1791323607850291e-16","42.701257306714183","266.15601895394519","31.05963231937551","0.000034688","0.000013516","41"
"42","hotpot2","0.0","-0.36939999029934267","0.94719999999999971","-0.59239999111238195","0.94719999999999949","-0.98540000000000061","0.94719999999999971","SIDE","0.70554903806628355","0.18686763966335587","-0.68357957849133277","0.0","186.69354328995581","87.583106597801063","106.67633780578194","0.004903232","0.000043329","42"
"43","hotpot2","4.4408920985006262e-16","-0.82139999547004916","0.94719999999999938","-0.63839999329727759","0.94719999999999938","-0.85939999727495131","0.94720000000000304","SIDE","1.9710251269919258e-16","-0.67918502678961734","0.20728045312386972","0.70408984734730407","171.26735064694861","-41.276144415088574","51.862182944194856","0.008126725","0.000073635","43"
"44","hotpot2","0.0","-0.71139999350496308","0.94719999999999938","-0.54839999228212943","0.94719999999999915","-0.98540000000000016","1.570796326794897","SIDE","-1.5476804376919385e-17","0.89668302769985597","-0.28736080617335341","-0.33672439013296884","115.6475102252537","-28.915652399253581","192.27759634079376","0.000611093","0.000077992","44"
"45","hotpot2","0.0","-0.029399983929090202","0.94719999999999815","-0.98540000000000016","0.94719999999999938","-0.50139999004975699","0.94720000000000026","TOP","0.52367570720518875","0.5865820654102768","0.32779412426903609","-0.52367570720518908","69.132559827945812","235.88150533392516","66.80807828592414","0.005449915","0.000034660","45"
"46","hotpot2","0.0","-0.6423999934872644","0.94719999999999938","-0.47739999216944001","0.94719999999999915","-0.98540000000000028","0.94719999999999949","SIDE","0.71429404077393743","0.20900523184322203","0.66790780529725913","3.8857352898472662e-17","-212.20727946866586","58.789561229120956","26.441690175196822","0.008293878","0.000045265","46"
"47","hotpot2","1.0469999999999999","-0.29099998957477469","1.046999999999997","-0.47299999495968431","1.0469999999999999","-0.78500000000000092","1.0469999999999999","SIDE","0.50457058578927472","-0.34125401361091956","0.61185189883416635","0.50457058578927449","-83.050290688450119","-249.37294381520888","26.48974251798461","0.000025471","0.000026782","47"
"48","hotpot2","0.0","-0.98539999999999994","0.94720000000000026","-0.90539999620019873","0.94720000000000149","-0.5213999909997018","0.94719999999999938","SIDE","8.0049061540121481e-17","0.67076866139756197","-0.26301507710819161","0.69346411017492093","-200.8631130894149","118.12359513100391","58.333430111589422","0.000650890","0.000040720","48"
"49","hotpot2","1.110223024625157e-16","-0.97939999971501546","1.3492000060554601","-0.76739999616481491","1.4652000083055321","-0.98539999999999994","1.283200006180252","SIDE","1.9710251269919256e-16","-0.67918502678961723","0.20728045312386972","0.70408984734730407","147.52914117676457","-34.031481147720349","51.650841296342783","0.018473079","0.000433321","49"
"50","hotpot2","0.0","-0.82639999570753819","0.94719999999999949","-0.63939999334477227","0.94719999999999704","-0.86339999746494078","0.94719999999999949","SIDE","0.71241008358441416","0.21700780995887875","0.66736757729462659","-2.3376066331891104e-16","-178.95262434056525","50.989260901208965","48.019615960688952","0.009419248","0.000115494","50"
"51","hotpot2","0.0","-0.81139999499508519","0.94719999999999882","-0.58239999389704222","0.94719999999999971","-0.90639999624769896","0.9472000000000016","SIDE","1.164586297144786e-16","0.64678328241885175","-0.26544498350948459","0.71498975259310193","-173.00107058396122","87.314979152679257","82.1430155363485","0.007592890","0.000049005","51"
"52","hotpot2","0.0","-0.977399999620018","0.94719999999999915","-0.79439999418761242","0.94720000000000004","-0.71239999355246086","0.94719999999999971","SIDE","0.71663255930583503","-0.18778058934268829","-0.67169652761413134","-7.7461106825830821e-17","167.64062882785601","-60.891045066496474","61.4696701606033","0.008972914","0.000096052","52"
"53","hotpot2","0.0","1.0326000306572769","1.570796326794897","-0.38239999091680948","0.94719999999999949","-0.3183999878769741","0.94720000000000126","SIDE","1.5570387800951812e-16","0.010691650287609666","-0.0649522251608083","0.99783109645910872","-26.005101311301981","-23.007541635122699","-102.33311091522201","0.008157586","0.000022325","53"
"54","hotpot2","0.0","-0.62439999263231605","0.94719999999999949","-0.485399989289792","0.9471999999999986","-0.98539999999999994","0.94719999999999971","SIDE","1.170162724213506e-16","-0.6759356392539666","0.19173266790652729","0.7115824587802716","205.45101388633307","-50.978988570255765","27.95867402704997","0.010721710","0.000157494","54"
"55","hotpot2","0.0","-0.50739999033473104","0.94719999999999427","-0.59039999101739038","0.94720000000000115","-0.90939999639020097","0.94719999999999949","SIDE","0.57226727335716832","-0.0047145719570996633","-0.82005362059783204","5.5321534028764258e-17","179.96279431994532","2.1743790678386539","166.89944845576065","0.011611393","0.000184906","55"
"56","hotpot2","2.2204460492503131e-16","-0.98540000000000016","1.3432000090301099","-0.76839999621231203","1.449200007545574","-0.98039999976251235","1.233200007065012","SIDE","0.71241008358441416","0.21700780995887875","0.66736757729462659","-2.3376066331891104e-16","-155.26623385493892","43.287161039010719","48.39466725743187","0.017823079","0.000323058","56"
"57","hotpot2","0.0","-0.81139999499507576","0.94719999999999793","-0.6383999932972706","0.94719999999999938","-0.86839999770243004","0.94719999999999949","SIDE","2.3652301523903106e-16","-0.67918502678961723","0.20728045312386972","0.70408984734730407","170.51675516342391","-44.420725529497574","51.863885939046114","0.006827946","0.000041995","57"
"58","hotpot2","0.0","-0.98539999999999994","0.9702000010924422","-0.88939999544025039","1.2622000051828099","-0.84339999651499364","1.383200007670381","SIDE","0.71663255930583503","-0.18778058934268818","-0.67169652761413123","-7.7461106825830808e-17","143.65929347310819","-54.186783393245314","62.145340212954558","0.017881081","0.000493317","58"
"59","hotpot2","1.0469999999999999","-0.78500000000000081","1.5707963267948959","-0.66999999779742581","1.0469999999999999","-0.54699999521486553","1.0469999999999999","SIDE","-0.23810009965392634","-0.43085587476904175","0.83724542415386438","0.23810009965392681","121.51108898410736","-30.794758691168685","199.78569258602252","0.009633661","0.000115002","59"
"60","hotpot2","0.0","-0.83839999627751161","0.94719999999999915","-0.74839999526236445","0.94719999999999949","-0.62039999244231836","0.94719999999999938","SIDE","0.0","0.66826137399005059","-0.22834896470598356","0.70801376141331818","-213.1761123287574","112.61542666454153","65.382712260940323","0.000014360","0.000073795","60"
"61","hotpot2","0.0","-0.63339999305979333","0.94719999999999849","-0.4803999923119322","0.94720000000000037","-0.98540000000000016","0.94719999999999993","SIDE","0.71429404077393743","0.20900523184322189","0.66790780529725913","0.0","-212.79503574956851","62.602476373302949","26.40695585230042","0.007723284","0.000039398","61"
"62","hotpot2","1.110223024625157e-16","-0.96839999919254538","1.3522000061979511","-0.76539999606981768","1.4592000080205489","-0.98539999999999994","1.2772000058952691","SIDE","2.3652301523903111e-16","-0.67918502678961734","0.20728045312386972","0.70408984734730407","146.6924683825095","-37.149792330862127","51.65177794355882","0.019051295","0.000415029","62"
"63","hotpot2","0.0","-0.91039999643769087","0.94719999999999793","-0.76939999625980759","0.94719999999999915","-0.70539999321997437","0.94719999999999938","SIDE","0.0","0.67082778699069712","-0.22429571423390238","0.70688154083797339","-212.2550768721876","88.545787603949492","66.065762530695082","0.008273833","0.000089085","63"
"64","hotpot2","0.0","-0.81839999532756169","0.94719999999999904","-0.63839999329727704","0.94719999999999815","-0.8723999978924194","0.94719999999999949","SIDE","0.71241008358441416","0.21700780995887875","0.66736757729462659","-2.3376066331891104e-16","-177.82206110119822","53.496059402370136","48.024132837286565","0.006991314","0.000080747","64"
"65","hotpot2","0.0","-0.79939999442508636","0.94719999999999782","-0.5933999911598794","1.2622000051828079","-0.98540000000000016","1.1082000043874549","SIDE","1.5527817295263815e-16","0.64678328241885175","-0.26544498350948459","0.71498975259310193","-149.96213944549532","77.859619278109392","82.701514989669676","0.014838375","0.000216226","65"
"66","hotpot2","0.0","-0.98239999985750703","1.3612000066254319","-0.77239999640230028","1.4602000080680471","-0.98540000000000016","1.2272000067800291","SIDE","0.71241008358441416","0.21700780995887875","0.66736757729462659","-2.7272077387206289e-16","-154.13567061557188","45.793959540172779","48.399184134029511","0.017258200","0.000364271","66"
"67","hotpot2","2.2204460492503131e-16","-0.98540000000000016","0.94720000000000004","-0.89939999591521325","0.94719999999999915","-0.53939999185465515","0.94720000000000493","SIDE","-2.2589306220585142e-16","0.79865773538977969","-0.20397468373616356","-0.56616265339282201","172.01010691957268","-33.812697369081867","147.98798229531926","0.001721934","0.000062472","67"
"68","hotpot2","1.0469999999999999","-0.39999999149236409","1.046999999999999","-0.36899999327957672","1.0469999999999999","-0.78500000000000036","1.0469999999999999","SIDE","-0.49527197961695157","0.61859354579406889","0.3560243776969953","0.49527197961695174","-80.43941054792235","-250.16394782511463","110.03562519078649","0.000000606","0.000013524","68"
"69","hotpot2","0.0","0.17360001919362669","0.94719999999999938","-0.28339998947419232","0.94719999999999949","-0.38139999086931381","0.94720000000000004","TOP","0.88023873419162924","0.46528277393651674","-0.093229346810211805","-8.6712649623485946e-17","39.014137416977682","163.70872691706725","27.720516834642627","0.000553301","0.000010234","69"
"70","hotpot2","0.0","-0.98539999999999983","0.94719999999999949","-0.90239999605770516","0.94719999999999971","-0.56639999313708311","0.94719999999999949","SIDE","0.70408984734730384","-0.20728045312386975","-0.67918502678961767","2.3652301523903116e-16","203.70228186216815","-76.103774943600371","52.212914714927564","0.000796193","0.000039050","70"
"71","hotpot2","0.0","-0.92139999696016472","0.94719999999999727","-0.78139999682977734","0.94719999999999882","-0.72439999412242728","0.94719999999999949","SIDE","2.5324963782863491e-16","-0.55062407937669355","0.14545648769397004","0.82198268436646682","177.60021827114244","-39.651688889920443","-7.2442186082360065","0.000134893","0.000073472","71"
"72","hotpot2","0.0","-0.98540000000000016","1.040200004417261","-0.83939999632501316","1.2472000077299741","-0.71239999355244432","0.94720000000000004","SIDE","2.5324963782863491e-16","-0.55062407937669355","0.14545648769397004","0.82198268436646682","155.05151395159032","-33.695074467818301","1.5069400656674155","0.018077269","0.000192694","72"
"73","hotpot2","0.0","-0.98540000000000016","0.99620000232736694","-0.90839999634269752","1.2942000067027279","-0.85439999703746439","1.4352000101402509","SIDE","0.69499627050508073","0.2036437043080864","0.68957191479910884","-3.9936294327821148e-17","-156.99109671584043","40.099571139334749","70.654506308648209","0.014336611","0.000308480","73"
"74","hotpot2","0.0","1.0326000306572709","1.570796326794897","-0.98540000000000016","0.99420000223237348","-0.56439999304208965","0.95620000042747832","TOP","0.50087230282055617","0.35500117101721207","-0.61010494270319926","0.5008723028205565","32.020742487220687","189.33991527272079","49.979883743634744","0.010943981","0.000092797","74"
"75","hotpot2","0.0","-0.98540000000000016","0.94720000000000026","-0.85139999689497081","0.94719999999999815","-0.65039999386724456","0.94719999999999949","SIDE","3.5881206423273192e-16","-0.55938194203800673","0.16551161559495389","0.81221779592972243","189.7526906046804","-44.953005303819822","4.741370830648636","0.008057973","0.000111205","75"
"76","hotpot2","0.0","-0.63739999324977925","0.94719999999999793","-0.52439999114219216","0.94719999999999949","-0.98540000000000016","0.99520000227988015","SIDE","-7.0881675237179769e-17","0.60680954170906631","-0.13584756667394138","0.78315235983785558","-172.0649252887066","36.468143054717672","50.419745189757819","0.011072546","0.000159556","76"
"77","hotpot2","0.0","-0.87639999808240676","0.94719999999999882","-0.98540000000000016","0.94719999999999949","-0.54139999194964838","0.94720000000000459","SIDE","0.70408984734730395","-0.20728045312386981","-0.67918502678961767","2.7594351777886969e-16","169.24931563043714","-40.660260383283195","51.844216347081698","0.006037607","0.000060049","77"
"78","hotpot2","0.0","-0.55139999242462301","0.94719999999999938","-0.80839999485258029","0.9471999999999986","-0.2163999862918641","0.94719999999999949","SIDE","0.70686821581378778","-0.0097796017025140007","0.024062633584138023","-0.70686821581378811","-14.795214908217558","47.53989933586891","-216.84299947076926","0.000010666","0.000011796","78"
"79","hotpot2","2.2204460492503131e-16","-0.86539999755993646","0.94719999999999938","-0.95439999852758006","0.94719999999999949","-0.57139999337457326","0.94720000000000037","SIDE","0.70408984734730395","-0.20728045312386981","-0.67918502678961767","2.3652301523903116e-16","193.07360241135132","-47.931193581918798","52.056324342569113","0.009182986","0.000093288","79"
"80","hotpot2","0.0","-0.98539999999999994","0.9872000018998921","-0.92339999705515519","1.275200005800271","-0.77839999668728954","1.290200006512737","SIDE","0.71443210542094981","0.19173672436575881","0.67292183444533715","-3.8849843680072407e-17","-159.03100272813666","41.863867508074023","62.98970056587212","0.015017391","0.000320806","80"
"81","hotpot2","0.0","-0.79339999414012918","0.94719999999999727","-0.90139999601020726","0.94719999999999849","-0.6693999947696897","0.94719999999999949","SIDE","0.70671316698860154","0.22213085871423247","-0.67172492972333431","-3.9274173614026593e-17","186.40941244738855","96.78457315860598","66.124566268483235","0.006258146","0.000058384","81"
"82","hotpot2","0.0","-0.6193999923948138","1.3092000074151839","-0.73839999478738139","1.386200007812864","-0.98540000000000028","1.223200006590035","SIDE","0.70501060913993119","0.21401783528636173","0.67613342409577926","3.9369018360573289e-17","-149.92348874622738","65.3725899161103","51.30554899453135","0.011868601","0.000261149","82"
"83","hotpot2","0.0","-0.91839999681768236","1.570796326794897","-0.647399993724742","0.94719999999999949","-0.98539999999999994","1.401200008525324","SIDE","0.50491045303696813","-0.38485713603617155","0.58482121513334528","0.50491045303696824","-30.79183746159234","-174.05819962001826","47.891281692414069","0.013956570","0.000183709","83"
"84","hotpot2","0.0","-0.98540000000000016","0.94719999999999949","-0.79539999423511232","0.94719999999999938","-0.71039999345746063","0.94719999999999949","SIDE","3.9264818802208402e-17","0.67082778699069701","-0.22429571423390243","0.70688154083797361","-188.63064312728955","80.64680168991282","66.049895497268537","0.006112247","0.000045206","84"
"85","hotpot2","0.0","-0.60939999191983707","0.9471999999999986","-0.63739999324976648","0.94719999999999571","-0.88239999836739236","0.94720000000000037","SIDE","0.7050106091399313","0.21401783528636173","0.67613342409577915","7.8738036721146579e-17","-173.67174798261598","72.889672865216511","51.453018237158545","0.010580152","0.000084740","85"
"86","hotpot2","0.0","-0.63139999296478755","0.94719999999999815","-0.52639999123717751","0.94720000000000093","-0.98540000000000016","0.99720000237487372","SIDE","-7.0881675237179769e-17","0.6068095417090662","-0.13584756667394135","0.78315235983785547","-172.88509528327754","33.696225433563519","50.374414139441548","0.010233350","0.000103866","86"
"87","hotpot2","0.0","-0.98539999999999994","0.94720000000000004","-0.89539999572523254","0.94719999999999849","-0.57539999356456162","0.94719999999999949","SIDE","1.1810705508171992e-16","0.67613342409577959","-0.21401783528636173","0.70501060913993097","-212.46406737096132","85.168681601304854","51.693906375651459","0.000823937","0.000065327","87"
"88","hotpot2","1.0469999999999999","-0.37699999365955672","1.0469999999999999","-0.24899999083951321","1.0469999999999999","-0.78500000000000059","1.0469999999999999","SIDE","0.70557313478504358","0.038368020443918897","0.053488297284806398","-0.70557313478504402","-28.288152027160304","-9.1379125169759448","-208.40582847331927","0.004784453","0.000019059","88"
"89","hotpot2","1.110223024625157e-16","-0.92539999715015109","0.94719999999999793","-0.9163999967226627","0.94719999999999949","-0.57039999332707303","0.94719999999999971","SIDE","0.70408984734730384","-0.20728045312386978","-0.67918502678961767","2.3652301523903116e-16","205.71281134289924","-55.162208608916572","52.177236974229487","0.008730843","0.000074987","89"
"90","hotpot2","2.2204460492503131e-16","-0.65839999424722584","0.94719999999999938","-0.63839999329726982","0.9471999999999986","-0.8723999978924154","0.94720000000000149","SIDE","2.3652301523903111e-16","-0.67918502678961734","0.20728045312386972","0.70408984734730407","165.64654612014263","-64.489546364598326","51.874103908152833","0.006049342","0.000030963","90"
"91","hotpot2","0.0","-0.98539999999999994","0.94719999999999915","-0.9753999995250261","0.94719999999999949","-0.56639999313708689","0.94719999999999938","SIDE","0.70408984734730395","-0.20728045312386981","-0.67918502678961767","2.3652301523903116e-16","181.88852456198504","-47.891275410280862","51.965128978742257","0.005334920","0.000082633","91"
"92","hotpot2","1.110223024625157e-16","-0.98540000000000028","0.94720000000000026","-0.85539999708496828","0.94719999999999938","-0.66339999448470566","0.94720000000000304","SIDE","1.2190668541680338e-16","-0.58168572374088856","0.16318799811609633","0.79687602302171168","183.9410819136871","-44.360377366695552","16.63089248771827","0.007159349","0.000072297","92"
"93","hotpot2","0.0","-0.98540000000000016","0.94719999999999949","-0.92239999700765951","0.94719999999999638","-0.56339999299459242","0.94719999999999949","SIDE","3.7526008486155376e-17","0.7396357016192886","-0.21203527379159307","-0.63873317712348943","194.49818443222898","-48.361434514269284","120.91849152993402","0.004377934","0.000090237","93"
"94","hotpot2","0.0","-0.71139999350494887","1.346200009172603","-0.7523999954523477","1.422200009522768","-0.98540000000000016","1.251200004660336","SIDE","1.9710251269919258e-16","-0.67918502678961745","0.20728045312386972","0.70408984734730407","141.82225933922868","-57.218613165962765","51.661995912665496","0.010875216","0.000242000","94"
"95","hotpot2","0.0","-0.87639999808240421","0.9471999999999986","-0.81739999528004492","0.94719999999999971","-0.69639999279250153","0.94719999999999949","SIDE","-1.1980888298346351e-16","0.68957191479910906","-0.20364370430808634","0.69499627050508039","-183.07187659040136","47.801721576315231","71.57856791486131","0.006429835","0.000038996","95"
"96","hotpot2","0.0","-0.82139999547005116","0.94719999999999782","-0.75139999540485114","0.94719999999999938","-0.77539999654479541","0.94720000000000037","SIDE","0.8122177959297221","-0.16551161559495389","-0.55938194203800706","-6.8345155091948962e-17","172.8603302843006","-39.954842800305023","10.678933210639219","0.007257613","0.000092642","96"
"97","hotpot2","0.0","-0.95739999867007064","0.94719999999999915","-0.82039999542254138","0.94720000000000126","-0.98540000000000016","1.570796326794897","SIDE","0.82198268436646671","-0.1454564876939701","-0.55062407937669389","-1.5194978269718098e-16","140.28758946236209","-29.794938819531044","7.2368234338555233","0.000023193","0.000049463","97"
"98","hotpot2","0.0","-0.98540000000000028","1.570796326794897","-0.80639999475758595","1.5707963267948959","-0.81139999499508786","0.94719999999999915","SIDE","0.56616265339282157","-0.20397468373616354","-0.79865773538978013","2.4512015627752133e-16","144.51815965888775","-26.791340160221221","137.07682335875987","0.001665601","0.000050840","98"
"99","hotpot2","0.0","-0.84839999675247946","1.5707963267948959","1.0986000337921089","1.570796326794897","-0.32639998825695582","0.94719999999999938","SIDE","3.5047817720224017e-16","0.023930074061702482","-0.010099628699400121","0.99966261761433073","-9.3548734708168784","45.24381665873252","-103.28642672879975","0.000379273","0.000010377","99"
"100","hotpot2","0.0","-0.80239999456761568","0.94719999999999482","-0.70939999340996085","0.94719999999999849","-0.98540000000000028","1.570796326794897","SIDE","0.8122177959297221","-0.16551161559495389","-0.55938194203800706","-5.1258866318961722e-17","150.30689427054685","-33.281664152002797","18.606329422597071","0.006962461","0.000087612","100"
"101","hotpot2","0.0","-0.87439999798741352","0.94719999999999849","-0.76339999597482333","0.94719999999999949","-0.76339999597482333","0.94719999999999971","SIDE","0.79687602302171134","-0.16318799811609636","-0.581685723740889","-8.7076203869145318e-17","172.17665454916011","-41.059946786669073","20.057481800162478","0.007838369","0.000062435","101"
"102","hotpot2","0.0","-0.93539999762512804","0.94719999999999827","-0.83339999604001769","0.94719999999999915","-0.63239999301229854","0.94719999999999938","SIDE","0.82198268436646649","-0.14545648769397015","-0.550624079376694","-1.1818316432002968e-16","162.75482515932183","-35.730031953074636","-1.4827172440362406","0.006270232","0.000116018","102"
"103","hotpot2","0.0","-0.70139999302999134","0.94719999999999949","-0.80939999490007397","0.94719999999999827","-0.68539999227003334","0.94719999999999971","SIDE","3.0984442730332314e-16","-0.6716965276141309","0.18778058934268813","0.71663255930583547","165.61891837473115","-60.325852357050188","61.52663150939965","0.004849972","0.000032854","103"
"104","hotpot2","0.0","-0.39239998813215371","0.94719999999999793","-0.98540000000000016","1.5707963267948959","-0.31339998763948801","0.94719999999999938","SIDE","-0.012429857527896198","0.99768891732359566","-0.065633996780203083","-0.012429857527896524","-1.9619096222492223","-19.305202155460716","233.46256643230896","0.007409475","0.000023825","104"
"105","hotpot2","1.0469999999999999","-0.70899999639020572","1.0469999999999999","-0.47999999529216519","1.0469999999999999","-0.78500000000000136","1.0469999999999999","SIDE","0.49322997708502675","-0.32202477733893048","0.64011594433291563","-0.49322997708502681","-237.38515402591707","52.313168449796287","91.840614045647243","0.000011415","0.000102163","105"
"106","hotpot2","0.0","-0.90539999620019895","0.94719999999999571","-0.80039999447260446","0.9471999999999986","-0.70939999340996251","0.94719999999999949","SIDE","1.1654953104021726e-16","0.6729218344453376","-0.19173672436575886","0.71443210542094959","-181.34774116047222","48.222612471467656","62.506318273542711","0.006976600","0.000096889","106"
"107","hotpot2","0.0","-0.86239999741744566","0.94719999999999938","-0.70839999336247295","0.94719999999999938","-0.98540000000000016","1.570796326794897","SIDE","0.79687602302171145","-0.16318799811609636","-0.58168572374088889","-1.0449144464297437e-16","149.08351989311598","-34.581323948017378","26.783749552215426","0.007204846","0.000098526","107"
"108","hotpot2","5.5511151231257837e-16","-0.097399983899291442","0.94719999999999949","-0.98539999999999983","0.94719999999999949","-0.55139999242463256","0.94720000000000426","SIDE","-3.5680137250315677e-16","0.7001099205089244","-0.22742069477099788","-0.6768500031726854","174.67239028122435","-92.556464727754303","101.15893041849424","0.004826136","0.000040533","108"
"109","hotpot2","0.0","-0.98539999999999994","0.94720000000000004","-0.98039999976251313","0.94719999999999949","-0.55139999242462112","1.120200004957425","SIDE","1.1688033165945554e-16","0.66736757729462681","-0.21700780995887844","0.71241008358441393","-163.4542829609201","48.824091248274485","48.251632836751817","0.009055542","0.000115679","109"
"110","hotpot2","0.0","-0.097399983899296869","0.94719999999999938","-0.88539999525025015","0.94719999999999815","-0.55039999237712856","0.94720000000000004","SIDE","-3.5680137250315677e-16","0.7001099205089244","-0.22742069477099794","-0.6768500031726854","198.28056388476426","-100.22524228098247","103.2450967455741","0.003722949","0.000043431","110"
"111","hotpot2","0.0","-0.97539999952502665","0.94719999999999949","-0.78739999385512915","0.94719999999999516","-0.71439999364745121","0.94719999999999938","SIDE","0.69499627050508073","0.2036437043080864","0.68957191479910884","-7.9872588655642295e-17","-180.86732718373574","47.150676198931379","71.500459074732575","0.007586901","0.000060680","111"
"112","hotpot2","0.0","-0.13439998565669661","0.94719999999999815","-0.98539999999999961","0.94719999999999915","-0.54039999190214916","0.94719999999999971","SIDE","0.70884064196630991","0.2262674845810233","0.66809278526127336","-2.3493778972917378e-16","-191.56968304381613","104.64932278078447","84.992644422584391","0.003746912","0.000040671","112"
"113","hotpot2","0.0","-0.91839999681767237","0.9471999999999976","-0.80639999475758728","0.94719999999999938","-0.61039999196735073","0.94720000000000204","SIDE","1.2190668541680338e-16","-0.58168572374088856","0.16318799811609633","0.79687602302171168","207.03421656973123","-50.839000205347389","9.9046247356653048","0.002691875","0.000050126","113"
"114","hotpot2","1.0469999999999999","-0.62799999580253552","1.0469999999999999","-0.57699999663978851","1.0469999999999999","-0.78500000000000103","1.570796326794897","SIDE","4.6430413130758151e-17","0.89668302769985597","-0.28736080617335341","-0.33672439013296884","122.89999028073862","-31.239861123094595","201.56412944840753","0.020528204","0.000165983","114"
"115","hotpot2","0.0","-0.97739999962001944","0.94719999999999949","-0.98540000000000016","0.95120000018998963","-0.62439999263231361","1.404200008667829","SIDE","1.1688033165945554e-16","0.66736757729462681","-0.21700780995887844","0.71241008358441393","-157.26307911397336","43.936474897271296","48.363049126154948","0.008112342","0.000207939","115"
"116","hotpot2","0.0","-0.92639999719765498","0.94719999999999815","-0.96239999890756578","0.94719999999999938","-0.57539999356456284","0.94719999999999915","SIDE","1.1688033165945554e-16","0.66736757729462681","-0.21700780995887844","0.71241008358441393","-187.1406734465464","56.526191110472681","47.876581540008843","0.007091202","0.000045782","116"
"117","hotpot2","0.0","1.032600030657272","1.570796326794897","-0.97739999962002044","0.94719999999999915","-0.56039999285210074","0.94720000000000204","SIDE","0.50491045303696791","-0.58482121513334562","-0.38485713603617194","-0.50491045303696813","-37.699791229762511","-207.55668219808163","47.21603573260586","0.000705144","0.000002928","117"
"118","hotpot2","0.0","-0.75839999573733796","0.94719999999999882","-0.61339999210984431","0.94719999999999938","-0.88639999529776858","0.94719999999999938","SIDE","0.63873317712348909","-0.21203527379159315","-0.73963570161928882","-1.7381640165068677e-16","167.01221445198919","-40.481886302319452","115.56477197012782","0.008218639","0.000089558","118"
"119","hotpot2","0.0","-0.98539999999999994","1.570796326794897","-0.87639999808240898","0.94719999999999993","-0.75139999540485292","1.570796326794897","SIDE","2.3720978860240546e-16","0.59613160697910661","0.38955230842732902","0.70205135578492195","-134.71175262005912","-102.65938680487349","87.655344990399314","0.002711998","0.000071557","119"
"120","hotpot2","0.0","-0.77639999659229053","0.94719999999999949","-0.65339999400973003","0.94719999999999915","-0.81939999537505537","0.94719999999999915","SIDE","0.56616265339282157","-0.20397468373616348","-0.79865773538978013","2.4512015627752133e-16","167.0452781570657","-32.544695656002183","146.01751308093739","0.006642536","0.000100394","120"
"121","hotpot2","0.0","-0.55939999280460784","0.94719999999999971","-0.4333999900795647","0.94719999999999938","-0.98539999999999994","0.94719999999999949","SIDE","0.0","0.65922410885073535","-0.20531068142177114","0.72337479801558058","-223.56860370497034","65.709764664847015","96.128379151324552","0.006803254","0.000071695","121"
"122","hotpot2","0.0","-0.96439999900255458","0.94719999999999949","-0.80139999452010346","0.94719999999999827","-0.69939999293499788","0.94719999999999938","SIDE","0.71443210542094981","0.19173672436575881","0.67292183444533715","-3.8849843680072407e-17","-182.98231462312751","48.688354174930659","62.470913285047757","0.006927233","0.000039647","122"
"123","hotpot2","0.0","-0.95739999867007441","0.9471999999999986","-0.98539999999999994","0.94720000000000004","-0.53639999171216157","0.94719999999999949","SIDE","0.70743059517031559","0.20000903492155772","-0.67789257184801777","-2.3540606644766348e-16","192.85694189049616","92.902086576452845","50.315664934244012","0.004036156","0.000068214","123"
"124","hotpot2","2.151057110211241e-16","1.032600030657272","1.570796326794897","-0.95839999871756432","0.94719999999999827","-0.56239999294709864","0.94719999999999949","TOP","0.50087230282055595","0.35500117101721224","-0.61010494270319926","0.5008723028205565","38.386463771904232","213.42265026909146","49.89289167330184","0.000968973","0.000003654","124"
"125","hotpot2","1.046999999999999","-0.26699999169446559","1.046999999999997","-0.38999999101739391","1.0469999999999999","-0.51099999350495828","1.047000000000001","SIDE","0.1575036402457598","0.81219555009352362","0.53918790326466626","-0.15750364024576011","33.408975020621263","130.99142882410621","315.11838153359992","0.000010819","0.000010482","125"
"126","hotpot2","0.0","-0.98539999999999994","1.570796326794897","-0.81139999499507698","1.570796326794897","-0.84939999679997968","0.94719999999999949","SIDE","0.63873317712348887","-0.21203527379159312","-0.73963570161928893","-1.738164016506868e-16","143.4757587466159","-33.734566211298286","110.98033913516122","0.000434438","0.000024753","126"
"127","hotpot2","0.0","-0.68839999241253091","0.94719999999999815","-0.57339999346956816","0.94719999999999938","-0.93039999738764156","0.94719999999999915","SIDE","-5.3161256427884818e-17","0.6068095417090662","-0.13584756667394135","0.78315235983785569","-195.74060113836438","41.768460094029315","44.773763225147249","0.006821902","0.000042115","127"
"128","hotpot2","0.0","-0.78339999692477247","1.48320000916049","-0.98540000000000016","1.402200008572823","-0.80839999485258274","1.4072000088103169","SIDE","3.0984442730332309e-16","-0.6716965276141309","0.18778058934268813","0.71663255930583547","141.63758301998251","-53.621590683798928","62.2023015617509","0.012576495","0.000197887","128"
"129","hotpot2","0.0","1.0326000306572749","1.570796326794897","-0.98540000000000028","1.5707963267948959","-0.15739998674914429","0.94719999999999949","TOP","-3.895375451493662e-17","-0.20316688849641901","-0.67158726103220401","0.71252632669814087","57.349533519733356","152.03025333426382","8.7258493688602119","0.000025697","0.000000139","129"
"130","hotpot2","0.0","-0.681399995339663","0.94720000000000026","-0.57439999351706383","0.94719999999999938","-0.92939999734013479","0.94719999999999949","SIDE","-7.0881675237179769e-17","0.60680954170906631","-0.13584756667394138","0.78315235983785558","-196.56077113293534","38.99654247287409","44.728432174830928","0.006841803","0.000049259","130"
"131","hotpot2","0.0","-0.98539999999999994","1.218200006352554","-0.91939999686516738","1.2862000063227541","-0.77839999668728688","1.2592000050403189","SIDE","-1.5974517731128469e-16","0.68957191479910906","-0.20364370430808629","0.69499627050508039","-159.19564612250588","40.750616516718061","70.732615148777128","0.011285828","0.000200278","131"
"132","hotpot2","0.0","-0.59139999106488916","0.94719999999999882","-0.81939999537504626","0.94719999999999949","-0.5443999920921454","1.00920000294485","SIDE","1.5813985906827029e-16","0.59613160697910661","0.38955230842732885","0.70205135578492195","-155.56217006483169","-116.28444568817063","88.010257381535624","0.001686637","0.000074901","132"
"133","hotpot2","0.0","-0.80639999475758872","0.94719999999999649","-0.97039999928753795","0.94719999999999938","-0.56339999299459664","0.94719999999999949","SIDE","1.1688033165945554e-16","0.66736757729462681","-0.21700780995887844","0.71241008358441393","-180.9494695995993","51.638574759469464","47.987997829411981","0.006034084","0.000050711","133"
"134","hotpot2","0.0","-0.80539999471009094","1.570796326794897","-0.82939999585002044","1.017200003324825","-0.98540000000000016","1.5707963267948959","SIDE","0.70739606982357994","0.22042882136149955","-0.67156677636057382","7.8472518578032179e-17","135.86001444575265","79.799581696607305","85.838119137980684","0.006063638","0.000081685","134"
"135","hotpot2","1.0469999999999999","-0.22899998988956119","1.0469999999999999","-0.47199999491218553","1.0469999999999999","-0.7850000000000007","1.0469999999999999","TOP","-0.49387220115307201","-0.35132486002047258","0.62349927071972921","-0.4938722011530724","53.994020629066114","261.14412851079322","111.22044722530988","0.000026586","0.000020207","135"
"136","hotpot2","0.0","-0.57839999370705375","0.94719999999999938","-0.47939999226442959","0.94719999999999938","-0.98540000000000016","0.94720000000000126","SIDE","1.1778706074064671e-16","-0.67732427666363826","0.20368495537902895","0.70692592482828231","201.03477457522186","-74.385481655568427","30.579444343937066","0.006331559","0.000052142","136"
"137","hotpot2","0.0","-0.56039999285210051","0.94719999999999949","-0.47739999216943879","0.94719999999999971","-0.98540000000000016","0.94720000000000037","SIDE","0.71220850416271553","0.22605330725421102","0.66457426137169995","-2.3382682560011422e-16","-207.27154349898532","88.038657104519217","27.557389082383825","0.001735365","0.000043650","137"
"138","hotpot2","0.0","1.032600030657274","1.5707963267948959","-0.31139998754449311","0.94719999999999993","-0.3683999902518465","0.94720000000000004","SIDE","2.3253726260157198e-16","0.18215699592924633","0.67374798399647096","0.71615814098195074","-57.217409846584971","-163.42931499670286","122.63128607116224","0.000088024","0.000000040","138"
"139","hotpot2","0.0","-0.68139999533966333","1.3102000074626849","1.0986000337921129","1.570796326794897","-0.98540000000000028","1.04920000158511","TOP","0.49933721742181814","0.59614259362510991","0.3820192333650213","-0.49933721742181836","23.84061083103223","179.99650608033789","30.825957600314172","0.013834904","0.000178054","139"
"140","hotpot2","0.0","1.0326000306572729","1.570796326794897","-0.34839998930189481","0.94719999999999949","-0.3353999886844326","0.94719999999999949","SIDE","0.67857788488044757","-0.72006953197453383","0.14502387139072526","1.0225641092222933e-16","-29.711396620544669","-171.87016581716654","20.668160316428672","0.000394091","0.000000128","140"
"141","hotpot2","1.0469999999999999","-0.78500000000000103","1.0469999999999999","-0.65999999732244663","1.0469999999999999","-0.63399999608752067","1.0469999999999999","SIDE","-0.45165256091284717","0.67293300017145063","0.37306984027388712","-0.45165256091284767","207.25379047966217","-52.018151482803837","123.40302955578132","0.001441466","0.000122027","141"
"142","hotpot2","0.0","-0.98539999999999961","1.1352000056698881","-0.89439999567772743","1.258200004992821","-0.83439999608751603","1.371200007100402","SIDE","1.1654953104021726e-16","0.67292183444533749","-0.19173672436575886","0.71443210542094959","-157.39642926548032","41.398125804612441","63.025105554366981","0.014509756","0.000328854","142"
"143","hotpot2","0.0","-0.98539999999999994","1.570796326794897","-0.81839999532756091","1.0182000033723171","-0.92239999700766218","1.570796326794897","TOP","0.50391487885377195","0.60560977312600273","0.354085289773309","-0.50391487885377217","26.886608233803866","171.0908112983744","63.997706802344553","0.004980685","0.000056260","143"
"144","hotpot2","4.4408920985006271e-16","0.89560003066937921","0.94719999999999405","-0.71939999388492892","0.94719999999999815","-0.98540000000000016","1.5707963267948959","SIDE","0.1575036402457598","0.81219555009352351","0.53918790326466626","-0.15750364024576013","24.386778205332099","86.331699945647188","220.61855600439333","0.002821053","0.000052373","144"
"145","hotpot2","1.0469999999999999","-0.21899998941458881","1.0469999999999979","-0.47799999519717068","1.0469999999999999","-0.78500000000000059","1.0469999999999999","SIDE","-0.49168007114815476","0.63663298306132166","0.33346643031935569","0.49168007114815504","-69.299083139312273","-253.34857470646244","113.12534153723018","0.000017165","0.000017753","145"
"146","hotpot2","0.0","1.032600030657272","1.5707963267948959","-0.88839999539275016","0.94719999999999949","-0.29139998659454369","0.94719999999999949","SIDE","0.48842926009854448","0.63691529282485049","0.34236329465205795","0.48842926009854437","-186.77296460262153","31.144636869296352","133.52385366648468","0.000009679","0.000000030","146"
"147","hotpot2","0.0","1.03260003065727","1.570796326794897","-0.87739999812990466","0.94719999999999949","-0.28839998645205511","0.94719999999999949","SIDE","-0.48175252278867053","-0.36366139144631865","0.63527899850760838","0.48175252278867103","177.49538591303948","-20.053464083266764","137.75792929602204","0.000021101","0.000000067","147"
"148","hotpot2","0.0","-0.34839998930190158","0.94719999999999882","-0.44739999074451992","0.94719999999999949","-0.98540000000000028","0.94719999999999971","SIDE","2.367885385345942e-16","0.68321958904152502","-0.1964170571617018","0.70330031480574962","-224.26666053246666","39.629585812613676","108.11929489876061","0.006866897","0.000051971","148"
"149","hotpot2","0.0","-0.98540000000000016","1.570796326794897","-0.36439999006185619","0.94719999999999938","-0.32539998820945681","0.94719999999999971","SIDE","7.6806325325334649e-17","0.019286125406920377","0.0094371580106938028","0.99976946613480333","-8.6021660976717111","21.042908161593751","-109.36378515874598","0.007969594","0.000027979","149"
"150","hotpot2","0.0","1.0326000306572729","1.570796326794897","-0.9853999999999995","0.94719999999999971","-0.2603999883817476","0.94719999999999949","SIDE","-0.49990760502170301","0.62299903202613838","0.3347491284192155","-0.49990760502170317","179.66789450035304","-89.930138898347337","10.545192235097455","0.000041593","0.000000185","150"
"151","hotpot2","0.0","-0.38439999101180639","0.94719999999999938","-0.98539999999999994","1.570796326794897","-0.28539998630955871","0.94719999999999949","SIDE","0.056686813123342866","-0.12056377495251458","0.98946328209036527","-0.056686813123342727","-18.850292727109274","54.485101794593838","242.98075296665027","0.007444043","0.000044767","151"
"152","hotpot2","1.0469999999999999","-0.7849999999999987","1.0469999999999979","-0.73999999786260839","1.0469999999999999","-0.5329999945499112","1.0469999999999999","SIDE","0.50375000108821422","0.62534783344143274","0.31845244545670326","0.50375000108821444","-229.90071029127807","67.556041982454857","47.212901838756977","0.000214056","0.000108708","152"
"153","hotpot2","1.0469999999999999","-0.64799999675248543","1.046999999999997","-0.65899999727495007","1.0469999999999999","-0.78500000000000103","1.0469999999999999","SIDE","2.3652301523903111e-16","-0.67918502678961756","0.20728045312386972","0.70408984734730395","223.28673957805472","-57.151939792725116","52.325312372333372","0.000552555","0.000179030","153"
"154","hotpot2","0.0","1.0326000306572769","1.5707963267948959","-0.98539999999999983","1.551796329152076","-0.351399989444384","1.570796326794897","SIDE","-0.47763452467621553","-0.36688110198276774","0.63963175240333459","0.47763452467621592","143.23888557948197","-22.758607512616582","137.53956067237181","0.007172323","0.000025310","154"
"155","hotpot2","1.0469999999999999","-0.54599999516736986","1.046999999999997","-0.72099999696016603","1.0469999999999999","-0.78500000000000103","1.0469999999999999","SIDE","0.63873317712348909","-0.21203527379159318","-0.73963570161928882","-1.738164016506868e-16","207.4333138329564","-52.069616390844047","123.43799712973806","0.000147852","0.000083097","155"
"156","hotpot2","0.0","0.1086000193659156","0.94719999999999793","-0.98539999999999961","1.3762000073378879","-0.90639999624769441","1.401200008525326","TOP","0.50391487885377184","0.354085289773309","-0.60560977312600306","0.50391487885377184","29.624342000442624","181.53667145622975","63.827921935251801","0.013880891","0.000282978","156"
"157","hotpot2","0.0","-0.98540000000000028","1.570796326794897","-0.38339999096430832","0.94719999999999949","-0.31939998792447311","0.94719999999999949","SIDE","0.99972754138550002","-0.009338849061597241","-0.021392262468192078","-8.6542912726439493e-17","0.3714140416123245","-18.648052568497736","-108.2962243361236","0.008940336","0.000046375","157"
"158","hotpot2","1.0469999999999979","-0.46099999438971279","1.046999999999997","-0.30099999004974709","1.0469999999999999","-0.78500000000000092","1.0469999999999999","TOP","0.49933721742181825","0.59614259362511002","0.3820192333650213","-0.49933721742181836","40.562861985038829","256.38736656526527","31.033138586687354","0.004353309","0.000012489","158"
"159","hotpot2","1.046999999999999","-0.78500000000000081","1.142000004512252","-0.34699999223463329","1.0469999999999999","-0.4309999929647918","1.0469999999999999","TOP","9.7471445730277464e-17","-0.17492840184093314","-0.68015645680457326","0.71188991318631967","27.311675401647964","175.33398628902634","84.209171858781914","0.010937321","0.000101543","159"
"160","hotpot2","0.0","-0.37039999034684362","1.1952000052601039","-0.53839999180715414","0.94719999999999949","-0.98540000000000016","0.94720000000000026","SIDE","0.57226727335716832","-0.0047145719570996633","-0.82005362059783204","5.3805875562222772e-17","156.5827740195403","2.3087931906423851","158.30499189375465","0.005798813","0.000082335","160"
"161","hotpot2","1.0469999999999999","-0.78500000000000103","1.570796326794897","-0.77699999962002197","1.0469999999999999","-0.37299999346956569","1.0469999999999999","SIDE","8.6120429608459124e-17","-0.61200772074396004","0.64457587454725473","0.45822318983375848","102.47611736657896","-86.25466661597082","195.72230988578644","0.000249770","0.000092453","161"
"162","hotpot2","0.0","0.097600018843448155","0.94719999999999782","-0.98540000000000016","1.3502000061029551","-0.89039999548773152","1.379200007480383","SIDE","0.50007817778431018","-0.60986995967586988","-0.35763426079278288","-0.50007817778431041","-38.395921774757454","-176.36109013896598","65.892138524281862","0.016824237","0.000344336","162"
"163","hotpot2","0.0","1.03260003065728","1.5707963267948959","-0.98540000000000016","1.201200005545102","-0.063399985544013174","1.074200002772546","SIDE","-0.48175252278867053","-0.36366139144631859","0.63527899850760838","0.48175252278867098","153.5199068337852","-13.534394155625094","135.97292783979012","0.007557971","0.000033385","163"
"164","hotpot2","0.0","1.0326000306572769","1.570796326794897","-0.98539999999999994","1.173200004215162","-0.059399985354021911","0.94719999999999938","SIDE","0.48842926009854448","0.63691529282485049","0.34236329465205795","0.48842926009854437","-162.94364430390061","23.977142349507357","132.38428514736256","0.007497600","0.000012728","164"
"165","hotpot2","0.0","-0.2013999855793808","0.94719999999999915","-0.64739999372474322","1.3842000077178671","-0.98540000000000483","1.11520000471993","SIDE","0.70547182118314122","-0.19527658447511875","-0.68130504553560567","1.1802984094707107e-16","155.28309201403908","-15.5777972510634","86.583234502607169","0.009785552","0.000174139","165"
"166","hotpot2","1.0469999999999999","-0.38199999389704442","1.0469999999999999","-0.39699999134988051","1.0469999999999999","-0.78500000000000036","1.0469999999999999","SIDE","0.50619447540876028","-0.60899580245727658","-0.34155295156200582","-0.50619447540876039","-83.468237618134623","-252.50311908039629","80.437232956011144","0.000308922","0.000022494","166"
"167","hotpot2","0.0","1.0326000306572729","1.570796326794897","-0.75339999549985159","0.94719999999999938","-0.36339999001435858","0.94719999999999938","SIDE","-0.47763452467621553","-0.36688110198276774","0.63963175240333459","0.47763452467621592","167.18961586676051","-29.248914353146116","139.71821526220296","0.000005648","0.000000028","167"
"168","hotpot2","0.0","1.0326000306572749","1.5707963267948959","-0.65239999396224069","0.9802000015674146","-0.41239998908210718","0.97820000147242403","SIDE","0.52962915428846835","0.33013826487206649","-0.57445160276791296","-0.5296291542884688","159.65891765752559","-36.544799843060019","107.22743692869119","0.009156360","0.000049424","168"
"169","hotpot2","0.0","1.0326000306572789","1.5707963267948959","-0.98540000000000016","1.570796326794897","-0.70539999321997804","1.570796326794897","SIDE","0.52962915428846824","0.33013826487206638","-0.57445160276791318","-0.52962915428846891","135.79029681870435","-30.098317700477292","110.26715850113698","0.000012848","0.000000391","169"
"170","hotpot2","0.0","1.0326000306572769","1.570796326794897","-0.81539999518506168","1.570796326794897","-0.19239998515192119","0.94719999999999949","SIDE","0.7011018145116843","-0.67981483527870989","0.21519301899319188","1.187655275216793e-16","-55.087260023927726","-139.82443940206105","12.232144194873285","0.001282077","0.000009482","170"
"171","hotpot2","0.0","1.032600030657276","1.570796326794897","-0.41539998922459748","0.94719999999999949","-0.27039998885672428","0.94720000000000149","SIDE","0.70110181451168441","-0.67981483527870989","0.21519301899319188","1.1876552752167928e-16","-62.603713829350887","-163.5696186347358","12.653434355070573","0.000036284","0.000000011","171"
"172","hotpot2","0.0","-0.60239999158735502","0.94719999999999938","-0.79339999414010898","0.94719999999999949","-0.71239999355246486","0.94719999999999971","SIDE","0.70688154083797383","0.22429571423390235","0.67082778699069678","7.852963760441678e-17","-168.6290646694388","73.959141439386556","66.036461705906078","0.008225584","0.000062182","172"
"173","hotpot2","0.0","-0.98540000000000028","0.94720000000000026","-0.41539998922459481","0.94719999999999915","-0.40539998874960081","0.94720000000000126","SIDE","0.69716303297252247","-0.47476167667784774","0.53718251629645619","0.0","-173.92856689846136","-161.03493164376363","111.18442875011478","0.002759291","0.000057694","173"
"174","hotpot2","1.046999999999999","-0.63499999613501534","1.0469999999999999","-0.66899999774992536","1.046999999999999","-0.78500000000000048","1.0469999999999999","SIDE","0.71241008358441416","0.21700780995887875","0.66736757729462659","-1.9480055276575921e-16","-229.52986754809211","67.435455106081733","47.218773778247119","0.000541425","0.000107953","174"
"175","hotpot2","0.0","1.0326000306572749","1.570796326794897","-0.98540000000000028","1.5707963267948959","-0.42739998979456501","1.570796326794897","SIDE","0.48655254947310628","0.64310517332365635","0.33607881404038431","0.486552549473106","-149.91687656381478","37.319586428483078","132.9598242659554","0.000012126","0.000000070","175"
"176","hotpot2","0.0","-0.6413999934397614","1.011200003039832","-0.62539999267979962","0.94719999999999938","-0.77539999654479674","0.94719999999999949","SIDE","0.50491045303696813","-0.38485713603617144","0.5848212151333454","0.50491045303696824","-35.821861638317678","-198.45010826706923","47.399601577425365","0.008917683","0.000187084","176"
"177","hotpot2","1.0469999999999999","-0.61399999513756531","1.0469999999999999","-0.6829999984148889","1.0469999999999999","-0.78500000000000025","1.0469999999999999","SIDE","0.71241008358441416","0.21700780995887875","0.66736757729462659","-2.3376066331891104e-16","-228.77014705191195","70.062840483616313","47.217418715352395","0.000038357","0.000140230","177"
"178","hotpot2","0.0","1.0326000306572729","1.570796326794897","-0.73139999445490789","0.94719999999999971","-0.39439998822714489","0.94719999999999938","SIDE","0.48655254947310628","0.64310517332365635","0.33607881404038431","0.48655254947310583","-173.65234343279388","44.761920119303866","134.28170994410118","0.000022509","0.000000113","178"
"179","hotpot2","0.0","-0.98539999999999994","1.2602000050878099","-0.85739999717995763","1.383200007670373","-0.46539999159947049","0.94719999999999949","SIDE","-0.33672439013296857","0.28736080617335358","0.89668302769985608","-6.1907217507677552e-17","124.34927859026655","-31.704315834668471","203.41988965263019","0.001537359","0.000163710","179"
"180","hotpot2","0.0","-0.47039999183695858","0.94719999999999849","-0.22539998671933689","0.94719999999999915","-0.95639999862257619","0.94719999999999915","SIDE","0.49035317481418178","0.66028481365914427","0.28832532450413378","0.49035317481418178","-157.42703258415537","101.09187507484764","56.549169129761452","0.013106644","0.000090131","180"
"181","hotpot2","0.0","-0.91539999667517147","0.94719999999999882","-0.76839999621231192","0.94719999999999949","-0.45339999102950312","0.94720000000000115","SIDE","2.1490228509062795e-16","-0.6040969614039704","0.18589227795264313","0.77492639793729268","226.31686088671921","-40.28420742267712","21.689446202411307","0.000007864","0.000076608","181"
"182","hotpot2","0.0","-0.98540000000000016","1.570796326794897","-0.25939998833425382","0.94719999999999949","-0.34239998901691121","0.94720000000000004","SIDE","9.8915301144151651e-17","0.17935895536749127","0.70149853699530396","0.68973195353189976","-50.661198877259828","-145.77898642583924","55.752572890658648","0.006471961","0.000037789","182"
"183","hotpot2","0.0","-0.88339999841488959","0.94719999999999915","1.098600033792106","1.5707963267948959","-0.49439998971727528","0.94720000000000459","SIDE","-0.15750364024575966","-0.53918790326466604","0.81219555009352373","-0.15750364024575983","27.466416620192529","101.57586048294898","252.87514482146372","0.000004585","0.000000062","183"
"184","hotpot2","0.0","1.032600030657276","1.570796326794897","-0.77739999663978832","1.570796326794897","-0.18939998500943281","0.94719999999999938","TOP","-3.9043835773053675e-17","-0.20502444729130251","-0.67276384542493828","0.71088239836272904","46.088023603881553","145.63631040875777","9.3590336099586011","0.001109472","0.000007091","184"
"185","hotpot2","0.0","-0.83839999627750461","0.9472000000000016","-0.98539999999999994","1.570796326794897","-0.63839999329727715","1.5707963267948959","SIDE","0.5812295301334498","0.28649675159587568","-0.49220328922784384","-0.58122953013345047","136.58529294309463","-28.816915757582837","8.6736857847372608","0.007827011","0.000072048","185"
"186","hotpot2","0.0","-0.46339999150447347","0.94719999999999849","-0.26639998866673409","0.94719999999999971","-0.90739999629519807","0.94720000000000337","SIDE","0.50325656365766847","0.3230426205466756","-0.62378612326765193","-0.50325656365766902","159.16410375474911","-86.385230674258381","48.326999566112853","0.007004852","0.000063126","186"
"187","hotpot2","0.0","-0.56039999285209563","0.94719999999999915","-0.34839998930189481","0.94719999999999949","-0.8183999953275708","0.94719999999999949","SIDE","0.49322997708502675","-0.32202477733893048","0.64011594433291563","-0.49322997708502681","-184.81376790431042","34.932661435338282","90.350802550121884","0.008640264","0.000072295","187"
"188","hotpot2","1.0469999999999999","-0.37199999342206941","1.046999999999997","-0.71399999662767455","1.0469999999999999","-0.78500000000000025","1.0469999999999999","SIDE","7.9582169151750004e-17","0.68033622874988098","-0.22492442121698947","0.6975325229626157","-234.9174593121983","51.49732948405272","91.770682468356924","0.000097811","0.000065824","188"
"189","hotpot2","0.0","0.45260002266652921","0.94719999999999827","-0.98539999999999994","1.570796326794897","-0.60339999163486635","1.5707963267948959","SIDE","0.48665203429637449","0.64287548834703989","0.33623013177428912","0.48665203429637449","-144.44045113497128","41.447024292646539","132.69783599397866","0.002565188","0.000026419","189"
"190","hotpot2","0.0","0.42960002157408561","0.94719999999999815","-0.65639999415222705","0.94920000009499361","-0.43339999007955171","0.94719999999999949","SIDE","0.48665203429637449","0.64287548834703989","0.33623013177428906","0.4866520342963746","-168.17887115259623","48.881642296244216","134.01007461839342","0.008929898","0.000044869","190"
"191","hotpot2","0.0","-0.98540000000000028","1.570796326794897","-0.4733999919794486","1.0422000045122559","-0.23839998733680479","0.94719999999999949","SIDE","0.715867092321403","-0.67213946981545802","0.18911065344790851","3.877196746902215e-17","-56.934130900759349","-158.19526229983089","82.880508988315029","0.007708820","0.000095941","191"
"192","hotpot2","1.0469999999999999","-0.2199999894620851","1.0469999999999999","-0.57699999663978851","1.0469999999999999","-0.7850000000000007","1.0469999999999999","TOP","0.503382185072349","0.35725018371047973","-0.60463630203817842","0.50338218507234922","50.175340543871464","264.23246880555212","82.963033017130684","0.000048627","0.000024951","192"
"193","hotpot2","3.6082248300317588e-16","0.1566000183861464","0.94719999999999793","-0.79139999404511729","0.94719999999999827","-0.70239999307747958","0.94720000000000182","TOP","0.50391487885377184","0.354085289773309","-0.60560977312600306","0.50391487885377184","35.938874030994057","205.62985369225814","63.436316296077543","0.003473728","0.000023800","193"
"194","hotpot2","0.0","-0.60539999172986092","1.3422000089826041","-0.22739998681433091","1.2062000057825839","-0.98539999999999994","1.3762000073378891","SIDE","0.49322997708502647","-0.32202477733893026","0.64011594433291563","-0.49322997708502675","-161.17135579547119","27.116297062790018","89.680804287945023","0.017450188","0.000352355","194"
"195","hotpot2","0.0","-0.068399985781496961","0.94719999999999849","-0.98539999999999983","0.94720000000000004","-0.5163999907622312","0.94719999999999971","SIDE","0.50619447540876006","-0.34155295156200538","0.60899580245727658","0.50619447540876061","-76.317566732404231","-227.08811442394929","81.095670904425788","0.005637184","0.000040759","195"
"196","hotpot2","1.0469999999999999","-0.7849999999999997","1.0469999999999999","-0.51299999359994497","1.046999999999999","-0.67799999817740098","1.0469999999999999","SIDE","-0.49987211524264952","-0.33491357591694138","0.62296760226532288","0.49987211524264991","218.36799022757125","-79.597926238415198","30.588702016713455","0.000004229","0.000077994","196"
"197","hotpot2","0.0","1.032600030657276","1.570796326794897","-0.43039998993705658","0.94719999999999938","-0.26439998857174118","0.94719999999999971","TOP","-3.9043835773053675e-17","-0.20502444729130248","-0.67276384542493828","0.71088239836272904","53.349202455806811","169.46302313145478","9.0923080760357138","0.000113384","0.000000059","197"
"198","hotpot2","0.0","1.0326000306572749","1.5707963267948959","-0.32639998825695332","0.94719999999999949","-0.3663999901568521","0.94719999999999949","TOP","3.9499841924977184e-17","-0.15791313479695795","-0.69376539662259151","0.70267561243271837","24.17585870163585","176.70990988180014","12.08227152076539","0.000198383","0.000000093","198"
"199","hotpot2","0.0","0.28560002125370182","0.94719999999999793","-0.77139999635480316","0.94719999999999938","-0.35439998958688168","0.94719999999999938","SIDE","0.51146966991660858","-0.60205999641147656","-0.33811435082203134","0.51146966991660869","161.95521173850128","-59.628766181065728","3.0798566894405242","0.003006232","0.000012472","199"
"200","hotpot2","0.0","0.2756000207787368","0.94719999999999815","-0.98540000000000028","1.5172000107754069","-0.29439998673703732","1.4322000099977501","SIDE","0.51146966991660825","-0.60205999641147678","-0.33811435082203134","0.51146966991660858","137.99823530566997","-52.903056604388361","4.2358025735328608","0.011219572","0.000102808","200"
"201","hotpot2","1.0469999999999999","-0.71199999653268364","1.046999999999995","-0.49399999269749628","1.0469999999999999","-0.78500000000000103","1.0469999999999999","SIDE","0.49893710982548994","-0.34004727185682793","0.62168430395233765","-0.49893710982548989","-234.41324279963084","43.604896900939735","66.844028585479506","0.017406184","0.000111890","201"
"202","hotpot2","0.0","-0.98540000000000028","1.570796326794897","-0.55439999256711547","1.152200003217716","-0.54939999232963244","0.97720000142492069","SIDE","0.55377234434359501","-0.33302040622834628","0.52513787743401719","-0.55377234434359501","-160.05403873742455","30.823713236896861","53.434259793050245","0.012466249","0.000270187","202"
"203","hotpot2","0.0","1.0326000306572769","1.570796326794897","-0.2373999872893072","0.94719999999999949","-0.29539998678453561","0.94719999999999949","SIDE","2.1315915738477432e-16","0.18215699592924631","0.67374798399647096","0.71615814098195074","-50.718230646810724","-139.39066162990784","123.27309136897729","0.006483952","0.000019700","203"
"204","hotpot2","1.0469999999999999","-0.2269999897945687","1.046999999999999","-0.58599999380764745","1.046999999999999","-0.78500000000000036","1.0469999999999999","SIDE","-0.49808121282786177","0.61193694417975297","0.35967122098355009","0.49808121282786227","-59.372970300443129","-257.38870798059492","87.611910473119949","0.000000585","0.000021041","204"
"205","hotpot2","0.0","-0.72739999426492152","0.94719999999999849","-0.9043999961527005","0.94719999999999815","-0.54739999223462943","0.94720000000000337","SIDE","-1.4932095329431354e-16","0.74351455715454251","-0.17073174798235027","-0.64655763357196228","198.14496840331719","-60.039388209023095","118.19508094679074","0.004233353","0.000067219","205"
"206","hotpot2","0.0","-0.64539999362975242","1.570796326794897","-0.27539998909421087","1.474200008733008","-0.98540000000000016","1.453200007735568","SIDE","-0.49884390869462258","0.61983681484414033","0.34367402066553221","-0.49884390869462275","149.90951990163296","-14.037616658807","86.557414186134864","0.010429013","0.000157341","206"
"207","hotpot2","1.0469999999999999","-0.7850000000000007","1.046999999999999","-0.51099999350496905","1.0469999999999999","-0.56999999630730736","1.0469999999999999","SIDE","-0.40465406964198963","0.58319918186256436","0.57653177026005031","-0.40465406964198958","204.63805537445472","2.0325184737507014","175.97003336391072","0.003609290","0.000113336","207"
"208","hotpot2","0.0","-0.47639999212194339","0.94719999999999882","-0.1913999851044251","0.94719999999999849","-0.98539999999999994","0.94719999999999938","SIDE","-3.8437329764653421e-17","-0.62929962888062718","-0.2873226867844772","0.72209947427598498","172.42524098010986","110.76073467305994","23.491811042088177","0.000150943","0.000036116","208"
"209","hotpot2","1.0469999999999999","-0.77799999966752009","1.39700000684522","-0.55099999540484845","1.372000005657783","-0.78500000000000092","1.299000005450093","SIDE","0.49984073102212667","0.6329478977153592","0.31574585666361377","0.49984073102212656","-150.220784517639","67.804211031703943","66.024098031935893","0.017029851","0.000457794","209"
"210","hotpot2","0.0","-0.98539999999999994","1.5707963267948959","-0.28539998630955787","0.94719999999999949","-0.31339998763948179","0.94719999999999949","TOP","0.71058805483320719","0.67296250853714024","-0.20539249847976079","-4.2966009588154737e-16","47.180863190144379","149.64715885349105","49.410852529475541","0.007786946","0.000074166","210"
"211","hotpot2","1.047000000000001","-0.43599999320227367","1.046999999999999","-0.32699999128467871","1.0469999999999999","-0.22899998988956599","1.047000000000003","SIDE","0.49487905077387923","-0.35467147481390732","0.61999806061278651","0.49487905077387934","-38.34918411235612","-170.00608187049204","128.57342232003941","0.004678757","0.000004164","211"
"212","hotpot2","1.047000000000001","-0.27899999226443578","1.0469999999999999","-0.52799999431242173","1.0469999999999999","-0.78500000000000103","1.0469999999999999","SIDE","0.487714141543451","-0.36920843889493288","0.62286030610870979","0.48771414154345105","-78.471117956084385","-254.5475589667719","61.208431264785389","0.000001673","0.000023739","212"
"213","hotpot2","0.0","0.22660001845136571","0.94719999999999649","-0.77439999649729629","0.94719999999999915","-0.3503999893968931","0.94719999999999938","SIDE","0.51019006734538608","-0.31447332532610517","0.6168619926876372","-0.51019006734538597","-166.55491699816591","72.125811664531227","3.9381082997196857","0.003120842","0.000017712","213"
"214","hotpot2","0.0","1.032600030657276","1.570796326794897","-0.34639998920690168","0.94719999999999971","-0.34539998915940517","0.94719999999999949","SIDE","0.99975384676173285","0.012185126261772856","-0.018540997359970265","-9.4891047831187864e-17","19.39527369174202","45.583523734532044","-99.310189965065916","0.007969499","0.000030581","214"
"215","hotpot2","0.0","-0.98539999999999961","1.570796326794897","-0.44639999069701758","0.94719999999999938","-0.2473999877642854","0.94719999999999949","TOP","1.873884492207043e-17","-0.18299070807027618","-0.64656160427775911","0.74058928741490004","49.454916305329441","166.35442989628942","73.846284362077469","0.007645836","0.000064550","215"
"216","hotpot2","0.0","-0.98539999999999994","1.570796326794897","-0.5793999937545472","1.086200003342515","-0.51439999066721565","0.94720000000000026","SIDE","0.55377234434359501","-0.33302040622834628","0.52513787743401719","-0.55377234434359501","-161.41990077224264","34.085021863716378","52.958283764727405","0.010941735","0.000193752","216"
"217","hotpot2","1.0469999999999999","-0.20399998870212421","1.046999999999995","-0.36099999289959522","1.0469999999999999","-0.40999999196734382","1.0469999999999999","SIDE","2.3253726260157198e-16","0.18215699592924631","0.67374798399647096","0.71615814098195074","-58.104491767820839","-166.71038390666098","122.54368518201203","0.002524281","0.000001878","217"
"218","hotpot2","1.046999999999999","-0.59099999404513459","1.570796326794897","-0.41399999215733208","1.0469999999999979","-0.27999999231193118","1.0469999999999999","SIDE","0.70686821581378778","-0.009779601702513999","0.024062633584138019","-0.706868215813788","-9.2443538214504013","45.19717211347281","-100.9795434666073","0.000514241","0.000079888","218"
"219","hotpot2","1.046999999999997","-0.78500000000000059","1.0469999999999999","-0.29899998995475152","1.0469999999999999","-0.46699999467469938","1.0469999999999999","SIDE","0.69534062496628912","-0.68596387362656852","0.21437112527279292","0.0","-64.678193429273577","-238.56223908842708","112.61379764265266","0.004061451","0.000010233","219"
"220","hotpot2","0.0","-0.61139999201484185","1.570796326794897","-0.01639998331163282","1.3282000083176539","-0.98540000000000016","1.0832000032000191","SIDE","0.49035317481418195","0.66028481365914427","0.28832532450413378","0.49035317481418172","-134.25306065741509","92.00512972732983","55.597232089817922","0.003044190","0.000107281","220"
"221","hotpot2","1.0469999999999999","-0.52899999435990608","1.0469999999999999","-0.78299999990500413","1.0469999999999999","-0.78500000000000036","1.0469999999999999","SIDE","0.56616265339282157","-0.20397468373616351","-0.79865773538978002","2.9414418753302558e-16","185.03260869686559","-37.138603528594061","153.15642617803991","0.000291491","0.000114577","221"
"222","hotpot2","0.0","0.50860002532639259","0.94719999999999815","-0.58739999087490768","1.5707963267948959","-0.98540000000000016","1.5707963267948959","SIDE","-0.47579240275557866","-0.37678815216953082","0.63661123721217505","0.47579240275557938","130.13508284498991","-48.012906643487561","137.9426260665885","0.007138501","0.000060260","222"
"223","hotpot2","0.0","-0.73139999445490955","0.9472000000000016","-0.98539999999999994","0.94719999999999993","-0.52539999118968361","0.94720000000000182","SIDE","-1.8665119161789186e-16","0.74351455715454273","-0.1707317479823503","-0.64655763357196205","174.1952482755772","-54.53986228616035","114.11167300406413","0.005894258","0.000035926","223"
"224","hotpot2","0.0","0.26760002039875169","0.94719999999999782","-0.98540000000000016","1.4992000099204481","-0.29739998687952318","1.54779632896209","SIDE","0.51019006734538608","-0.31447332532610539","0.6168619926876372","-0.51019006734538608","-142.88254401238942","64.439796561269972","4.9637929757740986","0.011318236","0.000073590","224"
"225","hotpot2","0.0","-0.53039999142717931","0.94719999999999949","-0.86839999770242637","0.94719999999999949","-0.23039998695682401","0.94720000000000071","SIDE","0.70690751938779695","-0.022071614251501438","-0.0087385302148568732","0.70690751938779695","5.0327782979522331","-40.647335284177053","-212.81658612170418","0.000247459","0.000017655","225"
"226","hotpot2","0.0","-0.42939998988955791","1.3262000082226579","-0.027399983834102859","1.0412000044647649","-0.98539999999999994","1.161200003645195","SIDE","0.50325656365766869","0.32304262054667571","-0.62378612326765182","-0.50325656365766902","135.42498435593129","-78.844916793682003","48.652540271774136","0.013678541","0.000229630","226"
"227","hotpot2","0.0","-0.19439998524691829","1.570796326794897","-0.7783999966872851","1.570796326794897","-0.81839999532756114","1.1672000039301791","SIDE","0.50022897106376518","-0.33791468957811183","-0.62077017936133316","0.50022897106376563","124.85505666937591","72.838448175982762","50.380615997718699","0.007002932","0.000114249","227"
"228","hotpot2","1.0469999999999999","-0.78500000000000048","1.046999999999999","-0.37599999361205899","1.0469999999999999","-0.582999996924775","1.0469999999999999","SIDE","0.70205135578492228","-0.38955230842732885","0.59613160697910617","-1.1860489430120265e-16","-191.1275762713606","-139.52526353059187","88.615645901545392","0.000309381","0.000060978","228"
"229","hotpot2","0.0","-0.98540000000000028","0.94719999999999938","-0.85839999722745874","0.94719999999999915","-0.33939998887442729","0.94719999999999949","SIDE","0.5031647819769266","0.34238320451045007","-0.61353414381383764","-0.50316478197692716","215.06818541005936","-32.097743894527376","27.906607353121839","0.000022742","0.000047749","229"
"230","hotpot2","1.0469999999999999","-0.130999988494442","1.0469999999999959","-0.44699999372474558","1.0469999999999999","-0.36099999289959611","1.0469999999999999","SIDE","1.5570387800951812e-16","0.010691650287609666","-0.0649522251608083","0.99783109645910872","-26.12672176881194","-22.268692240703697","-107.98371357116599","0.005166527","0.000071979","230"
"231","hotpot2","0.0","-0.52239999104719081","0.94719999999999938","-0.34339998906440278","0.94719999999999993","-0.78839999390263515","0.94719999999999971","SIDE","-0.49884390869462258","0.61983681484414033","0.34367402066553221","-0.49884390869462275","173.85507999237018","-20.900925860028334","86.672473950249127","0.009396970","0.000113302","231"
"232","hotpot2","0.0","-0.98540000000000016","0.94719999999999915","-0.85239999694246515","0.94719999999999949","-0.34939998934939631","0.94719999999999882","SIDE","0.50527148543136169","0.60738438807079176","0.34711043941063024","0.50527148543136136","-221.29435101258181","35.931362586972725","26.243948548971836","0.009981166","0.000073224","232"
"233","hotpot2","1.0469999999999999","-0.7850000000000007","1.046999999999999","-0.65199999694247601","1.0469999999999999","-0.66799999770242957","1.0469999999999999","SIDE","0.57432471130229801","-0.51257715024070816","-0.27850837873604178","0.57432471130229834","199.65730155287829","-47.883611454432952","1.2599600485494693","0.008672979","0.000086244","233"
"234","hotpot2","0.0","-0.31739998782947221","0.94719999999999938","1.0986000337920989","1.570796326794897","-0.81539999518506401","0.94719999999999938","SIDE","-3.990665492083932e-17","0.69551245702467801","-0.20827382671176262","0.68766593287026667","-156.63770572196964","87.068610778821537","134.25341005612415","0.000000696","0.000000023","234"
"235","hotpot2","1.0469999999999999","-0.78500000000000103","1.570796326794895","-0.74999999833759046","1.046999999999999","-0.60999999494758406","1.047000000000003","SIDE","0.5812295301334498","-0.49220328922784362","-0.2864967515958759","0.58122953013345047","149.88278309349272","-32.329668441068883","3.5129260079588223","0.013698808","0.000121282","235"
"236","hotpot2","1.046999999999999","-0.714999996675174","1.0469999999999999","-0.57799999668728674","1.046999999999999","-0.73299999753013156","1.0469999999999999","SIDE","0.49984073102212667","0.6329478977153592","0.31574585666361377","0.49984073102212651","-173.84521826253805","75.703196945740331","66.039965065362495","0.017381705","0.000130008","236"
"237","hotpot2","0.0","-0.91839999681767504","1.453200007735566","-0.879399998224899","1.5707963267948959","-0.98540000000000028","1.570796326794897","SIDE","-0.45165256091284728","0.67293300017145063","0.37306984027388712","-0.45165256091284767","133.27127340710032","-30.809192492686545","108.99270861678414","0.014008933","0.000228635","237"
"238","hotpot2","1.0469999999999999","-0.78500000000000369","1.0469999999999999","-0.39299999115988071","1.0469999999999999","-0.39899999144486548","1.0469999999999999","SIDE","1.1869836137298197e-16","0.17935895536749127","0.70149853699530396","0.68973195353189976","-77.605150764019811","-251.16063737661742","61.038542444067723","0.000164204","0.000012310","238"
"239","hotpot2","0.0","1.032600030657276","1.570796326794897","-0.26739998871423132","0.94719999999999971","-0.53339999156967111","1.511200010490418","SIDE","0.67857788488044757","-0.72006953197453394","0.14502387139072526","8.180512873778346e-17","-24.808610823813041","-147.52695500525599","18.698673378616945","0.008148401","0.000042797","239"
"240","hotpot2","4.4408920985006252e-16","-0.12639998527672039","0.94719999999999849","-0.67939999524466754","1.463200008210541","-0.98539999999999994","1.106200004292468","SIDE","1.1937325372762501e-16","0.68033622874988098","-0.22492442121698944","0.6975325229626157","-160.88662179004038","27.022161797512656","89.672735259797534","0.006946569","0.000121947","240"
"241","hotpot2","1.0469999999999999","-0.26199999145697789","1.0469999999999999","-0.4089999919198416","1.0469999999999999","-0.38799999092239912","1.0469999999999999","SIDE","0.99975384676173285","0.012185126261772854","-0.018540997359970269","-9.4863936103236085e-17","19.480541290856223","45.639561521555983","-101.60792577736788","0.011892078","0.000072126","241"
"242","hotpot2","2.7755575615628909e-16","1.0326000306572769","1.570796326794897","-0.89739999582022645","0.94719999999999782","-0.29939998697452402","0.94719999999999915","SIDE","0.70413460713707909","0.051655504504651284","-0.075634773207777659","0.70413460713707943","-17.768406617974854","15.263616403626447","-173.11541207519477","0.000990506","0.000001490","242"
"243","hotpot2","0.0","0.26260002016127809","0.94719999999999849","-0.40039998851213571","0.94719999999999938","-0.66739999467470168","0.94720000000000304","SIDE","-0.47579240275557866","-0.37678815216953082","0.63661123721217505","0.47579240275557938","154.15667917476125","-54.171747206691542","140.2962812423832","0.006864999","0.000028213","243"
"244","hotpot2","1.0469999999999999","-0.78500000000000092","1.0469999999999999","-0.27399999202694741","1.0469999999999999","-0.36199999294709623","1.0469999999999999","SIDE","2.375310550433585e-16","0.21519301899319204","0.67981483527870967","0.70110181451168441","-90.267643934536665","-250.96255626629571","14.203971596090884","0.000210822","0.000024341","244"
"245","hotpot2","0.0","0.1616000186236542","0.94719999999999904","-0.23039998695682379","0.94719999999999949","-0.30939998744949793","0.94719999999999949","TOP","0.67079794143521765","0.71776086247024329","-0.18668011697084103","-2.4826172444337546e-16","40.651033077736699","142.39220074493014","135.91936655065351","0.011514580","0.000067687","245"
"246","hotpot2","0.0","1.032600030657272","1.570796326794897","-0.3083999874019987","0.94719999999999949","-0.38439999101180622","0.94720000000000026","TOP","0.67079794143521765","0.7177608624702434","-0.186680116970841","-2.0688477036947957e-16","46.889724551412833","166.37916114270237","138.41186721704938","0.000049208","0.000000031","246"
"247","hotpot2","0.0","-0.41039998898710761","1.0522000017276021","-0.31439998768698441","0.94719999999999827","-0.38639998784716911","0.94719999999999949","SIDE","0.22274378415868656","0.95557240385287046","-0.19304555838846732","-1.1618408193337672e-16","23.879381827127993","83.820096048244835","215.30401119942223","0.014776378","0.000253255","247"
"248","hotpot2","0.0","-0.73439999459739824","0.94719999999999671","-0.60439999168236513","0.94719999999999949","-0.57139999337457115","0.94719999999999971","SIDE","0.5537723443435949","-0.33302040622834628","0.52513787743401719","-0.55377234434359501","-185.09557662190042","39.385338903027311","47.312301800116913","0.008001233","0.000035559","248"
"249","hotpot2","0.0","-0.65839999424722118","1.509200010395426","-0.98539999999999961","1.4392000103302389","-0.87739999812990566","1.484200009207989","SIDE","0.70688154083797383","0.22429571423390235","0.67082778699069678","7.852963760441678e-17","-145.08998616488682","66.088694615364687","66.020652000179552","0.014657132","0.000318357","249"
"250","hotpot2","0.0","-0.64739999372475665","0.9842000017574023","-0.40539998874962901","0.94719999999999882","-0.65339999400973137","0.94719999999999949","SIDE","-0.49786670562387952","-0.33368692411199691","0.62682575213461411","0.49786670562387975","154.07392948942643","-60.957699924487557","51.771072722426553","0.008640344","0.000095965","250"
"251","hotpot2","1.0469999999999999","-0.78500000000000103","1.570796326794897","-0.37299999346956692","1.0469999999999999","-0.42799999282230111","1.0469999999999999","SIDE","0.22274378415868651","0.95557240385287046","-0.19304555838846729","-1.1618408193337672e-16","24.111580211846906","84.969474311629696","217.73609146692399","0.005527707","0.000020403","251"
"252","hotpot2","0.0","-0.98540000000000016","0.94719999999999949","-0.40139998855963133","0.94719999999999949","-0.26139998842924761","0.94719999999999938","SIDE","-6.1882766398874916e-17","0.78490765933556694","-0.61440473366682324","0.080167259926740481","-28.251123046652083","61.843820466820873","316.72059221913247","0.003943923","0.000028777","252"
"253","hotpot2","0.0","0.47660002380647182","0.9471999999999986","-0.98540000000000016","1.570796326794897","-0.98539999999999994","1.5707963267948959","SIDE","0.5111749577693272","-0.60277648239099624","-0.33772894068378151","0.51117495776932798","129.29858782278501","-29.304708476990481","5.0668864666007254","0.002832544","0.000025035","253"
"254","hotpot2","0.0","-0.77439999649729652","0.94719999999999882","-0.47739999216944129","0.94719999999999938","-0.60039999149237566","0.94820000004749527","SIDE","0.40674681367199955","-0.32639378792894785","0.75005410093988845","-0.40674681367199966","-162.74017765962685","54.586361427782542","159.61115759310849","0.011654669","0.000135771","254"
"255","hotpot2","0.0","-0.65139999391474235","0.96420000080745427","-0.40039998851214398","0.94719999999999849","-0.6723999949121825","0.94719999999999949","SIDE","0.4985177825313038","0.62943199179085763","0.32676506653915321","0.49851778253130369","-162.23139788716043","69.268436471496088","51.381977250650749","0.008899461","0.000135163","255"
"256","hotpot2","1.0469999999999999","-0.7259999971976514","1.190000003532502","-0.57799999668728796","1.1730000027250469","-0.78500000000000103","1.2260000052424169","SIDE","0.71663255930583503","-0.18778058934268832","-0.67169652761413134","-7.7461106825830821e-17","148.08780177091592","-55.424824478592249","62.020567743483234","0.024881482","0.000571693","256"
"257","hotpot2","3.3306690738754701e-16","0.1186000165812701","0.94719999999999793","-0.80639999475759272","0.94719999999999849","-0.69939999293499788","0.94720000000000271","SIDE","0.50007817778431018","-0.60986995967586999","-0.35763426079278299","-0.50007817778431041","-44.680095445877257","-200.46538852293335","65.884348280876935","0.002466175","0.000022399","257"
"258","hotpot2","0.0","-0.4693999917894604","0.94719999999999793","-0.51639999076221266","0.9522000002374853","-0.98540000000000016","1.278200005942763","TOP","0.52367570720518841","0.32779412426903637","-0.58658206541027702","0.52367570720518886","54.496296084276906","184.16715182093711","72.043107586791194","0.015255425","0.000304052","258"
"259","hotpot2","0.0","1.0326000306572769","1.570796326794897","-0.24839998781177869","0.94719999999999938","-0.57139999337457215","1.515200010680408","TOP","3.9499841924977178e-17","-0.15791313479695798","-0.69376539662259151","0.70267561243271859","18.647746373971568","152.42305719847116","11.771046793214905","0.006292875","0.000039024","259"
"260","hotpot2","0.0","-0.69839999288749455","0.9471999999999976","-0.57539999356456084","0.94719999999999949","-0.59539999125489029","0.94719999999999949","SIDE","0.55377234434359501","-0.33302040622834628","0.52513787743401719","-0.55377234434359501","-183.72971458708372","36.12403027620779","47.788277828439753","0.014291375","0.000096141","260"
"261","hotpot2","0.0","0.44660002238154289","0.94719999999999849","-0.59639999130238186","1.5707963267948959","-0.98540000000000016","1.5707963267948959","SIDE","0.48625324432353884","0.63907340997342632","0.34452973955030747","0.48625324432353861","-138.12926738652934","59.732738164685664","132.86455082625261","0.001624798","0.000027121","261"
"262","hotpot2","1.0469999999999999","-0.78500000000000103","1.0469999999999999","-0.72699999724514852","1.0469999999999999","-0.6369999962300098","1.0470000000000039","SIDE","0.56347643964361949","-0.52670525985273642","-0.29592257970043784","0.56347643964361982","198.03243723874368","-48.313611858078211","12.52654587918941","0.020607684","0.000158217","262"
"263","hotpot2","1.046999999999999","-0.66799999770243268","1.046999999999997","-0.47499999505467849","1.0469999999999999","-0.78500000000000025","1.0469999999999999","SIDE","-3.9389309444523173e-17","0.67529617530156183","-0.21782349952882643","0.70464742863087049","-224.27083385702809","90.107280370547954","107.44946665787432","0.000035503","0.000065684","263"
"264","hotpot2","1.0469999999999999","-0.78500000000000081","1.1300000039422939","-0.33899999185464957","1.0469999999999999","-0.4309999929647913","1.0469999999999999","SIDE","0.70439320634440272","-0.68703072224319039","0.17837880353296365","0.0","-38.186066422775404","-175.78678227600255","86.966060309654878","0.010499107","0.000113720","264"
"265","hotpot2","0.0","0.18160001957360311","0.94719999999999793","-0.58139999384954655","1.2312000069700231","-0.58939999096990026","1.1792000045001449","SIDE","0.51117495776932742","-0.60277648239099624","-0.3377289406837814","0.51117495776932786","153.25019151130181","-36.054604354073959","3.9409706630355497","0.013263426","0.000114489","265"
"266","hotpot2","0.0","0.19960002042855651","0.94719999999999882","-0.40139998855964049","0.94719999999999949","-0.67439999500718117","0.94719999999999938","SIDE","0.48625324432353884","0.63907340997342643","0.34452973955030758","0.48625324432353867","-161.95718807560255","66.868098824834803","134.21544826307755","0.005718162","0.000019718","266"
"267","hotpot2","0.0","0.23560001887883969","0.94719999999999938","-0.18139998788908041","0.94720000000000126","-0.96139999886006644","0.94719999999999971","SIDE","0.49856728677400403","-0.41243952909529924","0.57684916222290183","-0.49856728677400403","-187.77431594001001","-10.901536678734127","11.373534750262374","0.004985454","0.000032884","267"
"268","hotpot2","1.0469999999999999","-0.46699999467469749","1.0469999999999999","-0.30299999014474971","1.0469999999999999","-0.26099999140948149","1.0469999999999999","TOP","0.50383219738219653","0.33122322186598241","-0.61854459100276082","0.50383219738219687","62.071661964482352","167.63969310036131","8.4748787174196227","0.004848997","0.000004392","268"
"269","hotpot2","1.046999999999999","-0.7850000000000007","1.272000004167666","-0.75799999871756718","1.2290000053849091","-0.60099999452009967","1.218000004862428","SIDE","0.50517978644053574","-0.34024925434326558","0.61140593034631352","-0.50517978644053596","-161.43478769297892","42.548781909179908","62.937634396345672","0.021984063","0.000455591","269"
"270","hotpot2","0.0","-0.46039999136197901","0.94719999999999815","-0.5253999911896885","1.255200004850326","-0.98540000000000016","1.570796326794897","SIDE","0.49103915566238565","-0.11001415933380813","0.7110963225603254","0.4910391556623856","-105.00501510268387","-134.63218459312893","34.795584654975301","0.011138672","0.000209179","270"
"271","hotpot2","1.0469999999999999","-0.78500000000000092","1.0469999999999999","-0.52099999397993024","1.0469999999999999","-0.70499999620020259","1.0469999999999999","SIDE","0.70560362748644234","0.1991474552279886","0.68004691893588509","-7.8671862032518305e-17","-232.78177455008526","43.127131703953545","66.83680861404045","0.013654354","0.000075558","271"
"272","hotpot2","0.0","-0.69039999250751793","0.94719999999999971","-0.78839999390262472","1.465200008305537","-0.98540000000000016","1.570796326794897","SIDE","-0.23810009965392667","0.83724542415386438","0.43085587476904141","-0.23810009965392698","110.46026601762722","-27.253291641580795","185.63552153288154","0.002857538","0.000122114","272"
"273","hotpot2","1.0469999999999999","-0.78099999981001145","1.322000006542537","-0.78500000000000048","1.465000006815419","-0.70799999634270494","1.431000008460126","SIDE","0.49143657577350264","-0.34360313280804627","0.63159882133243805","-0.49143657577350258","-158.13171125270844","40.436416310209587","70.69491913779099","0.023135449","0.000542790","273"
"274","hotpot2","1.0469999999999999","-0.71799999681767901","1.0469999999999999","-0.6839999984623869","1.046999999999999","-0.65599999713246093","1.0469999999999999","SIDE","0.49143657577350275","-0.34360313280804633","0.63159882133243805","-0.49143657577350264","-181.92167673697867","47.462045679105479","71.537815470758261","0.014401022","0.000092778","274"
"275","hotpot2","1.0469999999999999","-0.73799999776762937","1.046999999999995","-0.72899999734014587","1.0469999999999999","-0.63399999608751811","1.0469999999999999","SIDE","0.50517978644053574","-0.34024925434326558","0.61140593034631341","-0.50517978644053607","-185.38609958797016","49.373268576035564","62.418847115521153","0.014380328","0.000123016","275"
"276","hotpot2","0.0","0.40060002345629381","0.94719999999999405","-0.78739999385512804","1.570796326794897","-0.98539999999999994","1.5707963267948959","SIDE","0.51117495776932742","-0.60277648239099624","-0.3377289406837814","0.51117495776932786","134.20519672752994","-25.152289355273076","4.9041688118944355","0.011309614","0.000070357","276"
"277","hotpot2","1.046999999999999","-0.62499999566004105","1.0469999999999999","-0.56499999606982088","1.046999999999999","-0.78500000000000114","1.0469999999999999","SIDE","1.5602169656180078e-16","-0.6759356392539666","0.19173266790652732","0.7115824587802716","223.92079715061814","-56.218038881059144","27.714849556855413","0.000193319","0.000058671","277"
"278","hotpot2","0.0","-0.98540000000000016","0.94719999999999949","-0.77439999649729585","0.94719999999999971","-0.43439999012704777","0.94719999999999949","SIDE","0.49826097513055223","-0.32348203124645597","0.63153097848369177","-0.49826097513055223","-192.2844846346679","79.789765212614085","107.21607872624321","0.008111502","0.000037320","278"
"279","hotpot2","1.0469999999999999","-0.72399999710265694","1.0469999999999939","-0.62199999551754814","1.046999999999999","-0.75299999848008436","1.0469999999999999","SIDE","0.71663255930583503","-0.18778058934268832","-0.67169652761413134","-1.1619166023874623e-16","172.06913712566509","-62.129086151843332","61.344897691132033","0.013107308","0.000110225","279"
"280","hotpot2","1.0469999999999999","-0.65199999694246968","1.0469999999999959","-0.54599999516736764","1.0469999999999999","-0.78500000000000092","1.0469999999999999","SIDE","1.5602169656180078e-16","-0.6759356392539666","0.19173266790652729","0.7115824587802716","224.78090122536904","-52.819407502952885","27.716119476063888","0.000129979","0.000065604","280"
