ipa320/cob_manipulation/cob_grasp_generation/files/database/yellowsaltcube/sdh_yellowsaltcube_opt2.csv
"id","object","sdh_knuckle_joint","sdh_finger_12_joint","sdh_finger_13_joint","sdh_finger_22_joint","sdh_finger_23_joint","sdh_thumb_2_joint","sdh_thumb_3_joint","direction","qw","qx","qy","qz","pos-x","pos-y","pos-z","eps_l1","vol_l1"
"0","yellowsaltcube","0.0","-0.64239999348725974","0.46999999999999942","-0.64239999348726295","0.4699999999999997","-0.4983999899072642","0.46999999999999931","SIDE","0.51930751632597838","0.54846515970254817","0.39978165986841613","-0.51930751632597827","31.92264290278079","250.46869280333129","55.032417314933028","0.007877633","0.000067808","0"
"1","yellowsaltcube","0.0","-0.80639999475759194","0.46999999999999881","-0.77139999635480483","0.46999999999999947","-0.57839999370705375","0.46999999999999942","SIDE","0.51930751632597827","0.54846515970254828","0.39978165986841629","-0.51930751632597838","24.201397001029079","201.22552272979058","58.96847661746407","0.005688955","0.000029390","1"
"2","yellowsaltcube","0.0","-0.66139999438971342","0.46999999999999897","-0.63939999334476927","0.46999999999999981","-0.53339999156966877","0.46999999999999947","SIDE","0.72483684925395109","0.13770924713543917","0.67501681846972927","-7.6584339342561694e-17","-240.58020097882471","42.762518561582084","61.400542166219374","0.011015124","0.000101334","2"
"3","yellowsaltcube","0.0","-0.65139999391474579","0.4699999999999997","-0.62839999282229575","0.46999999999999997","-0.56939999327957913","0.46999999999999897","SIDE","-2.7447121483270659e-16","0.70786668623091809","-0.16800983163045141","-0.68607393989275423","230.16912110124198","-49.480421780560334","84.855917759303921","0.009926333","0.000083881","3"
"4","yellowsaltcube","0.0","-0.75139999540485314","0.46999999999999981","-0.75839999573733596","0.46999999999999809","-0.60239999158736679","0.49700000128242999","SIDE","0.50036834451849388","-0.42676280946611994","0.56314877613666847","0.50036834451849421","-24.790182756722732","-197.86650605962919","72.169826673767815","0.009112939","0.000073383","4"
"5","yellowsaltcube","0.0","-0.46639999164696949","0.47000000000000253","-0.40039998851213859","0.47000000000000292","-0.87739999812990488","0.46999999999999859","SIDE","0.49823581145090923","-0.41012487461028868","0.57906799220955285","0.49823581145090928","-33.587933978989071","-217.88894223062715","40.622516723586187","0.007174439","0.000107798","5"
"6","yellowsaltcube","1.110223024625157e-16","-0.93639999767262871","0.94720000000000149","-0.91039999643768676","0.94720000000000326","-0.72339999407493227","0.94720000000000115","SIDE","0.51930751632597816","0.54846515970254817","0.39978165986841624","-0.51930751632597838","24.201397001029079","201.22552272979055","58.968476617464056","0.007472767","0.000055273","6"
"7","yellowsaltcube","0.0","-0.81539999518506046","0.47000000000000008","-0.74039999488238284","0.46999999999999981","-0.64639999367725531","0.54600000360981682","SIDE","-2.5486612805894182e-16","0.70786668623091786","-0.16800983163045138","-0.68607393989275423","181.604232467115","-37.953705067818142","81.925662859300701","0.008789428","0.000060089","7"
"8","yellowsaltcube","0.0","-0.4753999920744465","0.46999999999999909","-0.39939998846462871","0.4699999999999997","-0.87639999808240632","0.46999999999999931","SIDE","-1.5657125196705952e-16","0.70908484838502306","-0.1172328648761264","-0.69530937947342886","212.5430921142293","-31.529267124621896","45.598407868433284","0.008707501","0.000039300","8"
"9","yellowsaltcube","0.0","-0.60239999158736923","0.47000000000000808","-0.6423999934872634","0.46999999999999897","-0.54039999190215171","0.46999999999999981","SIDE","0.50036834451849388","-0.42676280946611994","0.56314877613666847","0.50036834451849421","-31.61450479257244","-247.3985481904042","72.09613063453213","0.006265900","0.000047029","9"
"10","yellowsaltcube","0.0","-0.88739999534524661","0.94719999999998949","-0.8923999955827332","0.9472000000000016","-0.7463999951673721","0.94719999999999971","SIDE","0.50036834451849388","-0.42676280946611994","0.56314877613666847","0.50036834451849421","-24.790182756722736","-197.86650605962922","72.169826673767801","0.008981506","0.000060448","10"
"11","yellowsaltcube","0.0","-0.48939998947978358","0.46999999999999897","-0.41139998903460512","0.46999999999999881","-0.87739999812990577","0.46999999999999981","SIDE","0.71784467859892542","0.12154815830810717","0.68551080415928733","0.0","-210.76908589097746","31.902571406925656","33.619144071503015","0.008614856","0.000038626","11"
"12","yellowsaltcube","4.4408920985006262e-16","-0.44539999064951968","0.46999999999999942","-0.39039998803715958","0.46999999999999958","-0.89939999591522291","0.46999999999999847","SIDE","0.48629196059880797","0.55995092439574168","0.46205542998896704","-0.48629196059880797","15.420721554527228","216.81619000448026","49.302128940911906","0.002949970","0.000042696","12"
"13","yellowsaltcube","0.0","-0.83739999623001182","0.47000000000000292","-0.76339999597482378","0.46999999999999992","-0.60139999153986656","0.4699999999999992","SIDE","0.72483684925395109","0.13770924713543914","0.67501681846972916","-9.5730424178202108e-17","-191.65249458952172","32.780844880903715","63.939387969858871","0.005982535","0.000064528","13"
"14","yellowsaltcube","0.0","-0.76639999611731879","0.94719999999999793","-0.80639999475758839","0.94720000000000149","-0.71939999388493447","0.94719999999999849","SIDE","0.50036834451849388","-0.42676280946611994","0.56314877613666847","0.50036834451849421","-31.61450479257244","-247.39854819040417","72.09613063453213","0.001957149","0.000058542","14"
"15","yellowsaltcube","0.0","-0.9373999977201245","0.9471999999999986","-0.87339999793991574","0.94719999999999915","-0.77739999663978998","0.94720000000000037","SIDE","-2.5486612805894182e-16","0.70786668623091786","-0.16800983163045138","-0.68607393989275423","181.70136225044419","-37.976758502682117","81.931523369466305","0.007418463","0.000046474","15"
"16","yellowsaltcube","0.0","-0.97439999947752987","0.94719999999999915","-0.90039999596272113","0.94719999999999938","-0.74839999526236378","0.94719999999999949","SIDE","0.72483684925395109","0.13770924713543914","0.67501681846972916","-9.5730424178202108e-17","-191.75035000840657","32.800808229510587","63.934310277934728","0.006689302","0.000043197","16"
"17","yellowsaltcube","0.0","-0.54239999199715239","0.4699999999999992","-0.74639999516736799","0.46999999999999892","-0.65039999386724068","0.56400000446477194","SIDE","5.7438254506921292e-17","0.67501681846972972","-0.13770924713543906","0.72483684925395075","-186.85757938314373","31.802640864232011","64.188194857587519","0.008364139","0.000063148","17"
"18","yellowsaltcube","0.0","-0.47939999226443791","0.46999999999999992","-0.76539999606982023","0.4699999999999992","-0.61339999210983509","0.4699999999999977","SIDE","0.68607393989275378","-0.16800983163045136","-0.70786668623091831","-6.0683493429223438e-17","186.0722021836458","-39.014162996417355","82.195246307818394","0.006627936","0.000032126","18"
"19","yellowsaltcube","0.0","-0.36139998991936412","0.4699999999999992","-0.32939998839944568","0.46999999999999942","-0.22939998690933519","0.46999999999999831","SIDE","0.70658625414105658","0.018596906530504335","-0.03355422455243684","-0.70658625414105714","11.644097895714413","-4.5012204713911199","-187.09783468831318","0.005997666","0.000010873","19"
"20","yellowsaltcube","0.0","-0.57239999342206815","0.94719999999999949","-0.87839999817740133","0.94719999999999949","-0.77839999668728643","0.94719999999999938","SIDE","5.7438254506921292e-17","0.67501681846972972","-0.13770924713543906","0.72483684925395075","-186.85757938314373","31.802640864232011","64.188194857587547","0.004977598","0.000040606","20"
"21","yellowsaltcube","0.0","-0.54039999190215182","0.94719999999999882","-0.502399990097256","0.94719999999999949","-0.40739998884461531","0.94720000000000149","SIDE","0.70658625414105658","0.018596906530504335","-0.03355422455243684","-0.70658625414105714","11.644097895714413","-4.5012204713911208","-187.09783468831321","0.007574942","0.000018237","21"
"22","yellowsaltcube","0.0","-0.2153999862443633","0.46999999999999931","-0.33839998882691952","0.46999999999999947","-0.24139998747929761","0.46999999999999897","SIDE","0.70658625414105669","-0.033554224552436632","-0.018596906530504671","0.70658625414105702","11.710426590101797","-4.5202440161419837","-187.99518562865569","0.008132332","0.000007966","22"
"23","yellowsaltcube","0.0","-0.30139998706951099","0.46999999999999992","-0.32039998797196623","0.47000000000000042","-0.24539998766929591","0.46999999999999847","TOP","0.0091443776307195655","-0.50491448205227696","0.86307249204766945","-0.0091443776307193348","-6.7903440493610754","0.6705415391166093","329.40451135358597","0.008424313","0.000011429","23"
"24","yellowsaltcube","0.0","-0.37239999044183508","0.47000000000000319","-0.2753999890942111","0.46999999999999931","-0.17239998746160401","0.46999999999999897","TOP","0.012932102864824796","0.25325595760402153","0.96731286596093802","2.7796811997253334e-17","-6.9779848951871939","0.71966852146942961","336.90200290629366","0.007234658","0.000007770","24"
"25","yellowsaltcube","0.0","-0.36639999015685221","0.46999999999999897","-0.30139998706951487","0.46999999999999942","-0.16139998693913279","0.46999999999999831","SIDE","0.99926386359268504","-0.010576421001671967","-0.036876418435296453","-2.3604194169115363e-16","12.012590642318079","-4.6069068311145314","-192.08311769021535","0.006687948","0.000006791","25"
"26","yellowsaltcube","0.0","-0.31139998754450021","0.94719999999998705","-0.53639999171217345","1.0642000022975719","-0.2413999874792904","0.94720000000000426","SIDE","0.50427520688141458","0.59302534270302687","0.37381007792911403","0.50427520688141481","-166.14996988136934","30.67987604747313","119.98909541259063","0.010553453","0.000031251","26"
"27","yellowsaltcube","0.0","-0.34139998896941359","0.46999999999999942","-0.48039999231193248","0.96700001056771667","-0.068399985781499237","0.46999999999999842","SIDE","2.7700807172450116e-16","0.15281236199167827","0.69621036110935375","0.70138399975085519","-31.841843823353642","-167.66807578743561","124.64519758373594","0.009251536","0.000034483","27"
"28","yellowsaltcube","0.0","-0.39339998817964972","0.94719999999999815","-0.48039999231193198","0.96720000094994774","-0.23239998705182219","0.94719999999999938","SIDE","2.7700807172450116e-16","0.15281236199167825","0.69621036110935375","0.70138399975085508","-31.841843823353642","-167.66807578743561","124.64519758373592","0.009041786","0.000032768","28"
"29","yellowsaltcube","0.0","-0.34339998906441321","0.47000000000000092","-0.24139998747929739","0.46999999999999942","-0.20239998562690509","0.46999999999999931","TOP","-2.6900140642503227e-17","0.96731286596093802","-0.25325595760402142","0.012932102864824328","-6.9304492121817765","0.70722301873282767","335.00263829705614","0.007126539","0.000012797","29"
"30","yellowsaltcube","0.0","-0.31139998754450338","0.46999999999999897","-0.53639999171217456","1.0650000119628431","-0.1073999843742602","0.49700000128242883","SIDE","0.50427520688141458","0.59302534270302698","0.37381007792911392","0.50427520688141492","-166.14996988136929","30.67987604747313","119.9890954125906","0.013730108","0.000059637","30"
"31","yellowsaltcube","0.0","-0.38839998794217589","0.94719999999999849","-0.51339999061971964","0.94719999999999938","-0.42039998946209012","0.94719999999999949","SIDE","0.70658625414105669","-0.033554224552436639","-0.018596906530504664","0.70658625414105702","11.710426590101797","-4.5202440161419837","-187.99518562865566","0.007988393","0.000011492","31"
"32","yellowsaltcube","0.0","-0.32539998820945321","0.61200000348500672","-0.49539998976476551","1.0970000102231281","-0.073399986018986493","0.4699999999999992","SIDE","0.70099145768810323","0.69970531138485226","-0.13792553595377161","-1.3858159552341413e-16","23.524393532980749","162.37666016719635","124.70285285274385","0.010507513","0.000057474","32"
"33","yellowsaltcube","0.0","-0.43539999017454523","0.94719999999999849","-0.4953999897647639","1.0972000038649941","-0.22539998671934031","0.94719999999999949","SIDE","0.70099145768810323","0.69970531138485226","-0.13792553595377161","-1.3858159552341413e-16","23.524393532980746","162.37666016719632","124.70285285274385","0.009186618","0.000031009","33"
"34","yellowsaltcube","0.0","-0.54539999213963897","0.94719999999999793","-0.4543999910769978","0.94719999999999949","-0.35339998953938512","0.94720000000000004","TOP","0.012932102864824796","0.25325595760402153","0.96731286596093802","2.7796811997253334e-17","-6.9779848951871948","0.71966852146942994","336.90200290629366","0.006233226","0.000006315","34"
"35","yellowsaltcube","0.0","-0.54139999194965005","0.94719999999999938","-0.4793999922644353","0.94719999999999949","-0.34139998896941548","0.94719999999999949","SIDE","0.99926386359268504","-0.010576421001671967","-0.036876418435296453","-2.3593344160304005e-16","12.012590642318077","-4.6069068311145323","-192.08311769021535","0.009432807","0.000015880","35"
"36","yellowsaltcube","2.7367973338965351e-16","-0.47739999216943568","0.94719999999999815","-0.49639998981226219","0.94719999999999949","-0.42339998960457498","0.94719999999999949","TOP","0.0091443776307195655","-0.50491448205227696","0.86307249204766945","-0.0091443776307193348","-6.7903440493610736","0.67054153911660919","329.40451135358597","0.008130143","0.000014814","36"
"37","yellowsaltcube","0.0","-0.51739999080971644","0.94719999999999793","-0.42139998950958257","0.94719999999999938","-0.38239999091681082","0.94719999999999949","TOP","-2.6900140642503227e-17","0.96731286596093802","-0.25325595760402142","0.012932102864824329","-6.9304492121817773","0.70722301873282833","335.00263829705614","0.008031976","0.000015498","37"
"38","yellowsaltcube","0.0","-0.44439999060202229","0.94719999999999949","-0.53739999175965825","1.0962000038174979","-0.24339998757429271","0.94720000000000026","SIDE","-0.47276149207695273","-0.39080855135529247","0.63266248458868191","0.47276149207695312","156.8233245801691","-32.735908594640151","137.33692459488503","0.009136620","0.000045245","38"
"39","yellowsaltcube","0.0","-0.41439998917710158","0.46999999999999942","-0.53739999175965525","1.09600001017563","-0.13039998546670559","0.54400000351481281","SIDE","-0.47276149207695267","-0.39080855135529247","0.63266248458868202","0.47276149207695312","156.8233245801691","-32.735908594640151","137.33692459488498","0.015780894","0.000064854","39"
"40","yellowsaltcube","0.0","-0.39739998836965512","0.94719999999999094","-0.55839999275711083","0.94720000000000004","-0.37139999039433408","0.94719999999999971","SIDE","0.50427520688141458","0.59302534270302687","0.37381007792911408","0.50427520688141492","-214.90508305732425","41.734358347016219","119.13039855753161","0.006458774","0.000008021","40"
"41","yellowsaltcube","0.0","-0.32139998801946429","0.46999999999999842","-0.24639998771678709","0.46999999999999942","-0.21239998610187469","0.46999999999999942","SIDE","1.664933852103311e-16","-0.036876418435296182","0.010576421001671915","0.99926386359268504","11.688317025304761","-4.5139028345566601","-187.69606864854183","0.006063321","0.000006742","41"
"42","yellowsaltcube","0.0","-0.21739998633937399","0.4700000000000002","-0.38539998779969509","0.46999999999999892","-0.19139998510440079","0.46999999999999892","SIDE","0.50427520688141458","0.59302534270302687","0.37381007792911397","0.50427520688141492","-214.90508305732425","41.734358347016219","119.13039855753159","0.006563275","0.000007498","42"
"43","yellowsaltcube","0.0","-0.49439998971727289","0.94719999999999582","-0.42339998960457531","0.94719999999999938","-0.39339998817965482","0.94719999999999949","SIDE","1.6654763525438789e-16","-0.036876418435296182","0.010576421001671915","0.99926386359268504","11.688317025304762","-4.5139028345566601","-187.69606864854183","0.005316906","0.000005493","43"
"44","yellowsaltcube","0.0","-0.35039998939689532","0.46999999999999942","-0.63139999296479887","0.46999999999999942","-0.56739999318458167","0.46999999999999931","SIDE","7.6584339342561731e-17","0.67501681846972972","-0.13770924713543906","0.72483684925395075","-235.78528577244677","41.784314544910607","61.649349053948029","0.005073622","0.000046940","44"
"45","yellowsaltcube","0.0","-0.3443999891119115","0.47000000000000031","-0.64039999339227249","0.47000000000000342","-0.53839999180715659","0.46999999999999909","SIDE","0.68607393989275378","-0.16800983163045136","-0.70786668623091831","-1.0113915571537241e-16","234.63709081777284","-50.540879709159547","85.125501207821586","0.008326294","0.000091361","45"
"46","yellowsaltcube","0.0","-0.51839999085721489","0.94719999999999938","-0.54739999223462854","0.94720000000000126","-0.38139999086931181","0.94720000000000004","SIDE","-0.47276149207695267","-0.39080855135529247","0.63266248458868191","0.47276149207695312","205.20909398521005","-44.16983122865026","142.63623891671975","0.006018622","0.000010139","46"
"47","yellowsaltcube","0.0","-0.3363999887319315","0.46999999999999942","-0.37339999048933298","0.46999999999999881","-0.20339998567439771","0.46999999999999859","SIDE","-0.47276149207695267","-0.39080855135529247","0.63266248458868202","0.47276149207695312","205.20909398521005","-44.16983122865026","142.63623891671972","0.004096945","0.000008476","47"
"48","yellowsaltcube","0.0","-0.63339999305979611","0.96920000104493764","-0.50239999009726433","0.94719999999999993","-0.28439998952169088","0.94719999999999971","SIDE","0.50759284007597794","0.57067686517807426","0.39878181121727674","0.5075928400759776","-171.20502669455172","24.887454356480987","34.849343086029272","0.008886320","0.000085914","48"
"49","yellowsaltcube","0.0","-0.43839999031703802","0.96420000080745405","-0.37739999067932339","0.94719999999999949","-0.30839998740200048","0.94719999999999949","SIDE","1.5117174403636026e-16","-0.10513511098326342","-0.67051175635720561","0.73441173263048587","18.441347400249551","164.4901168468067","61.90477693773321","0.004383687","0.000039039","49"
"50","yellowsaltcube","0.0","-0.55439999256711181","1.0302000039422821","-0.38939998798965447","0.94719999999999949","-0.37639999063182777","0.94719999999999938","SIDE","0.5125370513613603","-0.37993382727335145","0.57468411223647753","-0.51253705136136007","-168.55861668966247","28.06949480486087","65.137723214294681","0.012796891","0.000079078","50"
"51","yellowsaltcube","0.0","-0.63339999305978634","0.97000001071019948","-0.46739999169446528","0.85700000860263081","-0.14439998613167471","0.46999999999999831","SIDE","0.5075928400759776","0.57067686517807426","0.39878181121727674","0.50759284007597782","-171.20502669455172","24.887454356480987","34.849343086029272","0.019429056","0.000151451","51"
"52","yellowsaltcube","0.0","-0.2473999877642824","0.46999999999999897","-0.34039998892191597","0.46999999999999942","-0.12039998499173871","0.46999999999999909","SIDE","2.7700807172450116e-16","0.15281236199167825","0.69621036110935364","0.70138399975085508","-42.559858389863422","-216.49915656172161","125.45124607308522","0.006464299","0.000005190","52"
"53","yellowsaltcube","0.0","-0.20439998572188919","0.46999999999999892","-0.32339998811445958","0.46999999999999931","-0.24439998762179249","0.46999999999999831","TOP","0.0091443776307194302","0.86307249204766978","0.50491448205227663","0.0091443776307192897","-6.792845927412694","0.67119656557701468","329.50447791196626","0.007242627","0.000007580","53"
"54","yellowsaltcube","0.0","-0.5053999902397297","0.94719999999999638","-0.90139999601020493","0.94719999999999949","-0.75639999564234461","0.94719999999999949","SIDE","0.68607393989275378","-0.16800983163045136","-0.70786668623091842","-1.0113915571537242e-16","186.07220218364583","-39.014162996417355","82.19524630781838","0.006926749","0.000044863","54"
"55","yellowsaltcube","0.0","-0.42839998984206218","0.94719999999999793","-0.51539999071471398","0.94719999999999949","-0.30139998706951371","0.94719999999999949","SIDE","2.5722178088703681e-16","0.1528123619916783","0.69621036110935364","0.70138399975085508","-42.559858389863422","-216.49915656172158","125.45124607308522","0.006320481","0.000005196","55"
"56","yellowsaltcube","0.0","-0.43839999031703891","0.96400001042522543","-0.2223999865768459","0.46999999999999942","-0.1943999852469192","0.62700000419747637","SIDE","1.7006821204090528e-16","-0.10513511098326342","-0.67051175635720561","0.73441173263048587","18.441347400249551","164.49011684680667","61.904776937733217","0.011851763","0.000091812","56"
"57","yellowsaltcube","0.0","-0.4803999923119302","0.46999999999999742","-0.38739998789466329","0.47000000000000081","-0.20639998581691019","0.46999999999999842","SIDE","-0.49165797724827176","-0.41850255099784972","0.58429485846152018","0.49165797724827193","218.26227822772347","-32.474819091175668","45.790328300036705","0.009966247","0.000025459","57"
"58","yellowsaltcube","0.0","-0.55439999256710937","1.0300000103004241","-0.31839998787696022","0.73100000587757696","-0.29739998687954122","0.71500000511761308","SIDE","0.5125370513613603","-0.37993382727335145","0.57468411223647753","-0.51253705136136007","-168.55861668966241","28.069494804860877","65.137723214294681","0.021109535","0.000124727","58"
"59","yellowsaltcube","0.0","-0.63139999296479832","0.9990000088280071","-0.47739999216943541","0.88800000681542068","-0.1393999858941822","0.46999999999999842","SIDE","-0.49165797724827176","-0.41850255099784961","0.58429485846152018","0.49165797724827204","168.95894363526364","-24.323508038084363","44.135841618409231","0.019281637","0.000103473","59"
"60","yellowsaltcube","1.665334536937736e-16","-0.63139999296480076","0.99920000246986085","-0.50039999000224522","0.94719999999999949","-0.28039998933170079","0.94719999999999971","SIDE","-0.49165797724827176","-0.41850255099784961","0.58429485846152018","0.49165797724827204","168.95894363526364","-24.323508038084359","44.135841618409231","0.008798739","0.000080413","60"
"61","yellowsaltcube","0.0","-0.5143999906672333","1.035000010537902","-0.36739999020435299","0.92800000871531474","-0.30239998711700677","0.87900000638794284","SIDE","-0.49165797724827165","0.58429485846152007","0.41850255099784966","-0.49165797724827204","162.74672341040255","-23.296442834450037","43.927376294302213","0.022296344","0.000128084","61"
"62","yellowsaltcube","0.0","-0.42139998950958268","0.94719999999999915","-0.36239998996686218","0.94719999999999938","-0.24839998781178371","0.94719999999999949","SIDE","-4.800888871518554e-17","0.069222567942639993","0.72266762360116954","-0.68772068595183677","10.136478549027995","161.6499133289613","46.30066023141022","0.001591274","0.000007182","62"
"63","yellowsaltcube","0.0","-0.51439999066721931","1.0352000041797631","-0.37339999048933359","0.94719999999999915","-0.32639998825695898","0.94720000000000415","SIDE","-0.49165797724827182","0.58429485846152007","0.41850255099784966","-0.49165797724827204","162.74672341040252","-23.296442834450037","43.927376294302213","0.005189262","0.000036227","63"
"64","yellowsaltcube","0.0","-0.68239999538715923","0.94719999999999938","-0.53539999166465868","0.94720000000000182","-0.31539998773447481","0.94719999999999949","SIDE","-0.48512753529353791","-0.38173644275803004","0.6193382252618348","0.48512753529353836","172.37690336746491","-35.763628830886688","81.368914412662377","0.008689989","0.000021498","64"
"65","yellowsaltcube","0.0","-0.46839999174196351","1.0012000025648591","-0.34239998901691099","0.94719999999999938","-0.28939998649954851","0.94719999999999915","SIDE","0.70461184181383996","-0.69946498402967183","0.11946082408923571","-7.878259764746333e-17","-24.227839394594049","-163.08387572531478","40.230853373996794","0.002903961","0.000036308","65"
"66","yellowsaltcube","0.0","-0.58939999096990436","1.060200002107581","-0.44439999060202312","0.94719999999999938","-0.28539998630955538","0.94719999999999993","SIDE","4.1184586806855595e-16","0.096439441891427197","0.6999731949548591","0.70762769900022759","-21.528156753509052","-174.19018941248754","72.205053381282141","0.008175077","0.000070992","66"
"67","yellowsaltcube","0.0","-0.58939999096990403","1.0600000117253461","-0.41439998917709953","0.86900000917260056","-0.1193999849442388","0.4699999999999992","SIDE","3.9223416006529136e-16","0.096439441891427197","0.69997319495485921","0.70762769900022759","-21.528156753509052","-174.19018941248754","72.205053381282141","0.012724969","0.000078490","67"
"68","yellowsaltcube","0.0","-0.51639999076222287","1.026200003752306","-0.38339999096430832","0.94719999999999938","-0.34539998915940651","0.94719999999999938","SIDE","0.50759284007597782","-0.39878181121727713","0.57067686517807381","-0.50759284007597771","-165.98886969127079","23.962575750125335","35.011533501658086","0.005382778","0.000036550","68"
"69","yellowsaltcube","0.0","-0.28839998645204951","0.46999999999999947","-0.32139998801946618","0.46999999999999897","-0.14039998594168751","0.4699999999999992","SIDE","0.70099145768810323","0.69970531138485215","-0.13792553595377163","-1.1878422473435497e-16","33.192855783045651","211.42540478517424","125.56395047757474","0.005781317","0.000008166","69"
"70","yellowsaltcube","0.0","-0.65239999396224202","0.94719999999999815","-0.51439999066722986","0.94719999999999938","-0.28939998649955068","0.94720000000001114","SIDE","0.51253705136136007","0.57468411223647786","0.37993382727335107","0.51253705136136007","-172.57068854496003","28.887992032680554","64.929537861957655","0.007704658","0.000045145","70"
"71","yellowsaltcube","0.0","-0.48339999245442727","0.46999999999999881","-0.38639998784719742","0.46999999999999931","-0.2063999858168763","0.46999999999999792","SIDE","0.50759284007597782","0.57067686517807426","0.39878181121727674","0.50759284007597771","-220.41405498333378","33.612724219978404","33.319244826749859","0.009254749","0.000017312","71"
"72","yellowsaltcube","0.0","-0.57539999356456173","1.0690000121528309","-0.33339998858943759","0.90900000781286039","-0.34639998920690351","0.90200000748038467","SIDE","-0.48512753529353808","0.61933822526183469","0.38173644275802998","-0.48512753529353847","160.72132968459044","-32.99721672235345","80.665653211882343","0.021530698","0.000164065","72"
"73","yellowsaltcube","0.0","-0.57539999356456017","1.069200002535061","-0.34639998920689918","0.94719999999999938","-0.36239998996686662","0.94720000000000237","SIDE","-0.48512753529353791","0.61933822526183457","0.38173644275802993","-0.48512753529353836","160.72132968459042","-32.99721672235345","80.665653211882343","0.009473068","0.000066389","73"
"74","yellowsaltcube","0.0","-0.46439999155197292","0.94719999999999882","-0.35939998982436938","0.94719999999999938","-0.28639998635705632","0.94719999999999949","SIDE","0.70762769900022759","-0.69997319495485921","0.096439441891427002","1.9611708003264572e-17","-20.190589595511067","-164.48190887198376","72.219497805392507","0.007966496","0.000034992","74"
"75","yellowsaltcube","1.6653345369377351e-16","-0.64939999381974778","0.9471999999999986","-0.56039999285209607","0.94719999999999971","-0.38739998789467062","0.94719999999999993","SIDE","-0.49165797724827182","-0.41850255099784972","0.58429485846152018","0.49165797724827193","218.26227822772344","-32.474819091175668","45.790328300036705","0.008500389","0.000016592","75"
"76","yellowsaltcube","0.0","-0.66039999434221475","0.89100000695791171","-0.43739999026953919","0.67800000336021116","-0.15339998655915429","0.46999999999999698","SIDE","-0.48512753529353791","-0.38173644275802998","0.6193382252618348","0.4851275352935383","172.37690336746493","-35.763628830886688","81.368914412662363","0.015904156","0.000082863","76"
"77","yellowsaltcube","0.0","-0.46839999174196317","1.0010000089229989","-0.21539998624436291","0.54600000360981038","-0.2163999862918633","0.74400000649504561","SIDE","0.70461184181384007","-0.69946498402967172","0.1194608240892357","-7.8782597647463318e-17","-24.227839394594049","-163.08387572531478","40.230853373996787","0.016712634","0.000098879","77"
"78","yellowsaltcube","0.0","-0.46939999178945979","0.94719999999999882","-0.49539998976476179","0.94719999999999949","-0.32139998801946629","0.94719999999999949","SIDE","0.70099145768810323","0.69970531138485215","-0.13792553595377163","-1.5837896631247328e-16","33.192855783045658","211.42540478517424","125.56395047757474","0.005376289","0.000006447","78"
"79","yellowsaltcube","0.0","-0.45939999131448539","0.93300000895280244","-0.21639998629186349","0.46999999999999931","-0.21839998638685859","0.76200000735000017","SIDE","0.70762769900022759","-0.6999731949548591","0.096439441891427002","1.9611708003264569e-17","-20.190589595511064","-164.48190887198376","72.219497805392493","0.019892852","0.000180911","79"
"80","yellowsaltcube","0.0","-0.38439999101180639","0.94719999999999904","-0.50039999000224633","0.94719999999999949","-0.42239998955707081","0.94719999999999949","TOP","0.0091443776307194267","0.86307249204766978","0.50491448205227663","0.0091443776307192914","-6.7928459274126931","0.67119656557701479","329.50447791196626","0.008026930","0.000008507","80"
"81","yellowsaltcube","0.0","-0.51639999076221788","1.0260000101104281","-0.35239998949189272","0.851000008317642","-0.29239998664204292","0.79600000570528051","SIDE","0.5075928400759776","-0.39878181121727724","0.57067686517807392","-0.50759284007597771","-165.98886969127079","23.962575750125335","35.011533501658086","0.020443623","0.000121902","81"
"82","yellowsaltcube","0.0","-0.64439999358225453","0.92600000862031684","-0.46939999178945979","0.82900000727268919","-0.14339998608417981","0.46999999999999847","SIDE","0.51253705136136007","0.57468411223647786","0.37993382727335107","0.51253705136136007","-172.57068854496003","28.88799203268055","64.929537861957655","0.018209673","0.000138888","82"
"83","yellowsaltcube","0.0","-0.37339999048933331","0.94719999999999793","-0.89539999572523121","0.94720000000000115","-0.75239999545235414","0.94720000000000126","SIDE","0.50036834451849377","-0.56314877613666847","-0.42676280946612027","-0.5003683445184941","-24.462615323053605","-195.48896821190874","72.173364083393921","0.003277176","0.000049724","83"
"84","yellowsaltcube","0.0","-0.65539999410473326","0.94719999999999904","-0.56139999289960274","0.94719999999999971","-0.38639998784716922","0.94720000000000626","SIDE","0.50759284007597794","0.57067686517807426","0.39878181121727674","0.50759284007597771","-220.41405498333378","33.612724219978404","33.319244826749859","0.010587817","0.000024850","84"
"85","yellowsaltcube","0.0","-0.1543999866066488","0.47000000000000192","-0.84839999675247924","0.46999999999999942","-0.295399986784534","0.47000000000000269","SIDE","-0.49823581145090889","0.57906799220955296","0.41012487461028907","0.49823581145090889","-37.476750333314442","-240.65867356230731","40.785240168906277","0.003022006","0.000056636","85"
"86","yellowsaltcube","0.0","-0.57339999346956672","1.0290000102529251","-0.47639999212194262","1.01800000973046","-0.091399983614308997","0.46999999999999892","SIDE","0.73441173263048565","0.67051175635720561","-0.10513511098326388","-9.4482340022725179e-17","19.151702017200513","169.020488455232","61.542659484965505","0.018091667","0.000107464","86"
"87","yellowsaltcube","0.0","-0.59739999134987742","1.016000009635462","-0.38539998779967011","0.77300000461284024","-0.1183999848967425","0.46999999999999897","SIDE","3.3482604000171916e-16","0.11946082408923595","0.69946498402967172","0.70461184181383985","-26.365846659796244","-175.60229947645277","40.320316047627323","0.014628259","0.000138369","87"
"88","yellowsaltcube","0.0","-0.5973999913498822","1.016200003277314","-0.4513999909345055","0.94719999999999949","-0.28739998640455561","0.94719999999999949","SIDE","3.3482604000171916e-16","0.11946082408923595","0.69946498402967172","0.70461184181383985","-26.365846659796244","-175.60229947645274","40.320316047627308","0.010181709","0.000089270","88"
"89","yellowsaltcube","0.0","-0.57339999346956594","1.029200003894793","-0.47639999212194228","1.0182000033723171","-0.25239998800177238","0.94719999999999938","SIDE","0.73441173263048565","0.67051175635720561","-0.10513511098326388","-9.4482340022725179e-17","19.151702017200513","169.020488455232","61.542659484965512","0.018682608","0.000144024","89"
"90","yellowsaltcube","0.0","-0.23139998700432671","0.46999999999999609","-0.75139999540485503","0.46999999999999942","-0.65339999400973348","0.60100000296253919","SIDE","0.51930751632597794","0.39978165986841602","-0.54846515970254839","0.51930751632597816","22.487280354216431","190.2935386123541","59.84228181149053","0.008078336","0.000074325","90"
"91","yellowsaltcube","0.0","-0.48539998928979022","0.74100000635254093","-0.46739999169446289","0.85300000841263657","-0.23839998733680831","0.50600000170991177","SIDE","0.70658625414105658","0.018596906530504331","-0.03355422455243684","-0.70658625414105714","7.9591706596029432","-3.444356940079718","-137.24500778009531","0.021467504","0.000219780","91"
"92","yellowsaltcube","3.8857805861880479e-16","-0.582399993897044","1.048000011155384","-0.36539999010935309","1.00500000911299","-0.33939998887441009","0.9560000100452466","SIDE","-0.47276149207695284","0.63266248458868179","0.39080855135529241","-0.47276149207695317","157.30718230441121","-32.850247828113417","137.38991774141041","0.020465294","0.000217273","92"
"93","yellowsaltcube","0.0","-0.58239999389704267","1.0482000015376129","-0.36539999010935093","1.0052000027548471","-0.33939998887443112","0.95620000042748043","SIDE","-0.47276149207695284","0.63266248458868191","0.39080855135529247","-0.47276149207695317","157.30718230441121","-32.85024782811341","137.38991774141039","0.020191960","0.000219433","93"
"94","yellowsaltcube","0.0","-0.56339999299459276","1.0310000103479251","-0.31539998773448991","0.7970000057527783","-0.32239998806695902","0.78900000537280091","SIDE","0.50427520688141469","-0.37381007792911458","0.59302534270302665","-0.50427520688141481","-168.19768476252904","31.144164333024698","119.95303014242721","0.020973075","0.000167048","94"
"95","yellowsaltcube","0.0","-0.56339999299459065","1.0302000039422761","-0.36539999010935259","0.94719999999999949","-0.3773999906793255","0.94720000000000037","SIDE","0.50427520688141492","-0.37381007792911447","0.59302534270302665","-0.50427520688141469","-168.19768476252906","31.144164333024694","119.95303014242721","0.012465314","0.000103590","95"
"96","yellowsaltcube","0.0","-0.5123999905722243","0.47000000000000242","-0.3823999909168096","0.46999999999999947","-0.20339998567439641","0.46999999999999581","SIDE","-0.48512753529353791","-0.38173644275802998","0.6193382252618348","0.4851275352935383","220.94179200159306","-47.290345543628654","84.299169312665569","0.010044858","0.000033446","96"
"97","yellowsaltcube","0.0","-0.56639999313708977","0.94719999999999915","-0.50339999014474646","0.94719999999999938","-0.40439998870212951","0.94719999999999949","SIDE","0.70658625414105658","0.018596906530504331","-0.03355422455243684","-0.70658625414105714","7.9591706596029432","-3.444356940079718","-137.24500778009531","0.007932206","0.000020619","97"
"98","yellowsaltcube","0.0","-0.47139999188445508","0.95320000028498164","-0.31639998778197648","0.94719999999999949","-0.36239998996686162","0.94719999999999938","SIDE","0.70138399975085541","-0.69621036110935353","0.15281236199167808","1.1871774502478618e-16","-31.370251152995742","-165.51950809930219","124.60973144799171","0.010047524","0.000059873","98"
"99","yellowsaltcube","0.0","-0.47139999188445519","0.95300000990274059","-0.15939998684413809","0.46999999999999942","-0.2613999884292495","0.66500000600238207","SIDE","0.70138399975085541","-0.69621036110935353","0.15281236199167803","1.1871774502478618e-16","-31.370251152995735","-165.51950809930216","124.60973144799171","0.012953738","0.000167945","99"
"100","yellowsaltcube","0.0","-0.48539998928979211","1.01800000973045","-0.24439998762179271","0.687000003787688","-0.20939998595938281","0.6940000041201726","SIDE","-5.9392112367177484e-17","-0.13792553595377141","-0.69970531138485226","0.70099145768810345","23.369698127328249","161.59188020434013","124.68907528988682","0.017786905","0.000171067","100"
"101","yellowsaltcube","0.0","-0.48539998928979222","1.01820000337232","-0.33339998858943393","0.94719999999999938","-0.29739998687952751","0.94719999999999971","SIDE","-3.9594741578118321e-17","-0.13792553595377141","-0.69970531138485226","0.70099145768810345","23.369698127328256","161.5918802043401","124.6890752898868","0.008461363","0.000070598","101"
"102","yellowsaltcube","0.0","-0.41039998898711272","0.46999999999999909","-0.29439998673698342","0.47000000000000219","-0.28439998952168971","0.46999999999999909","SIDE","0.51253705136136007","-0.3799338272733514","0.57468411223647753","-0.51253705136136019","-217.48632307896588","38.051168485539414","62.598877410655177","0.007765055","0.000013617","102"
"103","yellowsaltcube","0.0","-0.58339999394454056","0.94719999999999938","-0.47139999188444909","0.94719999999999971","-0.4613999914094829","0.9472000000000016","SIDE","0.51253705136135985","-0.37993382727335157","0.57468411223647753","-0.51253705136136019","-217.48632307896585","38.051168485539414","62.598877410655177","0.008847348","0.000017964","103"
"104","yellowsaltcube","0.0","-0.37439999053683293","0.46999999999999842","-0.31439998768697752","0.46999999999999909","-0.27539998909421343","0.46999999999999992","SIDE","-0.49165797724827176","0.58429485846152018","0.41850255099784966","-0.49165797724827215","212.05005800286304","-31.447753887541229","45.581862975929695","0.008191342","0.000012892","104"
"105","yellowsaltcube","0.0","-0.54939999232962877","1.099000010318125","-0.4363999902220439","0.91200000795535929","-0.11839998489674269","0.46999999999999897","SIDE","0.68772068595183677","0.72266762360116954","-0.069222567942640381","-2.0179395634445639e-17","11.259975277146616","173.37895971894122","46.938810345090516","0.014574302","0.000102030","105"
"106","yellowsaltcube","0.0","-0.54939999232962833","1.099200003959981","-0.4493999908395091","0.94719999999999938","-0.2833999894741927","0.94719999999999949","SIDE","0.68772068595183677","0.72266762360116954","-0.069222567942640381","-2.0179395634445639e-17","11.259975277146616","173.37895971894122","46.938810345090516","0.010015922","0.000048545","106"
"107","yellowsaltcube","0.0","-0.48039999231193098","0.47000000000000031","-0.84839999675247757","0.46999999999999981","-0.28739998640455672","0.4699999999999957","SIDE","0.69530937947342852","-0.11723286487612644","-0.7090848483850235","1.9959155186895912e-17","231.77139316226578","-34.70827852741288","46.243657692960234","0.003635157","0.000034391","107"
"108","yellowsaltcube","0.0","-0.55139999242462612","0.94719999999999405","-0.49239998962227749","0.94719999999999938","-0.44939999083950299","0.94720000000000482","SIDE","-0.49165797724827176","0.58429485846152018","0.41850255099784966","-0.49165797724827215","212.05005800286304","-31.447753887541229","45.581862975929695","0.009099015","0.000013687","108"
"109","yellowsaltcube","0.0","-0.6823999953871589","0.94720000000000037","-0.55839999275710395","0.94719999999999915","-0.38339999096430888","0.94720000000000004","SIDE","-0.48512753529353786","-0.38173644275803004","0.6193382252618348","0.4851275352935383","220.94179200159303","-47.290345543628654","84.299169312665569","0.009812935","0.000029690","109"
"110","yellowsaltcube","2.2204460492503131e-16","-0.59339999115988629","0.94719999999999949","-0.46639999164696527","0.94719999999999949","-0.46839999174196267","0.94720000000000337","SIDE","-0.48512753529353808","0.61933822526183469","0.38173644275802998","-0.48512753529353847","209.2862183187174","-44.523933435095756","83.595908111885564","0.010122329","0.000022551","110"
"111","yellowsaltcube","0.0","-0.41939998941458068","0.47000000000000203","-0.29139998659453559","0.46999999999999909","-0.29339998668956341","0.46999999999999947","SIDE","-0.48512753529353803","0.61933822526183469","0.38173644275802998","-0.48512753529353847","209.2862183187174","-44.523933435095756","83.595908111885535","0.010012608","0.000022379","111"
"112","yellowsaltcube","0.0","-0.55039999237713066","0.94719999999999882","-0.48639998933730272","0.94719999999999727","-0.45539999112449692","0.94719999999999949","SIDE","0.50759284007597782","-0.39878181121727713","0.57067686517807381","-0.50759284007597771","-215.1978979800526","32.687845613622819","33.48143524237868","0.008955089","0.000013756","112"
"113","yellowsaltcube","0.0","-0.66339999448470943","0.94719999999999938","-0.56339999299459231","0.9471999999999986","-0.38239999091681032","0.94720000000000204","SIDE","0.51253705136135996","0.57468411223647786","0.37993382727335112","0.51253705136136007","-221.49839493426302","38.86966571335892","62.390692058318145","0.008907261","0.000017265","113"
"114","yellowsaltcube","0.0","-0.49439998971726479","0.46999999999999859","-0.3873999878946669","0.47000000000000081","-0.20139998557941821","0.46999999999999958","SIDE","0.51253705136136007","0.57468411223647786","0.37993382727335107","0.51253705136136007","-221.49839493426305","38.869665713358927","62.390692058318152","0.010349576","0.000021961","114"
"115","yellowsaltcube","0.0","-0.37539999058432938","0.46999999999999931","-0.30939998744948138","0.46999999999999931","-0.28039998933169907","0.46999999999999897","SIDE","0.50759284007597782","-0.39878181121727713","0.57067686517807381","-0.50759284007597771","-215.19789798005263","32.687845613622812","33.48143524237868","0.008906197","0.000015548","115"
"116","yellowsaltcube","0.0","-0.43339999007955021","0.46999999999999931","-0.32839998835194811","0.46999999999999931","-0.14939998636916271","0.46999999999999942","SIDE","3.5452168941358494e-16","0.11946082408923596","0.69946498402967172","0.70461184181383996","-34.783197788407655","-224.88743054459692","40.672531285198097","0.007539969","0.000013145","116"
"117","yellowsaltcube","0.0","-0.35539998963438357","0.94719999999999949","-0.88339999841489003","0.94719999999999938","-0.77839999668728654","0.9472000000000016","SIDE","0.51930751632597816","0.39978165986841607","-0.54846515970254828","0.51930751632597816","22.487280354216431","190.29353861235407","59.84228181149053","0.002156391","0.000047555","117"
"118","yellowsaltcube","0.0","-0.45039999088700788","0.47000000000000253","-0.85039999684747414","0.4699999999999987","-0.29939998697451992","0.46999999999999842","SIDE","-5.7997732190064471e-17","0.68551080415928767","-0.12154815830810703","0.7178446785989252","-230.94478810670191","35.479932160417782","32.991803766004409","0.000024482","0.000031369","118"
"119","yellowsaltcube","0.0","-0.3893999879896558","0.68400000364519464","-0.48739998938478157","0.9160000081453451","-0.28139998937919708","0.57300000163260911","TOP","0.0091443776307195621","-0.50491448205227696","0.86307249204766945","-0.0091443776307193331","-5.5394051008534895","0.34302832963017948","279.42123528203712","0.021510924","0.000213462","119"
"120","yellowsaltcube","0.0","-0.4903999895272686","0.94719999999999882","-0.50039999000224467","0.94719999999999938","-0.42339998960458269","0.94719999999999949","TOP","0.0091443776307195655","-0.50491448205227696","0.86307249204766945","-0.0091443776307193348","-5.5394051008534904","0.34302832963017937","279.42123528203706","0.007934355","0.000010894","120"
"121","yellowsaltcube","0.0","-0.4253999896995766","0.47000000000000308","-0.28439998952168932","0.46999999999999947","-0.27739998918920977","0.46999999999999981","SIDE","-0.47276149207695284","0.63266248458868191","0.39080855135529247","-0.47276149207695317","205.69295170945344","-44.284170462123129","142.68923206324513","0.007410699","0.000013584","121"
"122","yellowsaltcube","0.0","-0.22339998662434729","0.46999999999999931","-0.46939999178945391","0.8400000077951647","-0.24339998757429579","0.46999999999999909","SIDE","0.70658625414105669","-0.033554224552436639","-0.018596906530504668","0.70658625414105702","8.0254993539903303","-3.46338048483058","-138.14235872043756","0.012083919","0.000037221","122"
"123","yellowsaltcube","0.0","-0.60539999172986336","0.94719999999999815","-0.50339999014474723","0.94719999999999949","-0.33039998844694513","0.94719999999999949","SIDE","3.3482604000171916e-16","0.11946082408923595","0.69946498402967172","0.70461184181383985","-34.783197788407662","-224.88743054459692","40.672531285198097","0.008056630","0.000011530","123"
"124","yellowsaltcube","0.0","-0.59839999139737099","0.94719999999999938","-0.46039999136198001","0.94719999999999949","-0.4543999910770033","0.94720000000000448","SIDE","-0.47276149207695289","0.63266248458868191","0.39080855135529247","-0.47276149207695317","205.69295170945341","-44.284170462123129","142.68923206324513","0.008002327","0.000019376","124"
"125","yellowsaltcube","0.0","-0.33239998854193842","0.66800000614487542","-0.26039998838174949","0.58700000229757276","-0.2043999857218953","0.83100000736769342","SIDE","-6.7212444201259749e-17","0.069222567942639993","0.72266762360116976","-0.68772068595183677","10.136478549027995","161.64991332896128","46.300660231410212","0.018446562","0.000117033","125"
"126","yellowsaltcube","0.0","-0.4093999889396035","0.46999999999999958","-0.27739998918920772","0.47000000000000042","-0.27839998923670561","0.46999999999999981","SIDE","0.50427520688141492","-0.37381007792911447","0.59302534270302676","-0.50427520688141469","-216.9527979384842","42.198646632567559","119.09433328736861","0.008238274","0.000013525","126"
"127","yellowsaltcube","0.0","-0.58339999394454123","0.94720000000000126","-0.45439999107699952","0.94719999999999971","-0.4553999911244962","0.9472000000000016","SIDE","0.50427520688141492","-0.37381007792911447","0.59302534270302665","-0.50427520688141469","-216.9527979384842","42.198646632567559","119.09433328736864","0.008046919","0.000015512","127"
"128","yellowsaltcube","0.0","-0.38239999091681087","0.46999999999999942","-0.34639998920690229","0.46999999999999931","-0.14539998617917291","0.46999999999999859","SIDE","0.68772068595183677","0.72266762360116943","-0.069222567942640381","-3.0269093451668459e-17","16.020554468032635","223.0783071007605","49.642836156484023","0.007055004","0.000012563","128"
"129","yellowsaltcube","0.0","-0.47839999221693602","0.94719999999999915","-0.45939999131448278","0.94719999999999949","-0.37939999077431852","0.94719999999999949","SIDE","-5.761066645822265e-17","0.069222567942639979","0.72266762360116954","-0.68772068595183677","14.897057739914121","211.34926071077919","49.004686042803726","0.007924291","0.000009539","129"
"130","yellowsaltcube","0.0","-0.23339998709931961","0.46999999999999947","-0.49039998952728542","0.91000000786035506","-0.27439998904671381","0.5520000038947962","TOP","0.0091443776307194285","0.86307249204766978","0.50491448205227663","0.0091443776307192949","-5.5419069789051099","0.34368335609058498","279.5212018404161","0.019386608","0.000110814","130"
"131","yellowsaltcube","0.0","-0.48039999231193209","0.95520000037997943","-0.40039998851213371","0.94719999999999949","-0.40839998889211648","0.94719999999999949","SIDE","1.6660188529844471e-16","-0.036876418435296189","0.010576421001671915","0.99926386359268504","8.0033897891932391","-3.4570393032453679","-137.84324174032392","0.010422437","0.000040538","131"
"132","yellowsaltcube","0.0","-0.19739998538940151","0.47000000000000353","-0.76239999592732366","0.46999999999999947","-0.61239999206234985","0.51200000199489226","SIDE","0.50036834451849377","-0.56314877613666847","-0.42676280946612027","-0.5003683445184941","-24.462615323053605","-195.48896821190874","72.173364083393921","0.003020004","0.000100990","132"
"133","yellowsaltcube","0.0","-0.48039999231193259","0.9560000100452416","-0.28439998952168949","0.64300000495743104","-0.22839998686183349","0.46999999999999942","SIDE","1.6654763525438789e-16","-0.036876418435296189","0.010576421001671915","0.99926386359268504","8.0033897891932391","-3.4570393032453679","-137.84324174032395","0.010771794","0.000066515","133"
"134","yellowsaltcube","0.0","-0.29939998697452258","0.46999999999999942","-0.28139998937919691","0.46999999999999947","-0.20339998567439729","0.46999999999999859","SIDE","-5.7610666458222638e-17","0.069222567942639993","0.72266762360116976","-0.68772068595183677","14.897057739914121","211.34926071077916","49.004686042803733","0.007919760","0.000008766","134"
"135","yellowsaltcube","0.0","-0.41239998908211001","0.94719999999999915","-0.50539999023973525","0.94719999999999938","-0.42439998965207448","0.94719999999999938","TOP","0.0091443776307194302","0.86307249204766978","0.50491448205227663","0.0091443776307192949","-5.541906978905109","0.34368335609058481","279.5212018404161","0.008264774","0.000008542","135"
"136","yellowsaltcube","0.0","-0.51539999071472031","0.94719999999999815","-0.42839998984206312","0.94719999999999971","-0.3853999877996831","0.94719999999999971","TOP","-2.7348476319878279e-17","0.96731286596093802","-0.25325595760402142","0.012932102864824329","-5.6795102636744144","0.37970980924639808","285.01936222550722","0.006538344","0.000008198","136"
"137","yellowsaltcube","0.0","-0.50239999009725267","0.94719999999999882","-0.4313999899845557","0.94719999999999938","-0.39239998813215782","0.94719999999999938","SIDE","1.5117174403636026e-16","-0.10513511098326342","-0.67051175635720561","0.73441173263048587","26.162593302001213","213.73328692034701","57.968717635201955","0.007943341","0.000009271","137"
"138","yellowsaltcube","0.0","-0.50039999000226132","0.94719999999999915","-0.42739998979456179","0.94719999999999938","-0.40239998860712872","0.94719999999999949","SIDE","0.70461184181383996","-0.69946498402967161","0.11946082408923572","-7.8782597647463306e-17","-32.645190523205578","-212.3690067934576","40.583068611567576","0.009160774","0.000012820","138"
"139","yellowsaltcube","0.0","-0.32539998820945298","0.46999999999999931","-0.25239998800177083","0.46999999999999942","-0.2143999861968694","0.46999999999999842","SIDE","1.8896468004545031e-16","-0.10513511098326342","-0.67051175635720561","0.73441173263048587","26.162593302001216","213.73328692034698","57.968717635201941","0.008612830","0.000010958","139"
"140","yellowsaltcube","0.0","-0.48639998933728912","0.87300000610295658","-0.25939998833424971","0.49600000123493593","-0.20539998576939089","0.46999999999999942","TOP","-2.7348476319878279e-17","0.96731286596093802","-0.25325595760402142","0.012932102864824329","-5.6795102636744144","0.37970980924639819","285.01936222550722","0.009642816","0.000061768","140"
"141","yellowsaltcube","0.0","-0.32339998811445819","0.46999999999999942","-0.2483999878117793","0.46999999999999942","-0.22539998671934081","0.46999999999999859","SIDE","0.70461184181383996","-0.69946498402967161","0.11946082408923571","-7.8782597647463306e-17","-32.645190523205571","-212.3690067934576","40.583068611567576","0.007282734","0.000008554","141"
"142","yellowsaltcube","0.0","-0.34139998896941309","0.47000000000000242","-0.25039998790677442","0.46999999999999931","-0.21739998633936011","0.46999999999999809","SIDE","0.70762769900022759","-0.6999731949548591","0.096439441891427002","1.9611708003264569e-17","-27.014911631360771","-214.01395100275789","72.145801766156694","0.008073938","0.000011848","142"
"143","yellowsaltcube","0.0","-0.51839999085721478","0.94719999999999915","-0.43039998993705408","0.94719999999999971","-0.39139998808465731","0.94719999999999949","SIDE","0.70762769900022759","-0.6999731949548591","0.096439441891427002","0.0","-27.014911631360775","-214.01395100275789","72.145801766156708","0.007244433","0.000015341","143"
"144","yellowsaltcube","0.0","-0.55439999256711558","0.94719999999999882","-0.51839999085720823","0.94719999999999971","-0.32439998816195897","0.94720000000000149","SIDE","0.68772068595183677","0.72266762360116954","-0.069222567942640367","-4.0358791268891283e-17","16.020554468032632","223.0783071007605","49.642836156484016","0.008589610","0.000013762","144"
"145","yellowsaltcube","0.0","-0.53639999171216257","0.93400000900029612","-0.31439998768698008","0.55400000398978844","-0.1773999876990914","0.46999999999999897","TOP","0.012932102864824796","0.25325595760402153","0.96731286596093802","2.7796811997253334e-17","-5.7270459466798318","0.39215531198300035","286.91872683474355","0.012243775","0.000065797","145"
"146","yellowsaltcube","0.0","-0.41839998936708739","0.46999999999999942","-0.33239998854193581","0.46999999999999931","-0.14939998636916479","0.4699999999999967","SIDE","3.9223416006529151e-16","0.096439441891427183","0.69997319495485921","0.70762769900022759","-28.352478789358759","-223.72223154326164","72.131357342046343","0.007542417","0.000017652","146"
"147","yellowsaltcube","0.0","-0.54139999194964961","0.9471999999999986","-0.4623999914569768","0.94719999999999949","-0.35739998972937531","0.94719999999999938","TOP","0.012932102864824796","0.25325595760402153","0.96731286596093802","2.7348476319878282e-17","-5.7270459466798327","0.39215531198300091","286.91872683474355","0.007986328","0.000008274","147"
"148","yellowsaltcube","0.0","-0.56339999299459198","0.94719999999999782","-0.49839998990725942","0.94719999999999949","-0.31939998792447022","0.94719999999999949","SIDE","0.99926386359268504","-0.010576421001671969","-0.036876418435296453","-2.3598769164709684e-16","8.3276634062066091","-3.5500432998032401","-142.23029078199741","0.006562999","0.000005317","148"
"149","yellowsaltcube","0.0","-0.26839998876172888","0.9471999999999986","-0.80739999480508151","0.94719999999999971","-0.72439999412242562","0.94720000000000326","SIDE","0.50036834451849388","-0.56314877613666847","-0.42676280946612016","-0.50036834451849399","-31.286937358903089","-245.02101034268287","72.099668044158236","0.004518343","0.000085463","149"
"150","yellowsaltcube","0.0","-0.58739999087490768","0.94719999999999827","-0.50739999033473404","0.94719999999999949","-0.32839998835195078","0.94720000000000149","SIDE","4.1184586806855595e-16","0.096439441891427197","0.69997319495485899","0.70762769900022759","-28.352478789358759","-223.72223154326164","72.131357342046343","0.008080626","0.000014297","150"
"151","yellowsaltcube","0.0","-0.51939999090470657","0.83600000760518456","-0.34839998930189742","0.54900000375230207","-0.13939998589418881","0.46999999999999831","SIDE","0.99926386359268504","-0.010576421001671967","-0.03687641843529646","-2.3593344160304005e-16","8.3276634062066091","-3.5500432998032401","-142.23029078199744","0.012227329","0.000079880","151"
"152","yellowsaltcube","0.0","-0.26439998857174152","0.94719999999999949","-0.79439999418761553","0.9471999999999986","-0.73939999483488539","0.94720000000000149","SIDE","0.51930751632597794","0.39978165986841602","-0.54846515970254839","0.51930751632597816","30.208526255967925","239.53670868589396","55.906222508959274","0.003533202","0.000049591","152"
"153","yellowsaltcube","0.0","-0.57139999337457192","0.94719999999999938","-0.51439999066721742","0.94719999999999938","-0.32439998816196108","0.94719999999999971","SIDE","0.73441173263048565","0.67051175635720561","-0.10513511098326392","-1.1337880802727021e-16","26.872947918952228","218.26365852877294","57.606600182434228","0.006814307","0.000012860","153"
"154","yellowsaltcube","0.0","-0.40239998860712839","0.47000000000000242","-0.3403999889219162","0.46999999999999931","-0.1433999860841764","0.46999999999999859","SIDE","0.73441173263048565","0.67051175635720572","-0.10513511098326389","-9.4482340022725179e-17","26.872947918952228","218.26365852877291","57.606600182434249","0.006605556","0.000013767","154"
"155","yellowsaltcube","1.221245327087672e-15","-0.15239998651165659","0.46999999999999859","-0.63239999301228578","0.47000000000000342","-0.56439999304209021","0.46999999999999847","SIDE","0.51930751632597816","0.39978165986841596","-0.54846515970254828","0.51930751632597816","30.208526255967925","239.53670868589393","55.90622250895926","0.003498461","0.000090468","155"
"156","yellowsaltcube","0.0","-0.14339998608417501","0.47000000000000242","-0.64239999348726029","0.46999999999999897","-0.5453999921396423","0.46999999999999931","SIDE","0.50036834451849388","-0.56314877613666847","-0.42676280946612016","-0.50036834451849399","-31.286937358903089","-245.02101034268287","72.099668044158236","0.003092809","0.000060076","156"
"157","yellowsaltcube","0.0","-0.31139998754449078","0.94719999999999793","-0.51139999052472573","0.94719999999999949","-0.42139998950958402","0.94719999999999971","SIDE","0.70658625414105669","-0.033554224552436639","-0.018596906530504668","0.70658625414105702","8.0254993539903303","-3.4633804848305805","-138.14235872043756","0.007335514","0.000008587","157"
"158","yellowsaltcube","0.0","-0.51439999066722475","0.94719999999999882","-0.41439998917709819","0.94719999999999938","-0.38539998779967738","0.94719999999999971","SIDE","-7.9189483156236629e-17","-0.13792553595377141","-0.69970531138485204","0.70099145768810345","33.038160377392991","210.6406248223185","125.55017291471771","0.008600960","0.000010709","158"
"159","yellowsaltcube","0.0","-0.33939998887441769","0.46999999999999942","-0.23539998719431471","0.46999999999999931","-0.20639998581689131","0.46999999999999859","SIDE","-5.9392112367177484e-17","-0.13792553595377141","-0.69970531138485226","0.70099145768810345","33.038160377392991","210.64062482231847","125.55017291471768","0.009632044","0.000015943","159"
"160","yellowsaltcube","0.0","-0.34039998892191559","0.46999999999999909","-0.19939998548440671","0.46999999999999909","-0.2433999875742954","0.46999999999999909","SIDE","0.70138399975085519","-0.69621036110935364","0.15281236199167808","1.1871774502478618e-16","-42.088265719505642","-214.35058887358926","125.41577993734099","0.006905165","0.000011916","160"
"161","yellowsaltcube","0.0","-0.51639999076221443","0.94720000000000026","-0.3793999907743178","0.94719999999999938","-0.42039998946208862","0.94719999999999949","SIDE","0.70138399975085541","-0.69621036110935353","0.15281236199167808","1.1871774502478618e-16","-42.088265719505635","-214.35058887358926","125.41577993734099","0.007889831","0.000011401","161"
