ipa320/cob_manipulation/cob_grasp_generation/files/database/yellowsaltcube/sdh_yellowsaltcube_reduced.csv
id;object;sdh_knuckle_joint;sdh_finger_12_joint;sdh_finger_13_joint;sdh_finger_22_joint;sdh_finger_23_joint;sdh_thumb_2_joint;sdh_thumb_3_joint;direction;qw;qx;qy;qz;pos-x;pos-y;pos-z;eps_l1;vol_l1;
0;yellowsaltcube;0;-0.9854;0.9472;-0.8963999958;0.9472;-0.7543999955;0.9472;SIDE;0.70052989;0.1317917572;0.7013478495;1.9810414952814776e-17;-200.7010903;26.4683918801;75.6430164067;0.009082268;0.000057873;0
1;yellowsaltcube;0;-0.7253999942;0.9472;-0.6513999939;0.9472;-0.9854;0.9472;SIDE;-2.2818494842400568e-16;0.7298178729;-0.1236581782;-0.6723648766;212.44029898;-32.3469905997;67.6433770174;0.007620564;0.000038404;1
2;yellowsaltcube;0;-0.7363999947;0.9472;-0.6723999949;0.9472;-0.9523999984;0.9472;SIDE;0.7119857251;0.0867025923;0.6968206281;-1.656791592954181e-16;-218.2197592087;17.8241569421;46.6659758958;0.009291001;0.000049242;2
3;yellowsaltcube;0;-0.7333999945;0.9472;-0.6713999949;0.9472;-0.9854;0.9472;SIDE;0.7119857251;0.0867025923;0.6968206281;-1.4618749349595713e-16;-193.5027449418;14.7487181221;47.0109132727;0.008202037;0.000041677;3
4;yellowsaltcube;0;-0.7153999937;0.9472;1.0986000338;1.5707963268;-0.9854;0.9472;SIDE;-2.2372789558646274e-16;0.7133422472;-0.0544723542;-0.6986956426;188.7597490235;7.1162457552;53.1436480153;0.000364106;0.000001819;4
5;yellowsaltcube;0;-0.9854;0.9472;-0.8763999981;0.9472;-0.7413999949;0.9472;SIDE;1.5644579900794497e-16;0.6729222122;-0.2087286852;0.7096534593;-201.554025841;75.5905095661;71.0632801889;0.00832826;0.000060779;5
6;yellowsaltcube;0;-0.9854;0.9472;-0.8793999982;0.9472;-0.743399995;0.9472;SIDE;1.1733434925595873e-16;0.6729222122;-0.2087286852;0.7096534593;-198.3246167938;73.8505682655;71.0892580233;0.009549585;0.00007828;6
7;yellowsaltcube;0;-0.7043999932;0.9472;-0.6603999943;0.9472;-0.9313999974;0.9472;SIDE;0.5052145934;-0.4015618061;0.5729437539;0.5052145934;-36.1675175638;-227.3329620591;45.1921995226;0.006989613;0.000041107;7
8;yellowsaltcube;0;-0.6333999931;0.9472;-0.5333999916;0.9472;-0.9854;0.9472;SIDE;0.6685857139;-0.1710165562;-0.7237033099;-1.2454158849100541e-16;208.3591061499;-61.8065672611;133.2816955815;0.009722463;0.000098442;8
9;yellowsaltcube;0;-0.8523999969;0.9472;-0.701399993;0.9472;-0.8493999968;0.9472;SIDE;0.6825352425;-0.2104230156;-0.6999055631;-8.1330820404926587e-17;171.8593227166;-72.5241586607;103.5387058611;0.005846848;0.000045491;9
10;yellowsaltcube;0;-0.7233999941;0.9472;-0.6683999947;0.9472;-0.9603999988;0.9472;SIDE;0.5003437638;0.5719755816;0.4149170642;-0.5003437638;26.807123457;215.3213819571;49.0544021267;0.007673494;0.000057452;10
11;yellowsaltcube;0;-0.9793999997;0.9472;-0.9854;0.9472;-0.5713999934;0.9472;SIDE;0.7128775792;0.1351399806;0.68814442;-9.7336402585533367e-17;-229.8063295832;33.5909563509;89.069247626;0.000622403;0.000062038;11
12;yellowsaltcube;0;-0.7163999937;0.9472;-0.652399994;0.9472;-0.9854;0.9472;SIDE;-2.2818494842400568e-16;0.7298178729;-0.1236581782;-0.6723648766;213.7192703827;-37.9072353882;67.8542491104;0.008798253;0.000073656;12
13;yellowsaltcube;0;-0.9363999977;0.9472;-0.9103999964;0.9472;-0.7233999941;0.9472;SIDE;0.5193075163;0.5484651597;0.3997816599;-0.5193075163;24.201397001;201.2255227298;58.9684766175;0.007472767;0.000055273;13
14;yellowsaltcube;0;-0.8163999952;0.9472;-0.6673999947;0.9472;-0.9163999967;0.9472;SIDE;1.5402470089891509e-16;0.6544010656;-0.2284610604;0.7208084276;-178.396390556;73.6077034739;85.9811525666;0.004918244;0.000034587;14
15;yellowsaltcube;0;-0.8873999953;0.9472;-0.8923999956;0.9472;-0.7463999952;0.9472;SIDE;0.5003683445;-0.4267628095;0.5631487761;0.5003683445;-24.7901827567;-197.8665060596;72.1698266738;0.008981506;0.000060448;15
16;yellowsaltcube;0;-0.7163999937;0.9472;-0.6703999948;0.9472;-0.9854;0.9472;SIDE;0.5003437638;0.5719755816;0.4149170642;-0.5003437638;22.8921059574;190.7209843195;49.0886665229;0.005991631;0.000038275;16
17;yellowsaltcube;0;-0.7533999955;0.9472;-0.7083999934;0.9472;-0.9693999992;0.9472;SIDE;0.6863471143;-0.1357877081;-0.7144853652;-6.0659340671230396e-17;181.6629309492;-36.1334213078;101.8502512086;0.006420753;0.000035662;17
18;yellowsaltcube;0;-0.943399998;0.9552000004;-0.9854;1.078200003;-0.7113999935;0.9592000006;SIDE;0.5193075163;0.5484651597;0.3997816599;-0.5193075163;20.3546722928;176.6925753992;60.929421362;0.014463549;0.000258734;18
19;yellowsaltcube;0;-0.9854;0.9472;-0.9813999998;1.2162000063;-0.9463999981;1.3352000087;SIDE;-2.7447121483270659e-16;0.7078666862;-0.1680098316;-0.6860739399;157.5063347329;-32.2341482364;80.4716703783;0.015659303;0.000177911;19
20;yellowsaltcube;0;-0.7453999951;0.9472;-0.6703999948;0.9472;-0.9854;0.9472;SIDE;0.7178446786;0.1215481583;0.6855108042;-1.9332577396688153e-17;-202.5078107798;30.3826295162;43.8856871673;0.007371998;0.000044094;20
21;yellowsaltcube;0;-0.6993999929;0.9472;-0.6653999946;0.9472;-0.9854;0.9472;SIDE;0.5052145934;-0.4015618061;0.5729437539;0.5052145934;-31.8538697487;-202.8048607441;45.7144910184;0.006841427;0.000064356;21
22;yellowsaltcube;0;-0.9854;0.9472;-0.9833999999;1.1222000051;-0.8183999953;1.1292000054;SIDE;0.7248368493;0.1377092471;0.6750168185;-7.6584339342561694e-17;-167.3745666853;27.8279384018;65.1991632573;0.015843599;0.00016531;22
23;yellowsaltcube;0;-0.9473999982;0.9472;-0.9854;1.1602000036;-0.8593999973;1.2032000056;SIDE;0.5003683445;-0.4267628095;0.5631487761;0.5003683445;-21.3903055185;-173.1896426701;72.2065420405;0.016175795;0.000168422;23
24;yellowsaltcube;0;-0.9373999977;0.9472;-0.8733999979;0.9472;-0.7773999966;0.9472;SIDE;-2.7447121483270659e-16;0.7078666862;-0.1680098316;-0.6860739399;181.7013622504;-37.9767585027;81.9315233695;0.007418463;0.000046474;24
25;yellowsaltcube;0;-0.8823999984;0.9472;-0.9854;1.2262000067;-0.9613999989;1.3372000087;SIDE;-2.7447121483270659e-16;0.7078666862;-0.1680098316;-0.6860739399;156.0694848088;-37.3801497583;80.4593633066;0.013414572;0.000232228;25
26;yellowsaltcube;0;-0.9743999995;0.9472;-0.900399996;0.9472;-0.7483999953;0.9472;SIDE;0.7248368493;0.1377092471;0.6750168185;-5.7438254506921267e-17;-191.7503500084;32.8008082295;63.9343102779;0.006689302;0.000043197;26
27;yellowsaltcube;0;1.0326000307;1.5707963268;-0.9854;1.1022000041;-0.8093999949;1.1522000032;SIDE;0.6909627946;-0.0798021794;-0.7184720097;-4.0169421325341998e-17;166.8292173232;3.8705359481;78.7960663976;0.009946466;0.000116227;27
28;yellowsaltcube;0;1.0326000307;1.5707963268;-0.9113999965;0.9472;-0.7333999945;0.9472;SIDE;0.6909627946;-0.0798021794;-0.7184720097;-3.0127065994006495e-17;191.4723712306;1.1333696255;79.9164618729;0.001109846;0.000004435;28
29;yellowsaltcube;0;-0.9153999967;1.3342000086;-0.8383999963;1.2902000065;-0.9854;1.0082000029;SIDE;0.6863471143;-0.1357877081;-0.7144853652;-8.087912089497387e-17;157.2319518143;-31.4903217781;100.4090762471;0.015544839;0.000267129;29
30;yellowsaltcube;0;-0.6363999932;0.9472;-0.8403999964;1.2952000068;-0.9854;1.0072000028;SIDE;0.6863471143;-0.1357877081;-0.7144853652;-8.0879120894973857e-17;158.3172251553;-26.3145475431;100.4148617753;0.011756404;0.00018468;30
31;yellowsaltcube;0;-0.7083999934;0.9472;-0.901399996;0.9472;-0.7553999956;0.9472;SIDE;0.6860739399;-0.1680098316;-0.7078666862;-8.0911324572297922e-17;184.83932481;-44.2085767329;82.1952463078;0.002914304;0.000036722;31
32;yellowsaltcube;0;-0.9854;0.968200001;1.0986000338;1.5707963268;-0.9243999971;1.3792000075;SIDE;-2.8007760985303008e-16;0.7184720097;-0.0798021794;-0.6909627946;163.5527304201;4.2344621583;78.647101654;0.00791268;0.00008813;32
33;yellowsaltcube;0;-0.7993999944;0.9472;-0.9854;1.1172000048;-0.8263999957;1.1322000055;SIDE;0.6860739399;-0.1680098316;-0.7078666862;-8.0911324572297934e-17;160.6442972924;-38.4659664666;80.7353933166;0.012841636;0.00026178;33
34;yellowsaltcube;0;-0.6163999923;0.9472;-0.7093999934;0.9472;-0.9693999992;0.9472;SIDE;0.6863471143;-0.1357877081;-0.7144853652;-1.0109890111871734e-16;182.7482042902;-30.9576470728;101.8560367367;0.007945965;0.000079743;34
35;yellowsaltcube;0;-0.7953999942;0.9472;-0.8733999979;0.9472;-0.789399994;0.9472;SIDE;-2.7447121483270659e-16;0.7078666862;-0.1680098316;-0.6860739399;180.1770955268;-43.1020119346;81.913941839;0.005383551;0.000038478;35
36;yellowsaltcube;0;1.0326000307;1.5707963268;-0.6593999943;1.0082000029;-0.1693999873;0.9472;SIDE;-0.470385555;0.6669970445;0.3355440387;-0.470385555;156.9419707338;-73.5062967799;26.2631330754;0.00694899;0.000012078;36
37;yellowsaltcube;0;0.3606000216;0.9472;-0.7693999963;1.1442000061;-0.9854;1.0062000028;SIDE;0.7019071384;-0.0983606505;-0.7054442228;-7.9086175637501269e-17;167.3767752128;-0.268245877;94.5077851144;0.010265161;0.00016169;37
38;yellowsaltcube;0;1.0326000307;1.5707963268;-0.9854;1.5677963299;0.0506000166;0.9472;SIDE;-0.4981139025;-0.3808547066;0.5989280196;0.4981139025;152.3665159664;-9.0173764954;133.4011840817;0.007300526;0.00001566;38
39;yellowsaltcube;0;1.0326000307;1.5707963268;-0.7203999939;0.9472;-0.1533999866;0.9472;SIDE;-0.4981139025;-0.3808547066;0.5989280196;0.4981139025;176.6808380245;-14.4290913798;133.5887603762;0.000811619;0.000001554;39
40;yellowsaltcube;0;1.0326000307;1.5707963268;-0.9854;1.5707963268;0.0696000175;1.1602000036;SIDE;-0.470385555;0.6669970445;0.3355440387;-0.470385555;133.4478130936;-65.7388254031;23.3997355848;0.000839339;0.000009041;40
41;yellowsaltcube;0;0.2646000203;0.9472;-0.6993999929;0.9472;-0.9573999987;0.9472;SIDE;0.7019071384;-0.0983606505;-0.7054442228;-7.9086175637501269e-17;192.0454638589;-3.7078208073;94.8727848189;0.002199737;0.000040188;41
42;yellowsaltcube;0;1.0326000307;1.5707963268;-0.6453999936;1.0742000028;-0.184399988;0.9472;SIDE;-0.4924930203;0.6498614926;0.3042717376;-0.4924930203;153.9502150698;-74.8182327668;13.6055699416;0.006829702;0.000011214;42
43;yellowsaltcube;0;1.0326000307;1.5707963268;-0.9854;1.5707963268;0.0306000157;0.9472;SIDE;0.7122258683;-0.6631263938;0.2302122898;1.1691056243412635e-16;-59.8244008143;-134.6140598277;7.6661493667;0.000010225;0.000000015;43
44;yellowsaltcube;0;0.2746000207;0.9472;-0.5363999917;1.1072000043;-0.2413999875;0.9472;SIDE;0.5119887054;0.3648175523;-0.585357399;-0.5119887054;159.1895074873;-32.8313609148;125.4743027856;0.008007137;0.000034738;44
45;yellowsaltcube;1.494714770157051e-16;-0.5863999908;0.9472;-0.9854;1.2082000059;-0.9403999979;1.3152000077;SIDE;7.6584339342561731e-17;0.6750168185;-0.1377092471;0.7248368493;-162.48179606;26.8297710365;65.453047837;0.012954652;0.000204671;45
46;yellowsaltcube;0;1.0326000307;1.5707963268;-0.5313999915;1.0902000035;-0.2243999867;0.9472;SIDE;0.7122258683;-0.6631263938;0.2302122898;1.1691056243412635e-16;-67.9930448488;-158.143835169;7.3041728144;0.009899128;0.00001398;46
47;yellowsaltcube;0;1.0326000307;1.5707963268;-0.5973999913;1.1402000059;-0.2023999856;0.9472;SIDE;0.4981898212;-0.291725618;0.6469234637;-0.4981898212;-152.3047673758;69.0096845059;10.3199145835;0.011286927;0.000034111;47
48;yellowsaltcube;0;0.279600021;0.9472;-0.474399992;1.1632000037;-0.2653999886;0.9472;SIDE;0.511267796;0.3648733351;-0.5865815636;-0.511267796;154.4691528724;-37.3350111053;126.0603375387;0.008105578;0.000026086;48
49;yellowsaltcube;0;0.2396000191;0.9472;-0.5723999934;1.0442000046;-0.2283999869;0.9472;SIDE;0.5173806811;-0.3544153442;0.5822578685;-0.5173806811;-160.5969775416;47.9707845585;-0.7499097545;0.009641009;0.000032031;49
50;yellowsaltcube;0;0.1946000202;0.9472;-0.5873999909;1.0132000031;-0.2193999864;0.9472;SIDE;0.4991784402;0.5923182146;0.3883309185;0.4991784402;-170.9550158761;23.67497052;132.8881984125;0.010023637;0.000029013;50
51;yellowsaltcube;0;-0.5163999908;0.9472;-0.674399995;0.9472;-0.9854;0.9472;SIDE;1.3324280141426984e-16;0.6680672241;-0.1487620464;0.7290788967;-205.5147413793;38.8739473027;80.9472222408;0.005003028;0.000046732;51
52;yellowsaltcube;0;1.0326000307;1.5707963268;-0.183399988;0.9472;-0.5873999909;1.1632000037;SIDE;-0.4835773952;0.5586901621;0.4692239427;-0.4835773952;165.7849551017;7.4865864339;18.2502965127;0.007889142;0.000010849;52
53;yellowsaltcube;0;-0.7573999957;0.9472;-0.8993999959;0.9472;-0.7143999936;0.9472;SIDE;-0.4865128012;-0.3277946026;0.6474266654;-0.4865128012;70.1997356452;187.6931346652;81.3765016611;0.007204549;0.000037514;53
54;yellowsaltcube;0;1.0326000307;1.5707963268;-0.9854;1.5707963268;0.0146000182;1.3632000067;SIDE;-0.4924930203;0.6498614926;0.3042717376;-0.4924930203;130.5395999653;-66.3388417527;12.863189674;0.002883395;0.000003774;54
55;yellowsaltcube;0;0.2756000208;0.9472;-0.9854;1.5707963268;-0.2073999859;1.5707963268;SIDE;0.4991784402;0.5923182146;0.3883309185;0.4991784402;-141.9621440237;23.063262255;132.7945847097;0.002372157;0.000008797;55
56;yellowsaltcube;0;0.4156000209;0.9472;-0.9854;1.5707963268;-0.5783999937;1.5707963268;SIDE;0.5056727557;-0.5947452071;-0.3672441518;0.5056727557;130.6820986268;-31.0161259619;6.8003878388;0.002891764;0.000009551;56
57;yellowsaltcube;0;0.1886000199;0.9472;-0.5373999918;1.0742000028;-0.2403999874;0.9472;SIDE;0.4991784402;0.5923182146;0.3883309185;0.4991784402;-166.3499758552;28.1362365768;132.8763776707;0.01087145;0.000039921;57
58;yellowsaltcube;0;-0.5053999902;0.9472;-0.673399995;0.9472;-0.9173999968;0.9472;SIDE;1.1420811549794557e-16;0.6680672241;-0.1487620464;0.7290788967;-229.7807538444;44.2773880673;79.3751004434;0.007992634;0.000073365;58
59;yellowsaltcube;0;0.2916000215;0.9472;-0.473399992;1.2202000064;-0.2673999887;0.9542000003;SIDE;0.5056727557;-0.5947452071;-0.3672441518;0.5056727557;154.9171278019;-36.747472843;6.2319480349;0.012941279;0.000041786;59
60;yellowsaltcube;0;0.1306000172;0.9472;-0.4893999895;1.0132000031;-0.2373999873;0.9472;SIDE;3.9362331769368115e-16;0.1330693552;0.7051303713;0.6964795088;-27.6984732597;-167.5892249661;136.522002692;0.008510362;0.000028596;60
61;yellowsaltcube;0;0.2706000205;0.9472;-0.4283999898;1.4062000088;-0.4493999908;1.3952000082;SIDE;0.5056727557;-0.5947452071;-0.3672441518;0.5056727557;149.3352295511;-29.9424838086;6.3916862475;0.015372561;0.000067578;61
62;yellowsaltcube;0;0.1306000172;0.9472;-0.4843999925;1.0452000047;-0.2223999866;0.9472;SIDE;0.6952047994;0.69978625;-0.1642847868;-2.5950804951228305e-16;28.3657953331;161.7846990737;136.8770381003;0.008838733;0.000025018;62
63;yellowsaltcube;0;0.4506000226;0.9472;-0.9854;1.5707963268;-0.2753999891;1.5707963268;SIDE;0.5119887054;0.3648175523;-0.585357399;-0.5119887054;134.9531315165;-27.205989889;126.6831785542;0.000140756;0.000014285;63
64;yellowsaltcube;0;1.0326000307;1.5707963268;-0.1073999844;1.5707963268;-0.9854;1.5707963268;SIDE;-0.4835773952;0.5586901621;0.4692239427;-0.4835773952;141.0206275198;9.6419910081;16.6408212747;0.000007039;0.000000008;64
65;yellowsaltcube;0;0.1076000193;0.9472;-0.9854;1.5707963268;0.0156000149;0.9472;SIDE;3.9362331769368115e-16;0.1330693552;0.7051303713;0.6964795088;-23.0811517176;-143.1221818276;135.7788729344;0.008966142;0.000019849;65
66;yellowsaltcube;0;0.2726000206;0.9472;-0.9854;1.5707963268;-0.0913999836;1.5062000103;SIDE;0.5173806811;-0.3544153442;0.5822578685;-0.5173806811;-136.4533772961;42.0979371757;1.0120013681;0.008495613;0.000024677;66
67;yellowsaltcube;0;0.1856000198;0.9472;-0.3143999877;1.1712000041;-0.453399991;1.2752000058;SIDE;0.5242168285;-0.3889195055;0.5469324014;-0.5242168285;-154.4474438823;15.7379227354;-3.5499726528;0.014281073;0.000045826;67
68;yellowsaltcube;0;0.0996000189;0.9472;-0.4793999923;1.5707963268;-0.4663999916;1.5707963268;SIDE;0.7513372605;-0.6468352003;0.1307537556;1.8470783411331578e-17;-22.5474255884;-133.9387388337;-4.0695531157;0.01291017;0.000025293;68
69;yellowsaltcube;0;0.2986000219;0.9472;-0.4473999907;1.3562000064;-0.4213999895;1.3532000062;SIDE;0.511267796;0.3648733351;-0.5865815636;-0.511267796;146.9289868838;-40.2009593085;126.3657170912;0.016518065;0.000055556;69
70;yellowsaltcube;0;-0.5553999926;1.4392000103;-0.3853999878;1.5032000101;-0.7973999943;0.9472;TOP;1.077979797736694e-16;0.9011719409;-0.2077256065;0.3804460611;-110.1980741132;39.6142570196;233.8156299185;0.009205883;0.000137424;70
71;yellowsaltcube;0;1.0326000307;1.5707963268;-0.9854;1.5707963268;-0.100399984;1.5707963268;SIDE;0.4981898212;-0.291725618;0.6469234637;-0.4981898212;-129.0076690417;60.1937390142;10.1398748664;0.000042677;0.000000033;71
72;yellowsaltcube;0;0.0256000154;0.9472;-0.2283999869;0.9472;-0.4503999909;1.0842000032;SIDE;0.7031912211;0.6902438555;-0.1705447932;-7.8941758036107158e-17;49.1501879621;153.6813383593;133.8564295846;0.013670277;0.00005256;72
73;yellowsaltcube;0;0.2286000185;0.9472;-0.9854;1.5707963268;-0.0143999832;1.368200007;SIDE;0.4991784402;0.5923182146;0.3883309185;0.4991784402;-146.5671840446;18.6019961981;132.8064054515;0.005995561;0.000014889;73
74;yellowsaltcube;1.6653345369377351e-16;0.0686000175;0.9472;-0.230399987;0.9472;-0.5763999936;1.0282000038;SIDE;-0.4945390845;-0.3937591812;0.5965030554;0.4945390845;157.6929675636;-55.109973765;135.5966764275;0.010000517;0.000030143;74
75;yellowsaltcube;0;0.237600019;0.9472;-0.0753999861;1.3772000074;-0.9854;1.5707963268;SIDE;-0.4945390845;-0.3937591812;0.5965030554;0.4945390845;133.294948779;-50.114782926;135.0555222265;0.011695987;0.000037781;75
76;yellowsaltcube;0;0.0316000157;0.9472;-0.4083999889;1.3052000072;-0.3973999884;1.2502000046;SIDE;0.5360013116;-0.3430951392;0.5546989394;-0.5360013116;-149.6078179777;28.520200018;-9.8031415025;0.013629663;0.00005596;76
77;yellowsaltcube;0;-0.072399986;0.9472;-0.3263999883;0.9472;-0.2953999868;0.9472;SIDE;0.7513372605;-0.6468352003;0.1307537556;0;-27.4417507865;-158.1508297539;-7.2833256853;0.005345963;0.000009448;77
78;yellowsaltcube;0;-0.0643999856;0.9472;-0.2173999863;0.9472;-0.50139999;0.9472;SIDE;2.5827140298836515e-16;0.1619285773;0.6985335558;0.6970150696;-62.2771262585;-161.8663977784;136.3759853611;0.007702597;0.00000651;78
79;yellowsaltcube;0;0.127600017;0.9472;-0.0113999831;0.9472;-0.9854;1.5707963268;SIDE;2.582714029883652e-16;0.1619285773;0.6985335558;0.6970150696;-56.6541093284;-137.6096169418;135.6700363206;0.006557039;0.000022635;79
80;yellowsaltcube;0;-0.5723999934;0.9472;-0.8783999982;0.9472;-0.7783999967;0.9472;SIDE;7.6584339342561731e-17;0.6750168185;-0.1377092471;0.7248368493;-186.8575793831;31.8026408642;64.1881948576;0.004977598;0.000040606;80
81;yellowsaltcube;0;0.2876000213;0.9472;-0.320399988;1.5707963268;-0.9854;1.5707963268;SIDE;0.5023997995;0.6160264619;0.3401474402;0.5023997995;-132.8764441511;50.9218013192;131.3220279677;0.005850377;0.000011175;81
82;yellowsaltcube;0;0.0526000167;0.9472;-0.253399988;0.9472;-0.5253999912;1.1472000062;SIDE;0.5023997995;0.6160264619;0.3401474402;0.5023997995;-156.8090543044;57.8269312982;131.0823381106;0.010973085;0.000038564;82
83;yellowsaltcube;0;-0.3303999884;1.3622000067;-0.4793999923;1.1842000047;-0.253399988;0.9472;SIDE;-1.1553990750990764e-16;0.3067053694;0.7206750346;-0.6217389411;68.8544447775;147.8776021344;59.6647780816;0.011379172;0.000063263;83
84;yellowsaltcube;0;-0.2283999869;0.9472;-0.3953999883;0.9932000022;-0.8503999968;1.5707963268;TOP;0.0013593138;0.3741902201;0.9273499791;0.0013593138;-2.5483531242;19.3030774292;250.525613029;0.005942924;0.000120174;84
85;yellowsaltcube;0;-0.5023999901;0.9472;-0.9854;1.1172000048;-0.8243999956;1.1282000053;SIDE;0.6860739399;-0.1680098316;-0.7078666862;-8.0911324572297922e-17;161.8771746661;-33.2715527301;80.7353933166;0.013841706;0.000227277;85
86;yellowsaltcube;0;0.2456000194;0.9472;-0.1253999852;1.5707963268;-0.9854;1.5707963268;SIDE;0.5023997995;0.6160264619;0.3401474402;0.5023997995;-134.307003866;55.3421467402;131.2970101569;0.006975383;0.000015341;86
87;yellowsaltcube;0;0.0306000157;0.9472;-0.2353999872;0.9472;-0.563399993;1.0982000039;SIDE;0.5023997995;0.6160264619;0.3401474402;0.5023997995;-158.2396140192;62.2472767191;131.0573202998;0.013535383;0.000049456;87
88;yellowsaltcube;0;-0.9854;1.5707963268;-0.7833999969;1.5707963268;-0.3593999898;1.5707963268;SIDE;-0.4853206988;0.601233856;0.4092010376;-0.4853206988;139.7742461631;-28.1724905749;99.379252263;0.000001925;0.000011796;88
89;yellowsaltcube;0;-0.6013999915;0.9642000008;-0.4553999911;0.9472;-0.3133999876;0.9472;SIDE;-0.4853206988;0.601233856;0.4092010376;-0.4853206988;164.2052252979;-32.8155901046;100.8204272245;0.012510543;0.000057677;89
90;yellowsaltcube;0;-0.1293999854;0.9472;-0.2413999875;0.9472;-0.4223999896;1.0532000018;SIDE;1.5417638777631856e-16;0.1851367929;0.7200992582;0.6687162525;-54.6391535431;-151.5390554893;146.0095562823;0.007441132;0.000030119;90
91;yellowsaltcube;0;-0.2673999887;0.9472;-0.9854;1.5707963268;-0.7943999942;1.5707963268;SIDE;0.5003438581;-0.0243107586;0.7062018368;0.5003438581;-111.407550581;-113.3006814599;49.1432297355;0.000277673;0.000034838;91
92;yellowsaltcube;0;0.1366000174;0.9472;-0.9854;1.5707963268;0.0216000152;1.1282000053;SIDE;0.6952047994;0.69978625;-0.1642847868;-2.59508049512283e-16;22.675774804;137.5475301519;136.0455280068;0.007342366;0.000023618;92
93;yellowsaltcube;0;-0.9854;1.5707963268;-0.6663999946;1.3932000081;-0.1453999862;0.9472;SIDE;0.709734016;-0.678587013;0.189201724;1.173210315034381e-16;-57.2531716576;-151.7583868055;91.4582242901;0.010600191;0.00007288;93
94;yellowsaltcube;0;-0.5573999927;1.0362000042;-0.3743999905;0.9472;-0.342399989;0.9472;SIDE;-0.4853206988;0.601233856;0.4092010376;-0.4853206988;161.6616499647;-26.9501543755;100.6121482315;0.004644389;0.000059093;94
95;yellowsaltcube;0;-0.5293999914;0.9472;-0.2353999872;0.9472;-0.5703999933;1.0942000037;SIDE;-0.4931554895;-0.2786752925;0.6602540478;0.4931554895;148.6427889092;-78.9490380126;53.1528077456;0.007082025;0.000042883;95
96;yellowsaltcube;0;-0.9854;1.5707963268;-0.3803999908;1.5667963299;-0.5243999911;1.5707963268;SIDE;0.7069822607;-0.6952918143;0.1294039258;9.8148062397624534e-17;-22.0616670317;-139.9620802534;92.4523322793;0.008558779;0.000058422;96
97;yellowsaltcube;0;-0.5373999918;0.9472;-0.2963999868;0.9472;-0.4753999921;0.9812000016;SIDE;0.5048235143;0.6296120074;0.3064231698;0.5048235143;-157.4437912266;65.9607157437;55.0986906505;0.015699338;0.000136265;97
98;yellowsaltcube;0;-0.9854;1.5707963268;-0.5573999927;1.5707963268;-0.542399992;1.5707963268;SIDE;0.5155366319;-0.3672042126;0.5775855162;-0.5155366319;-145.1175999393;25.4249978064;84.8601709666;0.003392101;0.000026996;98
99;yellowsaltcube;0;-0.4823999924;0.9472;-0.0823999864;1.5707963268;-0.9854;1.5707963268;SIDE;0.6591298789;0.181860487;-0.313085242;-0.6591298789;93.1725147996;-45.7090865983;-83.4700305763;0.003747228;0.000027111;99
100;yellowsaltcube;0;-0.3763999906;0.9472;-0.6863999923;0.9472;-0.9854;0.9472;SIDE;1.1680368310264006e-16;0.68814442;-0.1351399806;0.7128775792;-197.026927722;27.1536335971;89.6168003043;0.007571567;0.000039132;100
101;yellowsaltcube;0;-0.5363999917;0.9502000001;-0.2943999867;0.9472;-0.4763999921;0.9872000019;SIDE;0.5048235143;0.6296120074;0.3064231698;0.5048235143;-157.0793137364;65.8954544097;46.5492619129;0.01143598;0.000125675;101
102;yellowsaltcube;0;-0.9854;1.5707963268;-0.7923999941;1.5707963268;-0.0843999865;0.9472;SIDE;1.1885300614873203e-16;0.2352257323;0.700585787;-0.673682722;55.8546545549;140.9219945699;103.4895140493;0.01384639;0.000050702;102
103;yellowsaltcube;0;-0.5303999914;0.9472;-0.2923999866;0.9472;-0.4013999886;0.9472;SIDE;1.5622521916054067e-16;0.230927565;0.6645609828;0.7106554438;-68.0991716273;-158.8831220278;47.9184430812;0.003298482;0.000015249;103
104;yellowsaltcube;0;-0.9854;1.5707963268;-0.2453999877;1.5707963268;-0.8083999949;1.5707963268;SIDE;0.5048235143;0.6296120074;0.3064231698;0.5048235143;-133.5377412167;57.7671557683;47.0321951306;0.000235269;0.000012363;104
105;yellowsaltcube;0;-0.5243999911;1.0012000026;-0.2863999864;0.9472;-0.4793999923;1.0182000034;SIDE;0.5047525232;0.6201470577;0.3253727208;0.5047525232;-157.4529453684;60.9403171811;46.6129775155;0.010089502;0.000090858;105
106;yellowsaltcube;0;-0.9854;1.5707963268;-0.1173999848;1.5637963297;-0.9053999962;1.5707963268;SIDE;-0.4931554895;-0.2786752925;0.6602540478;0.4931554895;125.6575747237;-69.607899076;52.4779357495;0.004624831;0.000065537;106
107;yellowsaltcube;0;-0.6343999931;0.9732000012;-0.5023999901;0.9472;-0.2863999864;0.9472;SIDE;0.5075928401;0.5706768652;0.3987818112;0.5075928401;-171.6143817;24.9049048973;44.8462828893;0.012210476;0.000096953;107
108;yellowsaltcube;0;-0.9854;1.5707963268;-0.7823999969;1.5707963268;-0.1613999869;1.4282000098;SIDE;0.5075928401;0.5706768652;0.3987818112;0.5075928401;-147.1870200574;20.5736809371;45.6058236652;0.012371472;0.000083652;108
109;yellowsaltcube;0;-0.9854;1.5707963268;-0.7323999945;1.5707963268;-0.1063999843;0.9472;SIDE;2.71930169732306e-16;0.1211853375;0.6890794898;0.7144813299;-22.6066278358;-150.2235429719;46.83413639;0.007866265;0.000036119;109
110;yellowsaltcube;0;-0.4953999898;1.0862000033;-0.2973999869;0.9472;-0.4283999898;1.0392000044;SIDE;0.5040805704;-0.3910331891;0.5821499825;-0.5040805704;-165.3561971412;20.9340352206;90.1458335499;0.016548634;0.000133226;110
111;yellowsaltcube;0;-0.4843999925;0.9922000021;-0.3303999884;0.9472;-0.3253999882;0.9472;SIDE;0.7069822607;-0.6952918143;0.1294039258;1.1777767487714945e-16;-26.6195135028;-164.4515485733;92.4611047358;0.011503905;0.000076275;111
112;yellowsaltcube;0;-0.0203999835;0.9472;-0.7563999956;1.5707963268;-0.9323999975;0.9472;SIDE;0;-0.3499794813;0.0927899141;0.9321504141;80.9779060343;-42.4759350555;-69.6803844848;0.008276805;0.00013562;112
113;yellowsaltcube;0;-0.9854;1.5707963268;-0.1123999846;1.479200009;-0.8513999969;1.5707963268;SIDE;-0.4795707752;-0.304685284;0.6687231272;0.4795707752;128.0787505335;-66.6301091779;58.7608571944;0.004723153;0.00010013;113
114;yellowsaltcube;0;-0.5623999929;1.0342000041;-0.390399988;0.9472;-0.3933999882;0.9472;SIDE;0.5155366319;-0.3672042126;0.5775855162;-0.5155366319;-169.3836124045;30.828438571;83.2880491693;0.004602133;0.000065017;114
115;yellowsaltcube;0;-0.4193999894;1.5707963268;-0.3443999891;0.9472;-0.9854;1.5707963268;TOP;0.2690159897;0.7841089754;0.4903406054;0.2690159897;-97.5744362438;36.7044318088;220.7349277489;0.006515112;0.000061899;115
116;yellowsaltcube;0;-0.9854;1.5707963268;-0.1363999858;1.0032000027;-0.5803999938;1.5707963268;SIDE;0.6963243618;0.6747148721;-0.2447288799;1.1958037291215065e-16;56.880340928;135.8666261471;52.7760890629;0.004361916;0.000039119;116
117;yellowsaltcube;0;-0.5073999903;0.9822000017;-0.2543999881;0.9472;-0.5403999919;1.0002000025;SIDE;-0.4795707752;-0.304685284;0.6687231272;0.4795707752;151.3356345708;-75.327779966;60.7548400769;0.01029516;0.000124952;117
118;yellowsaltcube;0;-0.9854;1.5707963268;-0.8343999961;1.5707963268;-0.0603999854;1.3292000084;SIDE;0.5034499343;0.5540345823;0.4314186005;0.5034499343;-149.3474999451;9.2546583176;47.6271201583;0.007805697;0.000057015;118
119;yellowsaltcube;0;-0.5343999916;0.9472;-0.2373999873;0.9472;-0.5713999934;1.0942000037;SIDE;-0.4922560501;-0.2763432059;0.6625725582;0.4922560501;148.8094077367;-79.6134629872;49.4676093903;0.007945656;0.000066501;119
120;yellowsaltcube;0;-0.9854;1.4232000096;-0.790399994;1.5452000121;-0.0283999839;0.9472;SIDE;-0.4826252984;0.6436995111;0.3461164286;-0.4826252984;141.9251814446;-57.7061419236;101.2844105187;0.014519589;0.000091738;120
121;yellowsaltcube;0;-0.9854;1.3702000071;-0.7183999938;1.3742000072;-0.1223999851;0.9472;SIDE;0.5096885271;-0.301185066;0.6242777961;-0.5096885271;-148.8002287993;64.9788750153;87.1867348953;0.012132222;0.000093011;121
122;yellowsaltcube;0;-0.4783999922;1.0362000042;-0.3193999879;0.9472;-0.3133999876;0.9472;SIDE;-5.9260169403510562e-17;-0.1490442906;-0.6958492517;0.7025522175;25.3437759558;161.0476321526;94.1013316704;0.003842061;0.000048588;122
123;yellowsaltcube;0;0.18960002;0.9472;-0.0323999841;1.3292000084;-0.9854;1.5707963268;SIDE;0.7031912211;0.6902438555;-0.1705447932;-7.8941758036107158e-17;43.1754945011;129.5000345939;133.5813182373;0.007625652;0.000029273;123
124;yellowsaltcube;0;-0.3233999881;1.5707963268;-0.0393999844;1.5192000109;-0.9854;1.5707963268;SIDE;-0.4963232973;0.5683758767;0.4292729107;-0.4963232973;141.5296138434;3.3356444449;94.1253486421;0.004441765;0.00004186;124
125;yellowsaltcube;0;-0.9854;1.5707963268;-0.7033999931;1.5707963268;-0.1513999865;1.2042000057;SIDE;-0.4754337637;-0.4286196306;0.6034987033;0.4754337637;147.0785378469;-21.2722874385;61.2597039481;0.00896549;0.000051353;125
126;yellowsaltcube;0;-0.9854;1.5707963268;-0.7953999942;1.5707963268;-0.0863999834;0.9472;SIDE;0.7075929366;0.6978384822;-0.1110571426;-9.8063357410084633e-17;16.2439629408;148.946723597;49.1468513475;0.008796861;0.000024021;126
127;yellowsaltcube;0;-0.5403999919;0.9472;-0.3363999887;0.9472;-0.3773999907;0.9472;SIDE;0.6963243618;0.6747148721;-0.2447288799;7.9720248608100436e-17;65.3702010598;159.2730786073;53.529984395;0.003513191;0.00001598;127
128;yellowsaltcube;0;-0.3753999906;0.9472;-0.4823999924;1.121200005;-0.2793999893;0.9472;SIDE;-6.9649036433075741e-17;-0.2240834894;-0.5608544349;0.7970124796;64.1180508264;143.8476980129;-25.7432797286;0.008960286;0.000043018;128
129;yellowsaltcube;0;-0.9854;1.5707963268;-0.6513999939;1.5707963268;-0.3143999877;1.5242000111;SIDE;-0.4754337637;-0.4286196306;0.6034987033;0.4754337637;142.665343607;-25.8680685445;60.9146405232;0.010962917;0.000053013;129
130;yellowsaltcube;0;-0.5673999932;0.9952000023;-0.5933999912;1.0742000028;-0.2183999864;0.9472;SIDE;0.5053084035;-0.3309127505;0.6162982933;-0.5053084035;-158.7997070643;58.6451638107;26.2747358648;0.011728275;0.000044167;130
131;yellowsaltcube;0;-0.6943999927;0.9472;-0.4833999925;0.9472;-0.2603999884;0.9472;SIDE;1.1885300614873203e-16;0.2352257323;0.700585787;-0.673682722;63.7495059832;164.435666512;105.7887862646;0.00713176;0.000015198;131
132;yellowsaltcube;0;-0.3913999881;0.9472;0.2266000185;1.2332000071;-0.4243999897;1.5707963268;SIDE;0.5045778695;0.1177250831;0.6906107095;0.5045778695;-127.2884410495;-95.6284125114;7.0840570016;0.003521784;0.000014461;132
133;yellowsaltcube;0;-0.9854;1.5707963268;-0.1183999849;1.5547963293;-0.9023999961;1.5707963268;SIDE;-0.4922560501;-0.2763432059;0.6625725582;0.4922560501;125.783253121;-70.1414984903;48.7019775064;0.004373543;0.000065766;133
134;yellowsaltcube;0;-0.4543999911;0.9472;-0.6503999939;1.079200003;-0.184399988;0.9472;SIDE;-0.4943194361;0.6535414493;0.2901381811;-0.4943194361;151.8917390056;-78.3650554057;32.5546894759;0.0100702;0.000033916;134
135;yellowsaltcube;0;-0.9854;1.259200005;-0.8173999953;1.43320001;-0.0543999851;0.9472;SIDE;-0.4826252984;0.6436995111;0.3461164286;-0.4826252984;143.8559497544;-64.1050882937;101.5370882681;0.016801267;0.00012472;135
136;yellowsaltcube;0;-0.8143999951;0.9472;-0.5703999933;0.9472;-0.3123999876;0.9472;SIDE;0.5096885271;-0.301185066;0.6242777961;-0.5096885271;-171.7926209009;71.3022301219;86.2550596334;0.007084076;0.000022014;136
137;yellowsaltcube;0;-0.9854;1.4442000106;-0.9173999968;1.4632000082;0.0246000154;0.9472;SIDE;-0.4913201012;-0.4192418445;0.5843332886;0.4913201012;155.6117846955;-1.9825699672;116.9638015689;0.011930946;0.000060664;137
138;yellowsaltcube;0;-0.8043999947;0.9472;-0.589399991;0.9472;-0.272399989;0.9472;SIDE;-0.4826252984;0.6436995111;0.3461164286;-0.4826252984;165.724704268;-64.8613463206;102.9855464374;0.006199927;0.00001365;138
139;yellowsaltcube;0;-0.4513999909;0.9472;-0.6423999935;1.0972000039;-0.188399985;0.9472;SIDE;-0.4943194361;0.6535414493;0.2901381811;-0.4943194361;151.6256417284;-77.1086638042;32.5388742487;0.012157372;0.00006139;139
140;yellowsaltcube;0;-0.4353999902;0.9622000007;-0.3533999895;0.9472;-0.2713999889;0.9472;SIDE;0.7084761264;-0.6977401069;0.1059260195;9.7941111146789548e-17;-21.7313816136;-162.7477868555;28.8028967593;0.003367136;0.000032591;140
141;yellowsaltcube;0;-0.2783999892;0.9472;-0.2023999856;0.9472;-0.6003999915;1.099200004;SIDE;-0.4963232973;0.5683758767;0.4292729107;-0.4963232973;166.1983024894;-0.1039304854;94.4903483466;0.013437493;0.000052613;141
142;yellowsaltcube;0;-0.5573999927;1.0172000033;-0.4333999901;0.9472;-0.3173999878;0.9472;SIDE;0.5005674798;-0.5902539101;-0.387897819;0.5005674798;163.9499673096;-34.6616422903;28.9837210444;0.007127493;0.000031731;142
143;yellowsaltcube;0;-0.7153999937;0.9472;-0.5163999908;0.9472;-0.2643999886;0.9472;SIDE;0.709734016;-0.678587013;0.189201724;1.173210315034381e-16;-63.9431457073;-175.7525101696;91.272775646;0.007440915;0.00002189;143
144;yellowsaltcube;0;-0.1783999877;0.9472;-0.8713999978;1.2812000061;-0.9854;0.9852000018;SIDE;0.7139282605;0.2285290187;0.6618768212;-2.7214082990185872e-16;-153.3705610922;64.5543342907;55.1822491356;0.012910971;0.000285638;144
145;yellowsaltcube;0;-0.9854;1.5707963268;-0.7473999952;1.5707963268;-0.1023999841;0.9472;SIDE;2.7700807172450116e-16;0.152812362;0.6962103611;0.7013839998;-28.0240870599;-150.4395134744;114.3580831137;0.006588191;0.000019915;145
146;yellowsaltcube;0;-0.5533999925;1.522200011;-0.4133999891;1.4602000081;-0.8003999945;0.9472;TOP;-0.3380100909;0.2141448857;0.9164557526;-1.5142889079971027e-17;94.7108563096;-23.6978895824;240.941214379;0.004523888;0.000092005;146
147;yellowsaltcube;0;-0.50039999;1.0542000018;-0.3703999903;0.9472;-0.3433999891;0.9472;SIDE;0.5094657423;-0.3890317658;0.5740588821;-0.5094657423;-164.2629007697;25.7619466029;23.9761682515;0.006027791;0.000042041;147
148;yellowsaltcube;0;-0.9854;1.5707963268;-0.7593999958;1.5707963268;-0.0953999838;0.9472;SIDE;0.7009914577;0.6997053114;-0.137925536;-1.3858159552341413e-16;20.6412581476;147.9258847077;114.4460735462;0.007321136;0.000016569;148
149;yellowsaltcube;0;-0.6003999915;1.0042000027;-0.4543999911;0.9472;-0.2813999894;0.9472;SIDE;2.71930169732306e-16;0.1211853375;0.6890794898;0.7144813299;-26.9202756509;-174.7516442869;46.3118448942;0.007928756;0.000059673;149
150;yellowsaltcube;0;-0.9854;1.5707963268;-0.963399999;1.5707963268;-0.0023999826;0.9472;SIDE;0.7175924225;-0.6628255096;0.2138304444;0;-57.7815878202;-136.8601820363;25.8995934473;0.008033399;0.00001764;150
151;yellowsaltcube;0;-0.6493999938;0.9472;-0.5743999935;0.9472;-0.2633999885;0.9472;SIDE;0.498585481;0.5864570562;0.3986140459;0.498585481;-177.322807428;22.4579993902;113.2643912845;0.005899723;0.000011718;151
152;yellowsaltcube;0;-0.5733999935;0.9472;-0.522399991;1.0372000043;-0.2243999867;0.9472;SIDE;0.7175924225;-0.6628255096;0.2138304444;0;-65.3985036305;-160.4708803115;25.1580272028;0.008492118;0.000025532;152
153;yellowsaltcube;0;-0.8343999961;0.9472;-0.5883999909;0.9472;-0.3023999871;0.9472;SIDE;0.5096885271;-0.301185066;0.6242777961;-0.5096885271;-172.3002133483;73.1830661029;86.2120170943;0.007113629;0.000025262;153
154;yellowsaltcube;0;-0.9854;1.5707963268;-0.2433999876;1.5707963268;-0.8093999949;1.5707963268;SIDE;0.5048235143;0.6296120074;0.3064231698;0.5048235143;-133.9022187068;57.8324171023;55.5816238682;0.000007375;0.000029253;154
155;yellowsaltcube;0;-0.9854;1.5362000117;-0.9283999973;1.5497963291;0.100600019;0.9472;SIDE;-0.4940524269;-0.4658913693;0.5429269113;0.4940524269;153.4723831819;9.8108651997;52.3064805658;0.001316522;0.000068012;155
156;yellowsaltcube;0;-0.4823999924;0.9472;-0.5793999938;1.1762000044;-0.2263999868;0.9472;SIDE;0.7095317764;-0.6431142391;0.2880429374;7.8236314533789837e-17;-85.2382823568;-151.7652155943;28.3592080507;0.011159083;0.00003514;156
157;yellowsaltcube;0;-0.8583999972;1.5707963268;-0.9854;1.5707963268;0.0336000158;0.9472;SIDE;0.7095317764;-0.6431142391;0.2880429374;1.1735447180068475e-16;-75.0562891151;-129.0318519686;28.5303567763;0.006416313;0.000011508;157
158;yellowsaltcube;0;-0.5033999901;1.0752000028;-0.3543999896;0.9472;-0.3473999893;0.9472;SIDE;0.5005674798;-0.5902539101;-0.387897819;0.5005674798;161.6950748407;-28.7784369371;28.9914431496;0.005986975;0.000038493;158
159;yellowsaltcube;0;-0.3473999893;0.9472;-0.9854;1.1352000057;-0.8083999949;1.1022000041;SIDE;5.9361932107400643e-17;0.7013478495;-0.1317917572;0.70052989;-168.8638694634;20.4857924014;75.043106217;0.013557775;0.000206265;159
160;yellowsaltcube;0;-0.6483999938;0.9922000021;-0.5443999921;0.9472;-0.2483999878;0.9472;SIDE;0.5034499343;0.5540345823;0.4314186005;0.5034499343;-174.064514212;12.3300971376;47.2821827814;0.010252373;0.00008084;160
161;yellowsaltcube;0;-0.299399987;0.9472;-0.36239999;0.9472;-0.9854;1.5707963268;SIDE;0.7070858362;-0.0032414832;-0.0069809183;0.7070858362;-0.4513411633;20.0923187295;-119.3436680131;0.001831457;0.000029528;161
162;yellowsaltcube;0;-0.9854;0.9472;-0.4443999906;0.9472;-0.5403999919;0.9472;SIDE;2.745773489713665e-16;0.4821698054;0.51655041;0.70759307;-133.8571954318;-137.3510743301;49.0979624476;0.000189611;0.000027568;162
163;yellowsaltcube;0;-0.5863999908;0.9472;-0.4863999893;0.9472;-0.2633999885;0.9472;SIDE;2.7700807172450116e-16;0.152812362;0.6962103611;0.7013839998;-33.3638019169;-174.7671579162;114.7596564711;0.005514356;0.000008074;163
164;yellowsaltcube;0;-0.6353999932;0.9982000024;-0.5123999906;0.9472;-0.3093999874;0.9472;SIDE;-0.4754337637;-0.4286196306;0.6034987033;0.4754337637;171.5254063488;-25.4144924095;63.647350997;0.009241602;0.00007618;164
165;yellowsaltcube;0;-0.6143999922;1.0002000025;-0.5123999906;0.9472;-0.2893999865;0.9472;SIDE;0.498585481;0.5864570562;0.3986140459;0.498585481;-172.8942910062;26.9968225024;113.2446160291;0.008068823;0.000046474;165
166;yellowsaltcube;0;-0.9854;1.5707963268;-0.5723999934;1.5707963268;-0.3913999881;1.1082000044;SIDE;0.70759307;-0.51655041;0.4821698054;7.8450671134676166e-17;-110.2475384648;-112.0579559151;49.1455687749;0.002408579;0.000046189;166
167;yellowsaltcube;0;-0.4193999894;0.9472;-0.6713999949;0.9472;-0.5883999909;0.9472;SIDE;0.5003438581;-0.0243107586;0.7062018368;0.5003438581;-128.4051388231;-131.5102646309;49.1089559318;0.007671703;0.000023093;167
168;yellowsaltcube;0;-0.9854;1.5707963268;-0.790399994;1.5707963268;-0.1583999868;1.3732000072;SIDE;0.498585481;0.5864570562;0.3986140459;0.498585481;-148.5139947188;22.3477487087;113.1043812272;0.008554903;0.00002569;168
169;yellowsaltcube;0;-0.473399992;0.9512000002;-0.6003999915;1.168200004;-0.2113999861;0.9472;SIDE;0.5064981821;-0.2770895537;0.640422175;-0.5064981821;-151.174941673;70.547999999;25.6768146129;0.014369544;0.000063584;169
170;yellowsaltcube;0;-0.3793999908;0.9472;-0.6863999923;0.9472;-0.9323999975;0.9472;SIDE;1.3627096361974676e-16;0.68814442;-0.1351399806;0.7128775792;-221.3784615516;31.9358649348;89.2100281605;0.003399746;0.000049708;170
171;yellowsaltcube;0;-0.5973999913;1.0642000023;-0.4503999909;0.9472;-0.3383999888;0.9472;SIDE;-0.4754337637;-0.4286196306;0.6034987033;0.4754337637;167.1122121088;-30.0102735155;63.3022875722;0.007276137;0.00004113;171
172;yellowsaltcube;0;-0.5753999936;1.0122000031;-0.4683999917;0.9472;-0.2683999888;0.9472;SIDE;0.7075929366;0.6978384822;-0.1110571426;-9.8063357410084645e-17;20.1589804404;173.5471212346;49.1125869513;0.012143009;0.000078368;172
173;yellowsaltcube;0;-0.3523999895;0.9472;-0.9553999986;1.1712000041;-0.9854;1.369200007;SIDE;0.5193075163;0.3997816599;-0.5484651597;0.5193075163;18.640555646;165.7605912817;61.803226556;0.015685191;0.000187801;173
174;yellowsaltcube;0;-0.1683999873;0.9472;-0.3313999885;1.4732000087;-0.9073999963;0.9472;SIDE;0.7135808663;-0.4050913113;0.5715797205;7.7792376247502978e-17;-133.5696131895;-100.0800194657;6.942413161;0.004640753;0.000049393;174
175;yellowsaltcube;0;-0.4033999887;0.9472;-0.3783999907;0.9472;-0.2483999878;0.9472;SIDE;1.0731159522830094e-16;-0.0589028421;-0.700443625;0.7112729317;8.6599256343;161.9901950456;27.7799346202;0.001085704;0.000006634;175
176;yellowsaltcube;0;-0.4763999921;1.279200006;-0.2913999866;1.0802000031;-0.4643999916;1.2342000071;SIDE;0.5094657423;-0.3890317658;0.5740588821;-0.5094657423;-157.9990476762;19.172411179;24.2590063969;0.019155749;0.000090489;176
177;yellowsaltcube;0;-0.9854;1.5707963268;-0.5383999918;1.2292000069;-0.4123999891;0.9772000014;TOP;-2.7796811997253334e-17;0.967312866;-0.2532559576;0.0129321029;-4.8686516337;-5.0269979905;252.6542386488;0.014731985;0.000151617;177
178;yellowsaltcube;0;1.0326000307;1.5707963268;-0.9854;1.5707963268;-0.3393999889;0.9472;SIDE;0.706920834;-0.0185938135;-0.0134215896;0.706920834;-17.3090103154;-6.6149663918;-121.0900198134;0.000014676;0.000000199;178
179;yellowsaltcube;0;-0.4833999925;0.9472;-0.3083999874;0.9472;-0.384399991;0.9472;SIDE;0.6880330017;0.6895855717;-0.2260139991;-3.6306424242739241e-16;60.216308535;157.2329537902;79.6681018235;0.004466143;0.000023516;179
180;yellowsaltcube;0;-0.6823999954;1.5707963268;-0.9854;1.5707963268;0.011600018;1.3642000068;SIDE;-0.4943194361;0.6535414493;0.2901381811;-0.4943194361;128.651746119;-69.4155251859;31.9918933559;0.008319787;0.000036612;180
181;yellowsaltcube;0;-0.9854;1.5707963268;-0.4423999905;0.9472;-0.3073999874;0.9472;TOP;-0.0013593138;0.9273499791;-0.3741902201;0.0013593138;-2.6283210356;19.2690907489;273.1254467521;0.011209826;0.00004327;181
182;yellowsaltcube;0;-0.6133999921;0.9822000017;-0.5073999903;0.9472;-0.2943999867;0.9472;SIDE;-0.4808521172;-0.3992420459;0.6149538776;0.4808521172;165.8178212344;-31.2614728984;123.5400628523;0.008763548;0.000039944;182
183;yellowsaltcube;0;-0.6933999927;1.5707963268;-0.9854;1.5707963268;-0.0053999828;1.4042000087;SIDE;-0.4943194361;0.6535414493;0.2901381811;-0.4943194361;128.3856488418;-68.1591335843;31.9760781288;0.008208826;0.000027513;183
184;yellowsaltcube;0;-0.9854;1.5707963268;-0.7803999968;1.5707963268;-0.1903999851;1.3842000077;SIDE;-0.4808521172;-0.3992420459;0.6149538776;0.4808521172;141.5216904681;-26.0938689363;121.6686999582;0.012115509;0.000038816;184
185;yellowsaltcube;0;-0.8723999979;0.9472;-0.652399994;0.9472;-0.2393999874;0.9472;SIDE;-0.4826252984;0.6436995111;0.3461164286;-0.4826252984;167.6554725778;-71.2602926907;103.2382241867;0.006828709;0.000020375;185
186;yellowsaltcube;0;-0.5613999929;0.9952000023;-0.4673999917;0.9472;-0.273399989;0.9472;SIDE;0.7009914577;0.6997053114;-0.137925536;-1.3858159552341413e-16;25.4580860406;172.3619692764;114.8750723828;0.008220151;0.000036315;186
187;yellowsaltcube;0;-0.4583999913;0.989200002;-0.2143999862;0.9472;-0.5933999912;1.141200006;SIDE;-0.4908197988;-0.3228089535;0.6434176169;0.4908197988;150.138886403;-69.8879152401;77.5186885659;0.015741393;0.000172946;187
188;yellowsaltcube;0;-0.4383999903;0.9642000008;-0.3773999907;0.9472;-0.3083999874;0.9472;SIDE;1.7006821204090531e-16;-0.105135111;-0.6705117564;0.7344117326;18.4413474002;164.4901168468;61.9047769377;0.004383687;0.000039039;188
189;yellowsaltcube;0;-0.5543999926;1.0302000039;-0.389399988;0.9472;-0.3763999906;0.9472;SIDE;0.5125370514;-0.3799338273;0.5746841122;-0.5125370514;-168.5586166897;28.0694948049;65.1377232143;0.012796891;0.000079078;189
190;yellowsaltcube;0;-0.5733999935;1.0522000017;-0.4353999902;0.9472;-0.3233999881;0.9472;SIDE;-0.4808521172;-0.3992420459;0.6149538776;0.4808521172;161.2992623335;-35.7298082201;123.2771254807;0.008829034;0.000038683;190
191;yellowsaltcube;0;-0.5073999903;0.9972000024;-0.2773999892;0.9472;-0.4963999898;1.0182000034;SIDE;0.5018007734;0.6234213282;0.3282343907;0.5018007734;-157.8207670129;62.0252185877;71.3937037996;0.011018548;0.000135811;191
192;yellowsaltcube;0;-0.5043999902;1.031200004;-0.2393999874;0.9472;-0.5553999926;1.1162000048;SIDE;-0.4908197988;-0.3228089535;0.6434176169;0.4908197988;150.9930928451;-67.630908547;77.5223269362;0.010808532;0.000137921;192
193;yellowsaltcube;0;-0.5153999907;0.989200002;-0.2883999865;0.9472;-0.4803999923;0.9922000021;SIDE;0.5018007734;0.6234213282;0.3282343907;0.5018007734;-158.507199131;61.4999026376;71.390095767;0.012675314;0.000168585;193
194;yellowsaltcube;0;-0.9854;1.5442000121;-0.8803999983;1.5707963268;-0.0073999829;1.0412000045;SIDE;-0.4727614921;0.6326624846;0.3908085514;-0.4727614921;140.1351699608;-45.6847360333;125.8096622422;0.014203563;0.000138351;194
195;yellowsaltcube;0;-0.5053999902;0.9472;-0.901399996;0.9472;-0.7563999956;0.9472;SIDE;0.6860739399;-0.1680098316;-0.7078666862;-8.0911324572297922e-17;186.0722021836;-39.0141629964;82.1952463078;0.006926749;0.000044863;195
196;yellowsaltcube;0;-0.3253999882;0.9472;-0.7343999946;0.9472;-0.9653999991;0.9472;SIDE;0.7139282605;0.2285290187;0.6618768212;-2.7214082990185872e-16;-176.912133612;72.6826329321;54.6993159178;0.005487331;0.00004072;196
197;yellowsaltcube;0;-0.3393999889;0.9622000007;-0.231399987;0.9472;-0.4383999903;1.0852000033;SIDE;0.7002736292;0.6907331866;-0.1802900695;-5.1525927576796028e-16;50.499737143;152.5348412885;114.9028946673;0.013666778;0.000085771;197
198;yellowsaltcube;0;-0.9854;1.5707963268;-0.5953999913;1.5707963268;-0.5393999919;1.5707963268;SIDE;0.5125370514;-0.3799338273;0.5746841122;-0.5125370514;-144.1828333665;23.0966249771;66.4025761937;0.003483198;0.000021266;198
199;yellowsaltcube;0;-0.3253999882;0.9472;-0.210399986;0.9472;-0.5093999904;0.9472;SIDE;3.336920317491605e-16;0.1585326371;0.6892092519;0.707006372;-62.5585533806;-162.7542205547;112.4539829242;0.004075886;0.000006703;199
200;yellowsaltcube;0;-0.4973999899;0.9492000001;-0.2693999888;0.9472;-0.4143999892;1.0002000025;SIDE;1.9572267576437966e-16;0.2147870423;0.6716468154;0.7090536522;-63.6481307145;-156.1493876873;71.6740545994;0.010093262;0.000097177;200
201;yellowsaltcube;0;-0.2033999857;1.1552000034;-0.0063999828;0.9472;-0.9854;1.5707963268;SIDE;3.336920317491605e-16;0.1585326371;0.6892092519;0.707006372;-56.974549196;-138.4781634773;112.4469089849;0.00825027;0.000041596;201
202;yellowsaltcube;0;-0.4913999896;1.0912000036;-0.2763999891;0.9472;-0.4443999906;1.1372000058;SIDE;0.4953494356;-0.4027369751;0.5891186655;-0.4953494356;-163.0761762827;19.3982147393;74.9340484531;0.012755568;0.000084587;202
203;yellowsaltcube;2.2204460492503141e-16;-0.1223999851;0.9472;-0.9854;1.1672000039;-0.8723999979;1.1512000032;SIDE;0.5013766457;-0.3230486436;0.6268033919;0.5013766457;-65.7132583972;-162.6071163125;71.636668567;0.015441682;0.000265154;203
204;yellowsaltcube;0;-0.3663999902;0.9472;-0.2353999872;0.9472;-0.43139999;1.0632000023;SIDE;2.9893100833053635e-16;0.1775751643;0.6963707722;0.695366672;-54.9755536739;-153.9744602605;116.7081772972;0.010714396;0.000037094;204
205;yellowsaltcube;0;-0.9854;1.4412000104;-0.7773999966;1.4952000097;-0.0503999849;0.9472;SIDE;0.5023997995;-0.3401474402;0.6160264619;-0.5023997995;-149.5855709471;55.8005765385;111.1526766393;0.014219372;0.00011409;205
206;yellowsaltcube;2.2204460492503131e-16;-0.6273999928;0.9592000006;-0.4713999919;0.9472;-0.3473999893;0.9472;SIDE;-0.4851275353;-0.3817364428;0.6193382253;0.4851275353;167.5502240106;-40.1050654774;81.1520755365;0.009712854;0.000073925;206
207;yellowsaltcube;0;-0.7733999964;0.9472;-0.7113999935;0.9472;-0.1723999875;0.9472;SIDE;-0.4913201012;-0.4192418445;0.5843332886;0.4913201012;180.1768626983;-6.0236069229;117.8211597432;0.007788629;0.00002109;207
208;yellowsaltcube;0;-0.0083999829;0.9472;-0.9854;1.2092000059;-0.9053999962;1.1612000036;SIDE;1.9993239659563372e-16;-0.6832253601;0.2267045601;0.6941240161;149.6551592352;-69.7274072128;77.5001329103;0.014619233;0.00023137;208
209;yellowsaltcube;0;-0.9854;1.5707963268;-0.7343999946;1.5172000108;-0.1123999846;0.9472;SIDE;0.695366672;-0.6963707722;0.1775751643;-5.9872532143980109e-17;-53.9605494577;-149.9940654091;116.572833445;0.014253528;0.000093661;209
210;yellowsaltcube;0;-0.9854;1.5707963268;-0.6553999941;1.5707963268;-0.6813999953;1.5707963268;SIDE;-0.4851275353;0.6193382253;0.3817364428;-0.4851275353;136.5263021671;-27.2546064561;79.2058002207;0.00000177;0.000013555;210
211;yellowsaltcube;0;1.0326000307;1.5707963268;-0.9854;1.5042000102;-0.2483999878;0.9472;TOP;-8.3112493929122976e-17;0.9966377143;0.0776284984;0.0262122624;-29.6107829727;-26.2650707585;275.2520274355;0.004151622;0.000032759;211
212;yellowsaltcube;0;-0.9854;1.5707963268;-0.7513999954;1.5707963268;-0.1013999841;0.9472;SIDE;4.1184586806855605e-16;0.0964394419;0.699973195;0.707627699;-18.1282795152;-149.5133260229;72.241768748;0.00983571;0.000027334;212
213;yellowsaltcube;0;-0.4243999897;1.0292000039;-0.2503999879;0.9472;-0.521399991;1.1452000061;SIDE;0.5023997995;0.6160264619;0.3401474402;0.5023997995;-156.3205202063;57.7437703539;111.0852247811;0.015731343;0.000115854;213
214;yellowsaltcube;0;-0.5353999917;1.0512000017;-0.9854;1.5707963268;-0.3723999904;0.9472;SIDE;0.7070959459;-0.003402146;-0.0043671595;0.7070959459;-0.8889763646;-5.5727380264;-116.9716866879;0.004415947;0.000098972;214
215;yellowsaltcube;0;-0.9243999971;1.5707963268;-0.9854;1.5707963268;-0.0713999859;1.5072000103;SIDE;0.5053084035;-0.3309127505;0.6162982933;-0.5053084035;-134.9541761155;51.4607355497;26.8064729562;0.008195571;0.000024674;215
216;yellowsaltcube;0;-0.6823999954;0.9472;-0.5353999917;0.9472;-0.3153999877;0.9472;SIDE;-0.4851275353;-0.3817364428;0.6193382253;0.4851275353;172.3769033675;-35.7636288309;81.3689144127;0.008689989;0.000021498;216
217;yellowsaltcube;0;-0.589399991;1.0602000021;-0.4443999906;0.9472;-0.2853999863;0.9472;SIDE;4.11845868068556e-16;0.0964394419;0.699973195;0.707627699;-21.5281567535;-174.1901894125;72.2050533813;0.008175077;0.000070992;217
218;yellowsaltcube;0;-0.9854;1.5707963268;-0.7323999945;1.5707963268;-0.4223999896;1.5707963268;SIDE;-0.4851275353;0.6193382253;0.3817364428;-0.4851275353;138.6929672099;-33.2558904128;79.4109180765;0.003266229;0.00002163;218
219;yellowsaltcube;0;-0.9503999983;1.5707963268;-0.4493999908;1.5547963293;-0.4293999899;1.5707963268;SIDE;1.7006821204090528e-16;-0.105135111;-0.6705117564;0.7344117326;14.594622692;139.9571695162;63.8657216823;0.008212333;0.000072507;219
220;yellowsaltcube;0;-0.9854;1.5707963268;-0.6353999932;1.5707963268;-0.3183999879;1.4302000099;SIDE;-0.4851275353;-0.3817364428;0.6193382253;0.4851275353;143.3551964931;-34.3624552111;79.6922225453;0.018558641;0.000129221;220
221;yellowsaltcube;0;-0.6123999921;1.5707963268;0.32760002;1.5707963268;-0.7333999945;1.5707963268;SIDE;0.5045778695;0.1177250831;0.6906107095;0.5045778695;-106.9684397498;-81.2271738444;7.5422840589;0.00684156;0.000030744;221
222;yellowsaltcube;0;-0.274399989;0.9472;-0.1963999853;0.9472;-0.5883999909;1.1222000051;SIDE;-0.4885844776;0.5644650923;0.4516077679;-0.4885844776;165.7569118458;3.9896391461;78.7473142691;0.016076901;0.000097743;222
223;yellowsaltcube;0;-0.8723999979;0.9472;-0.6543999941;0.9472;-0.2483999878;0.9472;SIDE;-0.4941428537;0.6290004205;0.3405938217;-0.4941428537;170.5772210771;-71.8784489925;116.1849266879;0.006452732;0.000025831;223
224;yellowsaltcube;0;-0.1043999842;0.9472;-0.4493999908;1.4882000094;-0.8073999948;0.9472;SIDE;0;-0.3499794813;0.0927899141;0.9321504141;97.2308599233;-46.7850739506;-88.0592014181;0.003152026;0.000063374;224
225;yellowsaltcube;0;-0.9854;1.5707963268;-0.7753999965;1.5637963297;-0.0973999839;0.9472;SIDE;-9.9088322263069305e-17;-0.1802900695;-0.6907331866;0.7002736292;49.3861912986;148.2685881791;114.8180741126;0.011956605;0.000078304;225
226;yellowsaltcube;0;-0.652399994;0.9472;-0.5143999907;0.9472;-0.2893999865;0.9472;SIDE;0.5125370514;0.5746841122;0.3799338273;0.5125370514;-172.570688545;28.8879920327;64.929537862;0.007704658;0.000045145;226
227;yellowsaltcube;0;-0.811399995;0.9472;1.0986000338;1.5707963268;-0.2163999863;0.9472;TOP;0.0099037978;-0.5324091059;0.8463712977;-0.0099037978;13.4068101265;20.4682254841;307.1060220652;0.000762928;0.000002689;227
228;yellowsaltcube;0;-0.5753999936;1.0692000025;-0.3463999892;0.9472;-0.36239999;0.9472;SIDE;-0.4851275353;0.6193382253;0.3817364428;-0.4851275353;160.7213296846;-32.9972167224;80.6656532119;0.009473068;0.000066389;228
229;yellowsaltcube;0;-0.9854;1.5707963268;-0.7363999947;1.5707963268;-0.6403999934;1.5707963268;SIDE;-0.4808521172;0.6149538776;0.3992420459;-0.4808521172;135.6695513363;-24.8491630341;121.2179501608;0.000002061;0.000017704;229
230;yellowsaltcube;0;-0.6913999926;0.9472;-0.5793999938;0.9472;-0.2833999895;0.9472;SIDE;0.4953494356;0.5891186655;0.4027369751;0.4953494356;-180.1739436173;22.6110923478;75.2562224549;0.006155938;0.000012387;230
231;yellowsaltcube;0;-0.9854;1.2562000049;-0.7823999969;1.3352000087;-0.0893999835;0.9472;SIDE;-0.4941428537;0.6290004205;0.3405938217;-0.4941428537;146.7075590428;-64.7783985355;115.6047388929;0.016967892;0.000120085;231
232;yellowsaltcube;0;-0.4943999897;1.2722000057;-0.2673999887;0.9472;-0.4833999925;1.1722000042;SIDE;-0.4727614921;-0.3908085514;0.6326624846;0.4727614921;149.5316857769;-47.9052036665;126.8387890175;0.013396649;0.000090022;232
233;yellowsaltcube;0;-0.4643999916;0.9472;-0.3593999898;0.9472;-0.2863999864;0.9472;SIDE;0.707627699;-0.699973195;0.0964394419;1.9611708003264572e-17;-20.1905895955;-164.481908872;72.2194978054;0.007966496;0.000034992;233
234;yellowsaltcube;4.4408920985006252e-16;-0.9854;1.5707963268;-0.6913999926;1.5412000119;-0.1513999865;1.0652000023;SIDE;-0.4851275353;-0.3817364428;0.6193382253;0.4851275353;148.1818758499;-30.0210185646;79.9090614215;0.018517815;0.000114421;234
235;yellowsaltcube;0;-0.1733999875;0.9472;-0.8763999981;0.9472;-0.8103999949;0.9472;SIDE;1.5994591727650697e-16;-0.6832253601;0.2267045601;0.6941240161;173.2819520154;-77.5671362033;78.4064508893;0.007226294;0.000051245;235
236;yellowsaltcube;0;-0.1923999852;1.5707963268;-0.1663999872;1.5707963268;-0.9854;1.5707963268;SIDE;0.501911333;-0.5194908109;-0.4757092861;0.501911333;137.1646329977;14.6412643381;28.4678300745;0.001103039;0.000007411;236
237;yellowsaltcube;0;-0.7113999935;1.0972000039;-0.9854;1.5707963268;-0.4233999896;1.5452000121;TOP;-0.2390092274;0.7994553781;0.4966087765;-0.2390092274;81.0747234753;-20.5115839713;223.9605348561;0.015505636;0.000144558;237
238;yellowsaltcube;0;-0.9854;1.5707963268;-0.2493999879;1.5707963268;-0.8373999962;1.5707963268;SIDE;0.5018007734;0.6234213282;0.3282343907;0.5018007734;-134.7160778281;54.1203134685;71.5698479376;0.000002052;0.000026337;238
239;yellowsaltcube;0;-0.6483999938;0.9472;-0.4713999919;1.2712000056;-0.320399988;0.9472;TOP;-0.2390092274;0.7994553781;0.4966087765;-0.2390092274;96.507529253;-24.1177116207;243.1785589274;0.013471113;0.000068185;239
240;yellowsaltcube;0;-0.6143999922;0.9722000012;-0.4433999906;0.9472;-0.3123999876;0.9472;SIDE;-0.4808521172;0.6149538776;0.3992420459;-0.4808521172;162.2746185905;-35.9372591475;123.3522504265;0.006662279;0.000085071;240
241;yellowsaltcube;0;-0.7273999943;0.9472;-0.3993999885;0.9472;-0.4913999896;0.9702000011;SIDE;1.1723040433936854e-16;0.4571744618;0.5352476184;0.7102826892;-124.5033672575;-135.6035839698;91.1131222611;0.007554245;0.000031215;241
242;yellowsaltcube;0;-0.3113999875;0.9472;1.0986000338;1.5707963268;-0.5873999909;1.0342000041;SIDE;-0.4981139025;0.5989280196;0.3808547066;-0.4981139025;166.2367089868;-12.1045088382;133.5081876578;0.003665003;0.000018248;242
243;yellowsaltcube;0;-0.7503999954;0.9472;-0.7073999933;0.9472;-0.1563999867;0.9472;SIDE;-0.4940524269;-0.4658913693;0.5429269113;0.4940524269;178.3031255306;7.914736102;52.8955721215;0.008408482;0.000021919;243
244;yellowsaltcube;0;-0.4843999925;1.2382000073;1.0986000338;1.5707963268;-0.5183999909;1.1662000039;SIDE;-0.470385555;-0.3355440387;0.6669970445;0.470385555;147.9819344491;-70.5439932812;25.1711107179;0.007653884;0.000037844;244
245;yellowsaltcube;0;-0.7783999967;0.9472;-0.9854;1.5707963268;-0.1243999852;0.9472;TOP;0.2690159897;-0.4903406054;0.7841089754;-0.2690159897;-101.5446081748;37.6195805556;224.8488477717;0.01130413;0.000068822;245
246;yellowsaltcube;0;-0.3593999898;0.9472;-0.2233999866;0.9472;-0.589399991;1.099200004;SIDE;-0.4941428537;-0.3405938217;0.6290004205;0.4941428537;152.17908683;-66.4059089423;115.7377325497;0.012123501;0.000048021;246
247;yellowsaltcube;0;-0.9854;1.3322000085;1.0986000338;1.5707963268;-0.2153999862;0.9472;TOP;0.0099037978;-0.5324091059;0.8463712977;-0.0099037978;14.0871103125;20.3133142764;282.2057952756;0.005641101;0.000035014;247
248;yellowsaltcube;0;-0.8463999967;0.9472;-0.6033999916;0.9472;-0.2873999864;0.9472;SIDE;0.507294323;-0.308523395;0.624594472;-0.507294323;-173.20753285;73.3350196175;107.7439651517;0.007826479;0.000036004;248
249;yellowsaltcube;0;-0.9854;1.5042000102;1.0986000338;1.5707963268;0.0536000168;0.9472;SIDE;-0.4835773952;-0.4692239427;0.5586901621;0.4835773952;157.0264762101;8.2488952591;17.6810682609;0.001292102;0.000018234;249
250;yellowsaltcube;0;-0.6183999923;0.9982000024;-0.4263999897;0.9472;-0.3313999885;0.9472;SIDE;-0.4851275353;0.6193382253;0.3817364428;-0.4851275353;162.8879947274;-38.9985006791;80.8707710677;0.006209274;0.000069122;250
251;yellowsaltcube;0;-0.4003999885;0.9472;-0.231399987;0.9472;-0.563399993;1.1502000031;SIDE;0.507294323;0.624594472;0.308523395;0.507294323;-154.5569356764;67.0175815502;108.3229505431;0.014050846;0.000060802;251
252;yellowsaltcube;0;-0.9854;1.3302000084;-0.742399995;1.3762000073;-0.1103999845;0.9472;SIDE;0.507294323;-0.308523395;0.624594472;-0.507294323;-149.7096745616;65.3756892502;108.4734279433;0.015259987;0.000109762;252
253;yellowsaltcube;0;-0.8003999945;1.5707963268;-0.1683999873;1.5707963268;-0.9854;1.5707963268;SIDE;0.507294323;0.624594472;0.308523395;0.507294323;-130.9738716167;59.0293897915;109.0550584456;0.006383341;0.000015548;253
254;yellowsaltcube;0;-0.9854;1.5707963268;-0.3163999878;0.9472;-0.3443999891;1.0462000047;SIDE;0.6217389411;0.7206750346;-0.3067053694;-2.2320924251205756e-16;66.9818626099;143.4775382515;58.5507906494;0.011098057;0.000054325;254
255;yellowsaltcube;0;-0.9854;1.5707963268;-0.7803999968;1.5707963268;-0.162399987;1.3712000071;SIDE;0.5125370514;0.5746841122;0.3799338273;0.5125370514;-148.1949052218;23.915122205;66.1943908413;0.010354642;0.000042273;255
256;yellowsaltcube;0;-0.8523999969;1.5707963268;-0.9854;1.5707963268;-0.120399985;1.5707963268;SIDE;0.5064981821;-0.2770895537;0.640422175;-0.5064981821;-128.0226897832;61.3797593067;26.3285009174;0.007941904;0.000016868;256
257;yellowsaltcube;0;1.0326000307;1.5707963268;-0.9854;1.5707963268;-0.5943999912;1.3612000066;SIDE;0.707057463;0.0068223892;-0.0096406926;-0.707057463;20.4235128744;-6.1771272937;-111.1433766124;0.003552839;0.000021042;257
258;yellowsaltcube;2.2204460492503131e-16;-0.5703999933;1.0422000045;-0.3643999901;0.9472;-0.341399989;0.9472;SIDE;-0.4808521172;0.6149538776;0.3992420459;-0.4808521172;159.9656821025;-30.0167669962;123.0893130549;0.011527658;0.00009776;258
259;yellowsaltcube;0;-0.9854;1.5707963268;-0.8243999956;1.5707963268;-0.0253999837;1.0942000037;SIDE;0.498585481;0.5864570562;0.3986140459;0.498585481;-152.8541055538;17.7920675529;113.123647976;0.007706052;0.00002135;259
260;yellowsaltcube;0;-0.320399988;0.9472;-0.9854;1.1562000034;-0.8643999975;1.2072000058;SIDE;0.5003683445;-0.5631487761;-0.4267628095;-0.5003683445;-21.0750218645;-170.9012624982;72.2099467973;0.013840543;0.000189774;260
261;yellowsaltcube;0;-0.3733999905;0.9472;-0.8953999957;0.9472;-0.7523999955;0.9472;SIDE;0.5003683445;-0.5631487761;-0.4267628095;-0.5003683445;-24.4626153231;-195.4889682119;72.1733640834;0.003277176;0.000049724;261
262;yellowsaltcube;0;-0.1923999852;0.9472;-0.8873999953;0.9472;-0.7933999941;0.9472;SIDE;0.5013766457;-0.3230486436;0.6268033919;0.5013766457;-73.273208845;-186.2473535817;71.4998070282;0.000562931;0.000052605;262
263;yellowsaltcube;0;-0.4253999897;0.9472;1.0986000338;1.5707963268;-0.4573999912;0.9472;TOP;-5.515842353851635e-17;0.9749449731;-0.2220047948;0.0140060851;14.2561612482;20.2748196749;276.018222903;0.000170981;0.000000305;263
264;yellowsaltcube;0;-0.390399988;0.9472;-0.8933999956;0.9472;-0.7543999955;0.9472;SIDE;7.9149242809867524e-17;0.7013478495;-0.1317917572;0.70052989;-193.3411893315;25.0853773286;75.5043334604;0.006949658;0.000045674;264
265;yellowsaltcube;0;-0.5383999918;0.9472;-0.2253999867;0.9472;-0.5373999918;1.1872000049;SIDE;1.9559078633447462e-16;0.2880429374;0.6431142391;0.7095317764;-83.5215271996;-147.9322117494;28.3880649209;0.010863451;0.000085854;265
266;yellowsaltcube;0;-0.9854;1.5707963268;-0.542399992;1.2242000066;-0.3853999878;0.9472;TOP;-2.6900140642503227e-17;0.967312866;-0.2532559576;0.0129321029;-5.0562924795;0.2165427283;260.1176940867;0.010098292;0.000056719;266
267;yellowsaltcube;0;-0.5683999932;0.9472;1.0986000338;1.5707963268;-0.4013999886;0.9472;SIDE;0.4981898212;0.6469234637;0.291725618;0.4981898212;-156.88749676;70.7438529364;10.3553298653;0.000029041;0.000000119;267
268;yellowsaltcube;0;-0.9854;1.5707963268;-0.9563999986;1.5707963268;-0.0133999832;0.9472;SIDE;0.7344117326;0.6705117564;-0.105135111;-1.1337880802727019e-16;15.3049773089;144.4875411246;63.5036042295;0.008324206;0.000043219;268
269;yellowsaltcube;0;-0.9854;1.4622000082;-0.8883999954;1.43320001;0.0316000157;0.9472;SIDE;-0.4885844776;-0.4516077679;0.5644650923;0.4885844776;156.6125347544;5.0053241153;78.3315672118;0.010564041;0.000086238;269
270;yellowsaltcube;0;-0.7613999959;0.9472;-0.611399992;0.9582000005;-0.2463999877;0.9472;TOP;0.2690159897;-0.4903406054;0.7841089754;-0.2690159897;-118.5635489039;41.5425497747;242.4839936164;0.017950097;0.00012959;270
271;yellowsaltcube;0;-0.5523999925;1.0242000037;-0.3733999905;0.9472;-0.3493999893;0.9472;SIDE;0.498585481;-0.3986140459;0.5864570562;-0.498585481;-167.3934989118;25.9478775647;113.2129756224;0.012632599;0.000079214;271
272;yellowsaltcube;0;-0.9854;1.5707963268;-0.299399987;1.1732000042;-0.031399984;0.9472;SIDE;2.2164940093597895e-16;0.1307537556;0.6468352003;0.7513372605;-24.5711731231;-143.950161722;-5.3984113447;0.00976465;0.000043692;272
273;yellowsaltcube;0;-0.5823999939;1.0422000045;1.0986000338;1.5707963268;-0.3693999903;0.9472;SIDE;0.5119887054;-0.585357399;-0.3648175523;0.5119887054;165.7083240765;-34.3444073375;125.1491535378;0.002529596;0.000014637;273
274;yellowsaltcube;0;0.0876000184;0.9472;-0.099399984;1.3842000077;-0.9203999969;1.5707963268;SIDE;1.3490433930427873e-16;0.1851367929;0.7200992582;0.6687162525;-48.4712391433;-127.548629197;143.3781349419;0.019184217;0.000075517;274
275;yellowsaltcube;0;-0.9854;1.5707963268;1.0986000338;1.5707963268;-0.4133999891;1.5497963291;SIDE;0.5119887054;-0.585357399;-0.3648175523;0.5119887054;141.4719481057;-28.7190363118;126.3580293065;0.000397988;0.000012619;275
276;yellowsaltcube;0;-0.0653999856;0.9472;-0.9854;1.2092000059;-0.9053999962;1.1622000037;SIDE;1.1995943795738023e-16;-0.6832253601;0.2267045601;0.6941240161;150.2248197811;-67.375983866;77.4928561698;0.01521369;0.000251742;276
277;yellowsaltcube;1.6653345369377351e-16;-0.4963999898;1.0902000035;-0.2883999865;0.9472;-0.4403999904;1.0932000037;SIDE;0.498585481;-0.3986140459;0.5864570562;-0.498585481;-164.9460248155;20.097873204;113.1932003671;0.016259428;0.000121199;277
278;yellowsaltcube;0;-0.4983999899;1.0852000033;1.0986000338;1.5707963268;-0.4093999889;1.0332000041;SIDE;0.4991784402;-0.3883309185;0.5923182146;-0.4991784402;-165.4724038015;22.5345185739;132.869810592;0.009173967;0.000048878;278
279;yellowsaltcube;0;-0.2043999857;0.9472;-0.8703999978;0.9472;-0.8043999947;0.9472;SIDE;0.4865128012;0.6474266654;0.3277946026;-0.4865128012;67.8360582279;180.4813785352;80.9720207077;0.003440196;0.000045376;279
280;yellowsaltcube;0;-0.6383999933;0.9492000001;-0.5043999902;0.9472;-0.2853999863;0.9472;SIDE;0.5094657423;0.5740588821;0.3890317658;0.5094657423;-171.0340322191;27.0628033073;23.7124407925;0.009430648;0.000079483;280
281;yellowsaltcube;0;-0.6263999927;0.9532000003;1.0986000338;1.5707963268;-0.2963999868;0.9472;SIDE;0.5056727557;0.3672441518;-0.5947452071;-0.5056727557;164.8407447112;-39.0943109843;5.9991866543;0.000746637;0.000011199;281
282;yellowsaltcube;0;-0.7733999964;0.9472;-0.6053999917;0.9472;-0.2673999887;0.9472;SIDE;-0.4922560501;0.6625725582;0.2763432059;-0.4922560501;158.9775213084;-83.7961853028;49.805704573;0.006340999;0.000014894;282
283;yellowsaltcube;0;-0.1093999845;0.9472;-0.9854;1.2372000073;-0.9713999993;1.3102000075;SIDE;0.4865128012;0.6474266654;0.3277946026;-0.4865128012;60.0887946337;156.8438993649;79.6462811876;0.016203936;0.000216971;283
284;yellowsaltcube;3.3306690738754701e-16;-0.9854;1.5707963268;-0.8093999949;1.5707963268;-0.0403999845;1.120200005;SIDE;0.5094657423;0.5740588821;0.3890317658;0.5094657423;-151.1199712136;17.850816287;24.5269381849;0.010245051;0.000045176;284
285;yellowsaltcube;0;-0.742399995;0.9472;-0.5743999935;0.9472;-0.251399988;0.9472;SIDE;-0.4727614921;0.6326624846;0.3908085514;-0.4727614921;164.2409602784;-51.3811162895;128.4497806374;0.003640224;0.000017367;285
286;yellowsaltcube;0;-0.9854;1.4352000101;-0.7673999962;1.5042000102;-0.0453999847;0.9472;SIDE;0.5018007734;-0.3282343907;0.6234213282;-0.5018007734;-147.4186839125;58.0604394124;71.4738742764;0.013481516;0.00008094;286
287;yellowsaltcube;1.6653345369377351e-16;-0.3323999885;1.5707963268;-0.0113999831;1.43220001;-0.9854;1.5707963268;SIDE;-0.4913201012;0.5843332886;0.4192418445;-0.4913201012;142.8904073373;0.1101388786;116.5198063629;0.002784846;0.000039271;287
288;yellowsaltcube;0;-0.5323999915;1.0592000021;1.0986000338;1.5707963268;-0.3643999901;0.990200002;SIDE;0.5173806811;0.5822578685;0.3544153442;0.5173806811;-156.4292743086;46.9570051398;-0.4457661054;0.007548308;0.00003735;288
289;yellowsaltcube;0;-0.9854;1.5707963268;-0.7343999946;1.5707963268;-0.1043999842;0.9472;SIDE;4.0249646676432644e-17;0.2260139991;0.6895855717;-0.6880330017;55.6724498976;143.3693021165;78.8905404438;0.008446083;0.00002524;289
290;yellowsaltcube;0;-0.4803999923;1.0082000029;1.0986000338;1.5707963268;-0.3153999877;0.9472;SIDE;0.6964795088;-0.7051303713;0.1330693552;1.9925622552140791e-17;-26.6789923861;-162.1870275481;136.3579234595;0.000554249;0.00001571;290
291;yellowsaltcube;0;-0.5333999916;1.0052000028;-0.2963999868;0.9472;-0.4543999911;1.0002000025;SIDE;0.5053084035;0.6162982933;0.3309127505;0.5053084035;-157.7467128579;58.3279068224;26.2982168297;0.011422872;0.000116975;291
292;yellowsaltcube;0;-0.6243999926;0.9762000014;-0.3033999872;1.5707963268;-0.3383999888;0.9472;SIDE;0.511267796;-0.5865815636;-0.3648733351;0.511267796;167.8951250684;-40.4635340823;125.4313468028;0.012209729;0.000065665;292
293;yellowsaltcube;0;-0.789399994;0.9472;-0.610399992;0.9472;-0.2473999878;0.9472;SIDE;-0.4795707752;0.6687231272;0.304685284;-0.4795707752;160.0184538186;-78.5750035928;61.4992817193;0.006405742;0.000020485;293
294;yellowsaltcube;0;-0.9854;1.5707963268;-0.4983999899;1.5707963268;-0.2403999874;1.2702000056;SIDE;0.511267796;-0.5865815636;-0.3648733351;0.511267796;143.7478339828;-34.8367270331;126.5626185027;0.006581293;0.000057399;294
295;yellowsaltcube;0;-0.5083999904;0.9662000009;-0.2163999863;0.9472;-0.5563999927;1.0812000031;SIDE;-0.4943194361;-0.2901381811;0.6535414493;0.4943194361;148.9200622994;-76.0667674069;32.4733540219;0.011724643;0.000104977;295
296;yellowsaltcube;0;-0.6543999941;0.9472;-0.5093999904;0.9472;-0.2783999892;0.9472;SIDE;0.5005674798;0.387897819;-0.5902539101;-0.5005674798;169.2353915586;-30.3383472972;28.9739548532;0.007528263;0.00002975;296
297;yellowsaltcube;2.7755575615628909e-16;-0.5543999926;1.0182000034;1.0986000338;1.5707963268;-0.3463999892;0.9472;SIDE;0.4991784402;-0.3883309185;0.5923182146;-0.4991784402;-167.9164364479;28.46207999;132.8816313338;0.002211592;0.000021719;297
298;yellowsaltcube;0;-0.5823999939;0.969200001;-0.4633999915;1.0192000034;-0.2843999895;0.9472;SIDE;-0.4754337637;0.6034987033;0.4286196306;-0.4754337637;162.5977362294;-29.2453540973;62.8613732273;0.015635968;0.000062974;298
299;yellowsaltcube;0;-0.590399991;0.9472;-0.2463999877;0.9472;-0.2973999869;1.0002000025;SIDE;0.7970124796;0.5608544349;-0.2240834894;-3.4824518216537877e-17;63.0464667346;141.1656499425;-24.9319063218;0.008017203;0.000067724;299
300;yellowsaltcube;0;-0.474399992;0.9472;1.0986000338;1.5707963268;-0.320399988;0.9472;SIDE;0;0.1642847868;0.69978625;-0.6952047994;28.9140108396;164.1198737482;136.9571514716;0.001012554;0.000021571;300
301;yellowsaltcube;0;-0.9854;1.5707963268;-0.5873999909;1.5707963268;-0.1143999847;0.9712000011;SIDE;0.511267796;-0.5865815636;-0.3648733351;0.511267796;145.7517826083;-39.9266469108;126.4208677032;0.012865105;0.000064164;301
302;yellowsaltcube;0;-0.4843999925;0.9562000004;-0.2403999874;0.9472;-0.4583999913;1.1122000046;SIDE;2.7075122759309312e-16;0.2138304444;0.6628255096;0.7175924225;-63.3116773509;-154.002195759;25.3611960398;0.009675316;0.000102505;302
303;yellowsaltcube;0;-0.4953999898;0.9802000016;-0.1983999854;0.9472;-0.5783999937;1.1152000047;SIDE;-0.4943194361;-0.2901381811;0.6535414493;0.4943194361;147.7867219409;-76.7842470787;32.4552794766;0.010981437;0.000149039;303
304;yellowsaltcube;0;-0.7363999947;0.9472;-0.5793999938;0.9472;-0.2833999895;0.9472;SIDE;0.5047525232;-0.3253727208;0.6201470577;-0.5047525232;-169.1933817409;64.6005043349;46.3780421102;0.007990802;0.00001915;304
305;yellowsaltcube;0;-0.9854;1.5647963298;-0.6383999933;1.3802000075;-0.1603999869;0.9472;SIDE;0.7090536522;-0.6716468154;0.2147870423;7.8289070305751843e-17;-61.7870794133;-150.3298132556;71.7077461356;0.017052852;0.000116558;305
306;yellowsaltcube;0;-0.9854;1.5707963268;-0.7763999966;1.5707963268;-0.1573999867;1.4042000087;SIDE;0.5094657423;0.5740588821;0.3890317658;0.5094657423;-146.5892667338;22.3665221456;24.6645351265;0.010727095;0.000049805;306
307;yellowsaltcube;0;-0.9854;1.5707963268;-0.3183999879;1.4502000076;-0.5673999932;1.5707963268;SIDE;0.7013839998;-0.6962103611;0.152812362;1.3850403586225055e-16;-26.1162804178;-141.7475808726;114.2146064789;0.008822579;0.00006189;307
308;yellowsaltcube;0;-0.5733999935;1.0292000039;-0.4763999921;1.0182000034;-0.252399988;0.9472;SIDE;0.7344117326;0.6705117564;-0.105135111;-9.4482340022725154e-17;19.1517020172;169.0204884552;61.542659485;0.018682608;0.000144024;308
309;yellowsaltcube;0;-0.9854;1.5707963268;-0.7183999938;1.5707963268;-0.1023999841;0.9472;SIDE;2.7423511121101078e-16;0.1059260195;0.6977401069;0.7084761264;-19.717145528;-149.4799107702;28.8549239951;0.009736739;0.000034027;309
310;yellowsaltcube;0;-0.9854;1.5707963268;-0.9143999966;1.5707963268;-0.0133999832;1.0032000027;SIDE;0.7112729317;0.700443625;-0.0589028421;-2.1462319045660188e-16;7.2430030229;145.1408483223;27.9797831995;0.014738332;0.000059468;310
311;yellowsaltcube;0;-0.9854;1.5707963268;-0.6903999925;1.5707963268;-0.1273999853;0.9472;SIDE;1.5944049721620082e-16;-0.2447288799;-0.6747148721;0.6963243618;59.0275155326;141.7863632836;52.9667570936;0.006565745;0.000014145;311
312;yellowsaltcube;0;-0.2643999886;1.5707963268;-0.0743999861;1.5707963268;-0.9854;1.5707963268;SIDE;-0.4885844776;0.5644650923;0.4516077679;-0.4885844776;141.0243992015;6.7367307294;77.6228561188;0.000304448;0.000014264;312
313;yellowsaltcube;0;-0.611399992;0.9952000023;-0.4373999903;0.9472;-0.3053999873;0.9472;SIDE;0.5005674798;0.387897819;-0.5902539101;-0.5005674798;164.7333768719;-34.823710906;28.9819040784;0.0058619;0.000065179;313
314;yellowsaltcube;0;-0.273399989;0.9472;-0.8883999954;0.9472;-0.7923999941;0.9472;SIDE;0.7096534593;0.2087286852;0.6729222122;-3.9111449751986236e-17;-179.5966636025;68.7797203437;71.2291775198;0.012847403;0.000081322;314
315;yellowsaltcube;0;-0.9854;1.5707963268;-0.7933999941;1.5707963268;-0.162399987;1.4002000085;SIDE;0.5005674798;0.387897819;-0.5902539101;-0.5005674798;144.9301114048;-25.3101688085;29.0303262178;0.013740867;0.000072336;315
316;yellowsaltcube;0;-0.6993999929;0.9472;1.0986000338;1.5707963268;-0.209399986;0.9472;SIDE;0.9999624961;0.0058777614;-0.006360679;-2.4980277284580796e-16;-20.8015438431;-23.9115337248;-155.1828955187;0.000227061;0.000001868;316
317;yellowsaltcube;0;-0.6693999948;0.9472;1.0986000338;1.5707963268;-0.2393999874;0.9472;SIDE;2.2204322481791208e-16;-0.0147242041;-0.003859476;0.9998841444;22.2865377095;20.631303559;-151.1116623255;0.000003288;0.000000022;317
318;yellowsaltcube;0;-0.5733999935;1.0662000024;1.0986000338;1.5707963268;-0.2583999883;0.9472;SIDE;0.7092168913;0.6993592576;-0.0889271046;-2.9351643999107487e-17;15.5983536345;172.4786092238;8.4658622662;0.000031694;0.000022847;318
319;yellowsaltcube;0;-0.4063999888;0.9472;1.0986000338;1.5707963268;-0.5983999914;0.9472;TOP;0.0091443776;-0.5049144821;0.863072492;-0.0091443776;-5.8296229387;-24.7754023418;291.1824397794;0.000295266;0.00000071;319
320;yellowsaltcube;0;-0.6443999936;0.9472;1.0986000338;1.5707963268;-0.3523999895;0.9472;TOP;0.0099037978;-0.5324091059;0.8463712977;-0.0099037978;13.7345340334;0.3935994481;295.2351544286;0.000261743;0.000000649;320
321;yellowsaltcube;0;-0.2923999866;0.9472;-0.8883999954;0.9472;-0.7923999941;0.9472;SIDE;0.7096534593;0.2087286852;0.6729222122;-1.173343492559587e-16;-179.7100457939;68.0766543423;71.2298991263;0.014242547;0.000079744;321
322;yellowsaltcube;0;-0.6783999952;0.9472;-0.4833999925;0.9472;-0.2433999876;0.9472;SIDE;0.5360013116;0.5546989394;0.3430951392;0.5360013116;-164.429357742;32.013533528;-12.1006618096;0.001560823;0.000022949;322
323;yellowsaltcube;0;-0.4823999924;0.9472;-0.2083999859;0.9472;-0.5173999908;0.9472;SIDE;0.6591298789;0.181860487;-0.313085242;-0.6591298789;109.3667466552;-50.0026565451;-101.7824447186;0.000644811;0.000016668;323
324;yellowsaltcube;0;-0.7993999944;0.9472;-0.611399992;0.9472;-0.273399989;0.9472;SIDE;-0.4931554895;0.6602540478;0.2786752925;-0.4931554895;160.4965662034;-83.766386232;53.5008481109;0.005109887;0.000009984;324
325;yellowsaltcube;0;-0.5333999916;1.0282000038;-0.390399988;1.0542000018;-0.3223999881;0.9762000014;SIDE;-0.4754337637;0.6034987033;0.4286196306;-0.4754337637;160.1410753834;-23.4855650987;62.5354799927;0.021602839;0.000113094;325
326;yellowsaltcube;0;-0.9854;1.3262000082;-0.7613999959;1.4192000094;-0.0943999838;0.9472;SIDE;-0.4908197988;0.6434176169;0.3228089535;-0.4908197988;144.059658695;-65.3302897023;77.2563621019;0.019031253;0.000160368;326
327;yellowsaltcube;0;-0.9854;1.5707963268;-0.7153999937;1.5707963268;-0.120399985;0.9472;SIDE;1.1777767487714942e-16;0.1294039258;0.6952918143;0.7069822607;-24.2573377701;-151.7594958379;92.456558272;0.007477676;0.000019448;327
328;yellowsaltcube;0;1.0326000307;1.5707963268;-0.7333999945;0.9472;-0.2453999877;0.9472;TOP;-8.3112493929122976e-17;0.9966377143;0.0776284984;0.0262122624;-30.9122870951;-26.3664454197;300.1277969753;0.000011744;0.000000023;328
329;yellowsaltcube;0;-0.9854;1.5707963268;-0.7033999931;1.5707963268;-0.121399985;0.9472;SIDE;0.7025522175;0.6958492517;-0.1490442906;-1.1852033880702117e-16;23.2453596201;151.2506689037;93.9726672247;0.008867028;0.000029241;329
330;yellowsaltcube;0;-0.9854;1.5707963268;-0.3713999904;1.3102000075;-0.0183999834;1.3302000084;SIDE;0.5242168285;0.5469324014;0.3889195055;0.5242168285;-145.3126710859;14.1955719719;-2.626298417;0.008418524;0.00005661;330
331;yellowsaltcube;0;-0.4153999892;0.9472;1.0986000338;1.5707963268;-0.5723999934;0.9472;SIDE;0.7070248589;-0.0076825229;-0.0131406463;0.7070248589;22.0715892312;20.574961736;-143.815044983;0.000000481;0.000000001;331
332;yellowsaltcube;0;-0.5133999906;0.9472;1.0986000338;1.5707963268;-0.3813999909;0.9472;SIDE;1.1102559111327673e-16;-0.0072283294;-0.0026441799;0.9999703793;-0.1664088634;20.1965492118;-139.0513324307;0.00000838;0.000000353;332
333;yellowsaltcube;0;-0.2323999871;0.9472;-0.8763999981;0.9472;-0.811399995;0.9472;SIDE;1.5994591727650694e-16;-0.6832253601;0.2267045601;0.6941240161;173.8516125612;-75.2157128566;78.3991741488;0.007040362;0.000040945;333
334;yellowsaltcube;0;-0.5103999905;0.9582000005;-0.2653999886;0.9472;-0.5273999913;1.0872000034;SIDE;0.5096885271;0.6242777961;0.301185066;0.5096885271;-155.7907898257;67.4193829378;86.8967847357;0.015164635;0.00015782;334
335;yellowsaltcube;0;-0.9854;1.2542000048;-0.7813999968;1.3912000081;-0.0833999865;0.9472;SIDE;-0.4908197988;0.6434176169;0.3228089535;-0.4908197988;144.343635838;-67.9649630102;77.2963841749;0.013726793;0.000094132;335
336;yellowsaltcube;0;-0.9854;1.5707963268;-0.6153999922;1.5707963268;-0.1163999848;1.4672000084;SIDE;0.5360013116;0.5546989394;0.3430951392;0.5360013116;-140.455036943;26.3629533886;-8.3843482713;0.004509496;0.000037347;336
337;yellowsaltcube;0;-0.5693999933;0.9472;1.0986000338;1.5707963268;-0.4173999893;0.9472;SIDE;0.707005392;0.0119329377;-0.0120148347;-0.707005392;-17.8788902614;-0.55471578;-144.970535565;0.000184792;0.000000328;337
338;yellowsaltcube;0;-0.6553999941;0.9472;-0.521399991;0.9472;-0.2873999864;0.9472;SIDE;0.5155366319;0.5775855162;0.3672042126;0.5155366319;-172.7931283024;31.5876534283;83.0671569123;0.006185864;0.0000197;338
339;yellowsaltcube;0;-0.5273999913;0.9472;-0.2903999865;0.9472;-0.4933999897;1.0382000043;SIDE;0.5096885271;0.6242777961;0.301185066;0.5096885271;-157.2643282748;66.2301889623;86.8576551547;0.017093414;0.000202115;339
340;yellowsaltcube;0;-0.6073999918;0.9472;1.0986000338;1.5707963268;-0.3823999909;0.9472;SIDE;0.707057463;-0.0096406926;-0.0068223892;0.707057463;21.2502101722;-6.3186490264;-146.6434705137;0.000000535;0.000000001;340
341;yellowsaltcube;0;-0.6883999924;0.9472;-0.5783999937;0.9472;-0.2713999889;0.9472;SIDE;0.5040805704;0.5821499825;0.3910331891;0.5040805704;-178.9938415174;23.6122390153;89.9180280293;0.006793282;0.000021599;341
342;yellowsaltcube;0;1.0326000307;1.5707963268;-0.410399989;0.9472;-0.6023999916;0.9472;TOP;-0.0185348685;0.7596209238;-0.6498376485;0.0185348685;-30.3793548409;-26.3249351196;289.9418131523;0.000061097;0.000000105;342
343;yellowsaltcube;0;-0.5343999916;1.0082000029;-0.390399988;0.9472;-0.3533999895;0.9472;SIDE;0.5075928401;-0.3987818112;0.5706768652;-0.5075928401;-167.3824053239;24.1545316991;44.9778713379;0.01163495;0.000075312;343
344;yellowsaltcube;0;-0.8553999971;1.5707963268;-0.9854;1.5707963268;-0.209399986;0.9472;SIDE;0.6591298789;-0.313085242;-0.181860487;0.6591298789;92.3960789809;-45.503230493;-82.5920380668;0.008023771;0.000061865;344
345;yellowsaltcube;0;-0.43139999;0.9842000018;-0.3323999885;0.9472;-0.2813999894;0.9472;SIDE;1.9612671482016931e-16;-0.1110571426;-0.6978384822;0.7075929366;18.0843825703;160.5111814088;49.1307439182;0.004780637;0.000069811;345
346;yellowsaltcube;0;-0.7383999948;0.9472;-0.8633999975;0.9472;-0.2163999863;1.1652000038;TOP;-1.5142889079971027e-17;0.9164557526;-0.2141448857;-0.3380100909;97.932477286;-24.4506740499;244.9530052591;0.003643118;0.000051189;346
347;yellowsaltcube;0;-0.9854;1.5707963268;-0.473399992;1.5707963268;-0.4593999913;1.5707963268;SIDE;0.707627699;-0.699973195;0.0964394419;1.9611708003264575e-17;-16.7907123573;-139.8050454824;72.2562131721;0.002196724;0.000008358;347
348;yellowsaltcube;0;-0.3073999874;0.9472;-0.209399986;0.9472;-0.5993999914;1.0592000021;SIDE;-0.4913201012;0.5843332886;0.4192418445;-0.4913201012;167.45548534;-3.9308980772;117.3771645373;0.010302608;0.000064975;348
349;yellowsaltcube;0;-0.4803999923;1.0242000037;-0.3313999885;0.9472;-0.2973999869;0.9472;SIDE;-5.939211236717746e-17;-0.137925536;-0.6997053114;0.7009914577;23.2730134988;161.2769526208;114.6804643131;0.002866943;0.000070791;349
350;yellowsaltcube;0;-0.9243999971;1.5707963268;-0.0983999839;1.5707963268;-0.9854;1.5707963268;SIDE;-0.4908197988;-0.3228089535;0.6434176169;0.4908197988;126.5974573864;-62.0765112438;76.6156451199;0.000092262;0.000026942;350
351;yellowsaltcube;0;-0.9854;1.5707963268;-0.8053999947;1.5707963268;-0.0693999858;0.9472;SIDE;0.6687162525;-0.7200992582;0.1851367929;4.1505759001380741e-17;-52.97770422;-145.0767612774;145.3007310747;0.008270448;0.000034518;351
352;yellowsaltcube;0;-0.4233999896;1.0062000028;-0.2203999865;0.9472;-0.589399991;1.1092000044;SIDE;-0.4826252984;-0.3461164286;0.6436995111;0.4826252984;150.9356146941;-66.2335532248;102.0431266626;0.013736272;0.000187214;352
353;yellowsaltcube;0;-0.9854;1.5707963268;-0.6923999926;1.5707963268;-0.3663999902;1.5707963268;SIDE;-0.4853206988;-0.4092010376;0.601233856;0.4853206988;139.8723231629;-28.1911300763;99.3850377911;0.000021654;0.000022256;353
354;yellowsaltcube;0;-0.9854;1.5707963268;-0.7063999933;1.4692000085;-0.0843999865;0.9472;SIDE;7.8941758036107121e-17;-0.1705447932;-0.6902438555;0.7031912211;48.1620011601;149.6818620026;133.8109274339;0.013586046;0.000074678;354
355;yellowsaltcube;0;-0.5113999905;1.0422000045;-0.2833999895;0.9472;-0.4923999896;1.0162000033;SIDE;-0.4826252984;-0.3461164286;0.6436995111;0.4826252984;153.5908644061;-61.2133696373;102.1182470812;0.01210497;0.000184241;355
356;yellowsaltcube;0;-0.3663999902;0.9472;1.0986000338;1.5707963268;-0.6223999925;0.9472;SIDE;0.707080262;0.0086538843;-0.0003414743;-0.707080262;-20.8804133102;-23.9844152378;-148.9838252102;0.0006324;0.000001104;356
357;yellowsaltcube;0;-0.9854;1.4152000092;-0.9083999963;1.459200008;0.0306000157;0.9472;SIDE;-0.4963232973;-0.4292729107;0.5683758767;0.4963232973;156.2852729232;1.2782511323;94.3436744429;0.01424226;0.00007448;357
358;yellowsaltcube;0;-0.4883999894;1.2042000057;-0.3253999882;1.0652000023;-0.4043999887;1.142200006;SIDE;0.5034499343;-0.4314186005;0.5540345823;-0.5034499343;-161.1652292098;10.7250909092;47.4621982754;0.021554803;0.000135765;358
359;yellowsaltcube;0;-0.5303999914;0.9472;1.0986000338;1.5707963268;-0.452399991;0.9472;SIDE;0.706920834;0.0134215896;-0.0185938135;-0.706920834;-16.3579987343;-6.7686063367;-142.0779228819;0.001152799;0.000001471;359
360;yellowsaltcube;0;-0.9854;1.5707963268;-0.2553999881;1.5707963268;-0.8493999968;1.5707963268;SIDE;-0.4826252984;-0.3461164286;0.6436995111;0.4826252984;129.7913415827;-54.0581652403;100.4171111625;0.009122103;0.000041318;360
361;yellowsaltcube;0;-0.790399994;0.9472;-0.5943999912;0.9472;-0.2793999893;0.9472;SIDE;0.5023997995;-0.3401474402;0.6160264619;-0.5023997995;-173.5181811004;62.7057065174;110.9129867822;0.009442436;0.000049245;361
362;yellowsaltcube;0;-0.9854;1.5707963268;-0.6693999948;1.4832000092;-0.1453999862;0.9472;SIDE;0.7106554438;-0.6645609828;0.230927565;0;-63.8618533424;-146.6890108407;48.0483476247;0.01087574;0.00005981;362
363;yellowsaltcube;0;1.0326000307;1.5707963268;-0.564399993;0.9472;-0.4463999907;0.9472;TOP;-0.0185348685;0.7596209238;-0.6498376485;0.0185348685;-30.2382845508;-6.3139470999;287.3270282513;0.000494917;0.000000745;363
364;yellowsaltcube;0;-0.9854;1.5707963268;-0.7883999939;1.5707963268;-0.1653999871;1.3522000062;SIDE;0.5155366319;0.5775855162;0.3672042126;0.5155366319;-148.5271158373;26.1842126637;84.6392787096;0.011108358;0.000044232;364
365;yellowsaltcube;4.4408920985006262e-16;-0.9854;1.5707963268;-0.6793999952;1.5707963268;-0.5283999913;1.5707963268;SIDE;0.5075928401;-0.3987818112;0.5706768652;-0.5075928401;-142.8664674304;19.8076022531;45.7401662906;0.0000326;0.000015685;365
366;yellowsaltcube;3.3306690738754691e-16;-0.564399993;0.9472;1.0986000338;1.5707963268;-0.4203999895;0.9472;SIDE;0.707057463;-0.0096406926;-0.0068223892;0.707057463;21.1687277608;-1.1102863729;-143.165154063;0.000803023;0.000001418;366
367;yellowsaltcube;1.6653345369377351e-16;-0.9854;1.5707963268;-0.162399987;1.5707963268;-0.9403999979;1.5707963268;SIDE;-0.4908197988;-0.3228089535;0.6434176169;0.4908197988;127.4516638285;-59.8195045508;76.6192834902;0.000809383;0.000022495;367
368;yellowsaltcube;0;-0.6373999932;0.9722000012;-0.5103999905;0.9472;-0.300399987;0.9472;SIDE;-0.4853206988;-0.4092010376;0.601233856;0.4853206988;168.6251166334;-28.27355892;101.0229207082;0.008804484;0.000053781;368
369;yellowsaltcube;0;-0.9854;1.5707963268;-0.7473999952;1.4962000098;-0.0443999846;0.9472;SIDE;0.4953494356;0.5891186655;0.4027369751;0.4953494356;-155.6966237491;18.0115074207;74.7949952115;0.007693624;0.000034363;369
370;yellowsaltcube;0;-0.5663999931;0.9472;-0.5033999901;0.9472;-0.4043999887;0.9472;SIDE;0.7065862541;0.0185969065;-0.0335542246;-0.7065862541;7.9591706596;-3.4443569401;-137.2450077801;0.007932206;0.000020619;370
371;yellowsaltcube;0;-0.3123999876;0.9472;-0.9854;1.1012000041;-0.7333999945;1.548796329;SIDE;0.5021624001;-0.0568204781;0.7017387556;0.5021624001;-115.4248786767;-125.9752845823;71.2734798585;0.005053562;0.00016759;371
372;yellowsaltcube;0;1.0326000307;1.5707963268;-0.6063999918;0.9472;-0.4073999888;0.9472;TOP;-0.0185348685;0.7596209238;-0.6498376485;0.0185348685;-30.4159286242;-1.1333701293;290.7435240061;0.001502119;0.000002703;372
373;yellowsaltcube;0;-0.2323999871;0.9472;-0.1903999851;0.9472;-0.5833999939;1.1712000041;SIDE;-0.4940524269;0.5429269113;0.4658913693;-0.4940524269;163.9489423094;9.0108525248;52.5550294182;0.012501663;0.000059934;373
374;yellowsaltcube;1.6653345369377351e-16;-0.6013999915;1.0402000044;-0.4423999905;0.9472;-0.3293999884;0.9472;SIDE;-0.4853206988;-0.4092010376;0.601233856;0.4853206988;164.3033022978;-32.834229606;100.8262127526;0.006943464;0.000055657;374
375;yellowsaltcube;0;-0.6633999945;0.9472;-0.6763999951;0.9472;-0.274399989;0.9472;SIDE;0.6591298789;-0.313085242;-0.181860487;0.6591298789;108.6490328698;-49.8123693881;-100.9708550001;0.001116809;0.000013719;375
376;yellowsaltcube;0;-0.4863999893;0.9472;-0.3193999879;0.9472;-0.3943999882;0.9472;SIDE;0.673682722;0.700585787;-0.2352257323;-5.3559705659856608e-16;61.6577346995;158.2056285955;105.1795852382;0.006488767;0.000027592;376
377;yellowsaltcube;0;-0.9854;1.1822000046;-0.253399988;0.9472;-0.6843999955;1.5707963268;SIDE;2.3449970443374876e-16;0.4560260874;0.5363823781;0.7101648767;-110.8326329955;-120.5738399557;71.334938137;0.010004411;0.000109679;377
378;yellowsaltcube;0;-0.4653999916;0.9822000017;-0.2473999878;0.9472;-0.4243999897;1.0342000041;SIDE;2.3464206300687619e-16;0.189201724;0.678587013;0.709734016;-58.2764071728;-155.4283022639;91.4298598096;0.011872806;0.000121058;378
379;yellowsaltcube;0;-0.1783999877;0.9472;-0.1863999849;0.9472;-0.5773999937;1.2152000062;SIDE;0.501911333;-0.5194908109;-0.4757092861;0.501911333;162.0498329678;13.5464975649;28.2770208453;0.004149972;0.00002285;379
380;yellowsaltcube;0;-0.4953999898;1.0092000029;-0.3533999895;0.9472;-0.3123999876;0.9472;SIDE;0.7144813299;-0.6890794898;0.1211853375;7.7694334209230317e-17;-25.2578501108;-165.2988229573;46.5131294587;0.006090384;0.000074722;380
381;yellowsaltcube;0;-0.6143999922;0.9472;-0.4013999886;0.9472;-0.3713999904;0.9472;SIDE;0.6217389411;0.7206750346;-0.3067053694;-2.2320924251205756e-16;76.4820718676;165.8004719844;64.2024057828;0.006062533;0.000016275;381
382;yellowsaltcube;2.2204460492503131e-16;-0.9844;1.5707963268;-0.9854;1.5707963268;0.1506000181;0.9972000024;SIDE;0.501911333;0.4757092861;-0.5194908109;-0.501911333;149.7520887571;14.087508357;28.3713147668;0.007322596;0.000046408;382
383;yellowsaltcube;0;-0.9854;1.5707963268;-0.7463999952;1.5707963268;-0.163399987;1.3052000072;SIDE;-0.4853206988;-0.4092010376;0.601233856;0.4853206988;144.1941374985;-23.6304593903;99.5817457468;0.000164;0.000022186;383
384;yellowsaltcube;0;-0.7743999965;0.9472;-0.7163999937;0.9472;-0.1753999876;0.9472;SIDE;-0.4885844776;-0.4516077679;0.5644650923;0.4885844776;181.3450473987;2.2582325321;79.4560253622;0.007836637;0.000017156;384
385;yellowsaltcube;0;-0.6473999937;0.9472;1.0986000338;1.5707963268;-0.2773999892;0.9472;TOP;0.0129321029;0.2532559576;0.967312866;2.7796811997253334e-17;-5.9321999389;-24.7485462569;295.2810686731;0.000236049;0.000000912;385
386;yellowsaltcube;0;-0.7403999949;0.9472;-0.5693999933;0.9472;-0.2903999865;0.9472;SIDE;0.5048235143;-0.3064231698;0.6296120074;-0.5048235143;-167.1915110068;69.3869356719;46.3418196971;0.007785463;0.000024857;386
387;yellowsaltcube;0;-0.7943999942;0.9472;-0.5863999908;0.9472;-0.2843999895;0.9472;SIDE;0.5018007734;-0.3282343907;0.6234213282;-0.5018007734;-171.2098052155;65.4400285815;71.2941221058;0.007634212;0.0000198;387
388;yellowsaltcube;0;-0.4983999899;1.5707963268;-0.4953999898;0.9472;-0.4123999891;0.9472;TOP;-0.2390092274;-0.4966087765;0.7994553781;0.2390092274;96.8792548268;-24.2045713848;243.6414579705;0.0091291;0.000030195;388
389;yellowsaltcube;0;-0.6003999915;0.9622000007;-0.4713999919;0.9472;-0.2783999892;0.9472;SIDE;1.1777767487714942e-16;0.1294039258;0.6952918143;0.7069822607;-28.8151842412;-176.2489641578;92.4653307285;0.009792565;0.000074318;389
390;yellowsaltcube;0;-0.9854;1.4392000103;-0.763399996;1.4852000093;-0.0813999864;0.9472;SIDE;0.5023997995;-0.3401474402;0.6160264619;-0.5023997995;-150.4584103306;55.9946187419;131.1459410748;0.015098208;0.00010251;390
391;yellowsaltcube;0;-0.6823999954;0.9472;-0.4383999903;0.9472;-0.3133999876;0.9472;TOP;-0.0013593138;0.9273499791;-0.3741902201;0.0013593138;-2.7164626554;19.2316302101;298.0352626439;0.007252468;0.000010937;391
392;yellowsaltcube;0;-0.4393999904;0.9472;-0.2923999866;0.9472;-0.5533999925;0.9472;TOP;2.7920039656316857e-17;0.9203279008;0.3911430167;0.00192236;-2.6803709433;19.2469693312;287.835337721;0.008172087;0.000014218;392
393;yellowsaltcube;0;-0.1503999864;0.9472;-0.9854;1.1802000045;-0.8983999959;1.1882000049;SIDE;0.7096534593;0.2087286852;0.6729222122;-3.9111449751986236e-17;-155.918924491;60.6970651732;71.4096512969;0.014124696;0.000226279;393
394;yellowsaltcube;0;-0.9854;1.4492000075;1.0986000338;1.5707963268;-0.2263999868;0.9472;TOP;0.0185348685;0.6498376485;0.7596209238;0.0185348685;-29.6834080564;-26.2707275544;276.6401174266;0.008182342;0.000026478;394
395;yellowsaltcube;3.3306690738754691e-16;-0.6573999942;0.9472;-0.6693999948;0.9472;-0.2693999888;0.9472;SIDE;0.7070858362;0.0069809183;-0.0032414832;-0.7070858362;0.0171852716;20.2637093943;-151.7498281902;0.006840667;0.000008688;395
396;yellowsaltcube;0;-0.8033999946;0.9472;-0.5943999912;0.9472;-0.2803999893;0.9472;SIDE;0.5018007734;-0.3282343907;0.6234213282;-0.5018007734;-171.4784563084;66.261594617;71.2905140732;0.008166227;0.000026128;396
397;yellowsaltcube;0;-0.6643999945;0.9472;-0.3723999904;0.9472;-0.3133999876;0.9472;SIDE;0.511267796;-0.5865815636;-0.3648733351;0.511267796;169.9866343788;-45.5738573699;125.28549389;0.000747168;0.000019778;397
398;yellowsaltcube;0;-0.6013999915;0.9612000007;-0.4843999925;0.9472;-0.274399989;0.9472;SIDE;0.7025522175;0.6958492517;-0.1490442906;-1.3827372860819133e-16;28.443233359;175.5181972897;94.2913749721;0.00941837;0.00007607;398
399;yellowsaltcube;0;-0.6963999928;0.9472;-0.5673999932;0.9472;-0.2603999884;0.9472;SIDE;0.5094657423;0.5740588821;0.3890317658;0.5094657423;-175.5647366988;22.5470974487;23.5748438508;0.007012954;0.000020814;399
400;yellowsaltcube;0;-0.6713999949;0.9472;-0.5093999904;0.9472;-0.2203999865;0.9472;SIDE;0.5242168285;0.5469324014;0.3889195055;0.5242168285;-169.7538309373;18.3223129863;-5.0976975585;0.001383834;0.000009442;400
401;yellowsaltcube;0;-0.4933999897;0.9472;-0.4563999912;0.9472;-0.4573999912;0.9472;TOP;0.0091443776;-0.5049144821;0.863072492;-0.0091443776;-5.544408857;-4.8500753539;279.6552045136;0.008567354;0.000014864;401
402;yellowsaltcube;0;-0.1233999851;0.9472;-0.9854;1.1802000045;-0.8973999958;1.1862000048;SIDE;0.7096534593;0.2087286852;0.6729222122;-7.8222899503972472e-17;-155.8055422995;61.4001311746;71.4089296904;0.013459074;0.000222166;402
403;yellowsaltcube;0;-0.9854;1.5707963268;-0.6223999925;1.3272000083;-0.3433999891;0.9472;TOP;0.0129321029;0.2532559576;0.967312866;2.7796811997253334e-17;-5.1463600894;-4.9542900556;263.7505263032;0.008627183;0.000060525;403
404;yellowsaltcube;0;0.010600018;0.9472;-0.9854;1.5052000102;-0.2413999875;0.9472;TOP;0.0091443776;0.863072492;0.5049144821;0.0091443776;-5.4365779273;-24.8783069906;275.4776946858;0.009608341;0.000050976;404
405;yellowsaltcube;0;-0.6223999925;0.9472;-0.721399994;0.9472;-0.2343999871;0.9472;SIDE;0.7070216364;-0.0153647898;-0.0021758853;0.7070216364;1.6577265055;-28.6137717915;-154.3600840226;0.005822933;0.000008673;405
406;yellowsaltcube;0;-0.9583999987;0.9472;-0.4873999894;0.9472;-0.5243999911;0.9472;SIDE;0.7101648767;-0.5363823781;0.4560260874;3.9083284072291464e-17;-138.0428219886;-152.5787324041;70.9707826698;0.000279088;0.000018007;406
407;yellowsaltcube;0;-0.7723999964;0.9472;-0.5723999934;0.9472;-0.300399987;0.9472;SIDE;0.5048235143;-0.3064231698;0.6296120074;-0.5048235143;-169.0680928078;69.9742876778;54.8602290371;0.006977264;0.000012347;407
408;yellowsaltcube;0;-0.5873999909;1.0452000047;-0.4383999903;0.9472;-0.2853999863;0.9472;SIDE;2.9382333344036869e-16;0.1059260195;0.6977401069;0.7084761264;-23.4424317485;-174.0185615819;28.758700744;0.006425133;0.000048344;408
409;yellowsaltcube;0;-0.9854;1.3182000078;-0.8443999966;1.3602000066;-0.0563999852;0.9472;SIDE;-0.4945390845;0.5965030554;0.3937591812;-0.4945390845;150.4352678243;-53.6240500279;135.4356988195;0.016229543;0.000090106;409
410;yellowsaltcube;0;1.0326000307;1.5707963268;-0.4813999924;0.9472;-0.4593999913;0.9472;TOP;0.0099037978;0.8463712977;0.5324091059;0.0099037978;14.2397750524;0.2785509768;276.7424122319;0.001046079;0.000001009;410
411;yellowsaltcube;0;-0.3273999883;0.9472;-0.321399988;0.9472;-0.6063999918;0.9472;SIDE;0.7070216364;0.0021758853;-0.0153647898;-0.7070216364;1.4667412869;-28.4701692339;-146.6637920355;0.007426289;0.000011849;411
412;yellowsaltcube;0;-0.9854;1.5707963268;-0.0753999861;1.4022000086;-0.9603999988;1.5707963268;SIDE;0.7002736292;0.6907331866;-0.1802900695;-4.5580628241011875e-16;44.2098435082;128.4367959209;114.4237834845;0.007587994;0.00002601;412
413;yellowsaltcube;0;-0.9854;1.5647963298;1.0986000338;1.5707963268;-0.2153999862;0.9472;SIDE;0.9999624961;0.0058777614;-0.006360679;-2.4980277284580796e-16;-21.1184209886;-24.2043528176;-130.2766323335;0.001570893;0.000026906;413
414;yellowsaltcube;0;-0.5493999923;1.1272000053;-0.4853999893;1.0662000024;-0.2613999884;0.9472;SIDE;0.7112729317;0.700443625;-0.0589028421;-2.2437879002281103e-16;9.3302616043;169.9615006686;27.6853876843;0.01672976;0.00009162;414
415;yellowsaltcube;7.7715611723760938e-16;-0.3553999896;0.9472;-0.8833999984;0.9472;-0.7783999967;0.9472;SIDE;0.5193075163;0.3997816599;-0.5484651597;0.5193075163;22.4872803542;190.2935386124;59.8422818115;0.002156391;0.000047555;415
416;yellowsaltcube;0;-0.3643999901;0.9472;-0.2753999891;0.9472;-0.5233999911;0.9472;TOP;-5.6048075531073063e-17;0.9749449731;-0.2220047948;0.0140060851;14.0021752223;0.3326548524;285.4389990834;0.008698556;0.00001128;416
417;yellowsaltcube;0;-0.4403999904;0.9472;-0.9753999995;0.9472;-0.5803999938;0.9472;SIDE;0.5021624001;-0.7017387556;-0.0568204781;-0.5021624001;-131.1123523707;-144.4270457402;71.0635335287;0.002284541;0.000019505;417
418;yellowsaltcube;0;1.0326000307;1.5707963268;-0.9854;1.3882000079;-0.1853999848;0.9472;SIDE;0.707080262;-0.0003414743;-0.0086538843;0.707080262;-21.0624491129;-24.1526304574;-134.6759722265;0.007816978;0.000025176;418
419;yellowsaltcube;0;-0.9854;1.5707963268;-0.0973999839;1.4132000091;-0.9293999973;1.5707963268;SIDE;3.188597422192387e-16;0.1775751643;0.6963707722;0.695366672;-48.8237874939;-129.8499708855;115.8878814607;0.00615776;0.000025042;419
420;yellowsaltcube;0;-0.8463999967;0.9472;-0.6163999923;0.9472;-0.2753999891;0.9472;SIDE;-0.4908197988;0.6434176169;0.3228089535;-0.4908197988;167.6864514752;-73.1700186929;78.1626800809;0.007557319;0.000030304;420
421;yellowsaltcube;0;-0.9854;1.3412000089;-0.7863999938;1.4052000087;-0.0753999861;0.9472;SIDE;0.5023997995;-0.3401474402;0.6160264619;-0.5023997995;-151.8889700455;60.4149641628;131.120923264;0.014116328;0.00008704;421
422;yellowsaltcube;0;-0.2043999857;0.9472;-0.6953999927;0.9472;-0.9854;0.9472;SIDE;-0.4967794371;-0.386649496;0.5974299531;-0.4967794371;29.6976759361;181.3748652998;94.3682911474;0.005240921;0.000036596;422
423;yellowsaltcube;0;-0.8763999981;0.9472;-0.6433999935;0.9472;-0.2583999883;0.9472;SIDE;-0.4908197988;0.6434176169;0.3228089535;-0.4908197988;167.9704286182;-75.8046920007;78.2027021539;0.008233836;0.000031834;423
424;yellowsaltcube;0;-0.4903999895;0.9472;-0.50039999;0.9472;-0.4233999896;0.9472;TOP;0.0091443776;-0.5049144821;0.863072492;-0.0091443776;-5.5394051009;0.3430283296;279.421235282;0.007934355;0.000010894;424
425;yellowsaltcube;1.1471176968629099e-16;-0.9854;1.5707963268;-0.6223999925;1.3412000089;-0.3583999898;0.9472;TOP;0.0129321029;0.2532559576;0.967312866;2.7796811997253334e-17;-5.1038281625;0.228988231;262.0170586959;0.009159133;0.000048385;425
426;yellowsaltcube;0;1.0326000307;1.5707963268;-0.7813999968;0.9472;-0.1923999852;0.9472;SIDE;0.707080262;-0.0003414743;-0.0086538843;0.707080262;-20.7455719674;-23.8598113646;-159.5822354117;0.000437394;0.000000457;426
427;yellowsaltcube;0;-0.2573999882;1.1312000055;-0.384399991;0.9472;-0.5363999917;0.9472;TOP;0.2690159897;0.7841089754;0.4903406054;0.2690159897;-114.6550894896;40.6416261379;238.4340205367;0.014967627;0.000037474;427
428;yellowsaltcube;0;-0.9854;1.4712000086;-0.8023999946;1.5507963291;-0.0153999833;1.0122000031;SIDE;-0.4922560501;0.6625725582;0.2763432059;-0.4922560501;136.0345603465;-74.3584430782;49.0428389223;0.013111609;0.000070243;428
429;yellowsaltcube;0;-0.4373999903;0.9472;-0.4613999914;0.9472;-0.4563999912;0.9472;SIDE;0.7070959459;0.0043671595;-0.003402146;-0.7070959459;-0.7218597038;-5.5519807232;-132.1807541366;0.00911369;0.000014302;429
430;yellowsaltcube;0;-0.321399988;0.9472;-0.6663999946;0.9472;-0.3123999876;0.9472;TOP;0.00192236;-0.3911430167;0.9203279008;2.780223358181763e-17;-2.7100935295;19.2343371139;296.2352758353;0.004001432;0.000007055;430
431;yellowsaltcube;0;1.0326000307;1.5707963268;-0.9854;1.5292000113;-0.2483999878;0.9472;SIDE;0.7070248589;0.0131406463;-0.0076825229;-0.7070248589;21.6384533416;20.461429108;-129.111861841;0.009041422;0.000025769;431
432;yellowsaltcube;0;-0.9854;1.4472000107;-0.8363999962;1.5707963268;0.0066000178;1.0212000035;SIDE;-0.4795707752;0.6687231272;0.304685284;-0.4795707752;136.7615697813;-69.8773328046;59.5052988369;0.008424217;0.000059104;432
433;yellowsaltcube;0;-0.9854;1.459200008;-0.742399995;1.4892000094;-0.0543999851;0.9472;SIDE;0.5048235143;-0.3064231698;0.6296120074;-0.5048235143;-145.526520288;61.8459890364;55.3431622548;0.019797327;0.000145802;433
434;yellowsaltcube;0;1.0326000307;1.5707963268;-0.3933999882;0.9472;-0.4413999905;0.9472;TOP;-2.7348476319878279e-17;0.967312866;-0.2532559576;0.0129321029;-5.4218168324;-24.8821716504;274.8878914151;0.000033396;0.000000018;434
435;yellowsaltcube;0;-0.6773999951;0.9472;-0.3613999899;1.0042000027;-0.542399992;0.9472;SIDE;0.70759307;-0.51655041;0.4821698054;0;-127.2451267069;-130.267539086;49.1112949712;0.006560737;0.000056088;435
436;yellowsaltcube;0;-0.9854;1.4032000086;-0.7773999966;1.3522000062;-0.0923999837;0.9472;SIDE;0.707006372;-0.6892092519;0.1585326371;3.9257886088136534e-17;-61.0543917837;-156.2149860606;112.4520774192;0.016878803;0.000166668;436
437;yellowsaltcube;0;-0.9313999974;1.5557963293;-0.9854;1.5707963268;-0.2703999889;0.9472;SIDE;0.7070858362;0.0069809183;-0.0032414832;-0.7070858362;-0.3416183712;20.1324561921;-126.9327688853;0.00659193;0.000070801;437
438;yellowsaltcube;0;1.0326000307;1.5707963268;-0.5053999902;0.9472;-0.4333999901;0.9472;SIDE;0.707057463;0.0068223892;-0.0096406926;-0.707057463;21.0034348539;-6.2764037322;-136.0464273229;0.00024657;0.000000325;438
439;yellowsaltcube;0;-0.5283999913;0.9472;1.0986000338;1.5707963268;-0.4243999897;0.9472;TOP;0.0185348685;0.6498376485;0.7596209238;0.0185348685;-30.0658652866;-1.1061035601;284.0527308223;0.000269387;0.000000228;439
440;yellowsaltcube;0;-0.2283999869;0.9472;-0.3823999909;0.9472;-0.4693999918;0.9472;TOP;0.0013593138;0.3741902201;0.9273499791;0.0013593138;-2.636494744;19.2656168903;275.4354289208;0.006699101;0.000006353;440
441;yellowsaltcube;0;-0.5253999912;0.9472;-0.4423999905;0.9472;-0.3643999901;0.9472;SIDE;0.9999846765;0.0006823676;-0.0054937286;-2.498006202180004e-16;-0.6229741012;-5.5396982947;-141.180202732;0.007226258;0.000009278;441
442;yellowsaltcube;0;-0.9854;1.5302000114;-0.7733999964;1.5402000119;-0.0403999845;0.9852000018;SIDE;0.5047525232;-0.3253727208;0.6201470577;-0.5047525232;-145.4166126726;57.187881674;46.8538340398;0.017644171;0.00009778;442
443;yellowsaltcube;0;-0.6823999954;0.9472;-0.4883999894;0.9472;-0.2693999888;0.9472;SIDE;4.024964667643265e-17;0.2260139991;0.6895855717;-0.6880330017;63.4197134918;167.0067812868;80.2162799639;0.00628275;0.000014949;443
444;yellowsaltcube;0;-0.7543999955;0.9472;1.0986000338;1.5707963268;-0.2203999865;0.9472;TOP;0.0185348685;0.6498376485;0.7596209238;0.0185348685;-30.9802098356;-26.3717359484;301.4260106413;0.000026274;0.00000004;444
445;yellowsaltcube;0;-0.7233999941;0.9472;-0.5023999901;0.9472;-0.2813999894;0.9472;SIDE;0.7090536522;-0.6716468154;0.2147870423;3.9144535152875922e-17;-69.3744430577;-174.0557725778;71.5703883222;0.005736666;0.000018186;445
446;yellowsaltcube;0;1.0326000307;1.5707963268;-0.5963999913;0.9472;-0.3453999892;0.9472;SIDE;0.706920834;-0.0185938135;-0.0134215896;0.706920834;-16.1814663653;-6.7971258879;-145.9738210214;0.000256804;0.000000223;446
447;yellowsaltcube;0;-0.7183999938;0.9472;-0.6263999927;0.9472;-0.188399985;0.9472;SIDE;0.9997370309;-0.0036573146;-0.0226383087;6.9393634890900762e-17;-15.7061868852;-6.873909299;-156.462778102;0.006095241;0.000009083;447
