ipa320/cob_manipulation/cob_grasp_generation/files/database/yellowsaltcube/sdh_yellowsaltcube_opt1.csv
"id","object","sdh_knuckle_joint","sdh_finger_12_joint","sdh_finger_13_joint","sdh_finger_22_joint","sdh_finger_23_joint","sdh_thumb_2_joint","sdh_thumb_3_joint","direction","qw","qx","qy","qz","pos-x","pos-y","pos-z","eps_l1","vol_l1"
"0","yellowsaltcube","0.0","-0.47039999183695458","0.0","-0.47739999216943918","0.0","-0.32539998820945698","0.0","SIDE","0.51930751632597838","0.54846515970254817","0.39978165986841613","-0.51930751632597827","31.92264290278079","250.46869280333129","55.032417314933028","0.000530920","0.000040155","0"
"1","yellowsaltcube","0.0","-0.34439998911190628","0.0","-0.29139998659454991","-1.311585118178278e-15","-0.79939999442510501","1.576827090622543e-15","SIDE","0.48629196059880797","0.55995092439574168","0.46205542998896704","-0.48629196059880803","15.144607944227003","213.93362767646894","49.145295434064536","0.004917966","0.000071826","1"
"2","yellowsaltcube","0.0","-0.71939999388493525","0.0","-0.73839999478738605","0.39000000874512802","-0.6023999915873649","0.49700001056772042","SIDE","0.50036834451849399","-0.42676280946611983","0.56314877613666847","0.50036834451849421","-24.790182756722736","-197.86650605962919","72.16982667376783","0.003186983","0.000089533","2"
"3","yellowsaltcube","0.0","-0.74339999502487475","0.0","-0.73739999473988771","0.33100000594277029","-0.51139999052472895","0.18500000552740131","SIDE","0.51930751632597816","0.54846515970254828","0.39978165986841624","-0.51930751632597827","24.201397001029076","201.22552272979055","58.96847661746407","0.004169393","0.000095745","3"
"4","yellowsaltcube","0.0","-0.40739998884461159","-2.0270731923286169e-16","-0.35239998949188373","0.27800000668503222","-0.80639999475758783","1.931831114074658e-16","SIDE","0.49823581145090923","-0.41012487461028868","0.57906799220955296","0.49823581145090928","-31.803455483249365","-207.44049411351418","40.547847090857793","0.002933317","0.000048571","4"
"5","yellowsaltcube","0.0","-0.48939998947978208","-2.5676590851252981e-15","-0.4733999919794486","0.0","-0.37039999034684201","-1.396535503009857e-15","SIDE","0.72483684925395109","0.13770924713543917","0.67501681846972927","-7.6584339342561694e-17","-240.58020097882471","42.762518561582084","61.400542166219374","0.001798742","0.000057125","5"
"6","yellowsaltcube","0.0","-0.48339999245442561","0.0","-0.46439999155197548","-7.5223967977218292e-16","-0.41739998931958688","-3.4653617126508189e-16","SIDE","-2.7447121483270659e-16","0.70786668623091809","-0.16800983163045141","-0.68607393989275423","230.07199131791319","-49.457368345696359","84.850057249138302","0.005419184","0.000041086","6"
"7","yellowsaltcube","0.0","-0.3803999908218158","0.0","-0.33339998858943198","0.18300000543241099","-0.81039999494758319","0.0","SIDE","-1.7614265846294195e-16","0.70908484838502306","-0.1172328648761264","-0.69530937947342886","200.41447136909517","-29.524044533578262","45.191404130143113","0.004251143","0.000045856","7"
"8","yellowsaltcube","3.3306690738754701e-16","-0.93639999767262483","0.94719999999999915","-0.91039999643769709","0.94719999999999938","-0.72339999407493416","0.94719999999999938","SIDE","0.51930751632597849","0.54846515970254828","0.39978165986841618","-0.51930751632597827","24.201397001029079","201.22552272979058","58.96847661746407","0.007472767","0.000055273","8"
"9","yellowsaltcube","0.0","-0.42739998979456761","-1.340157741654466e-16","-0.36539999010935548","0.28400000697002131","-0.80839999485257963","0.0","SIDE","0.71784467859892542","0.12154815830810717","0.68551080415928733","0.0","-199.84468230409334","29.965561620142189","33.958825863510626","0.002353776","0.000039179","9"
"10","yellowsaltcube","0.0","-0.76939999625980793","-1.076071249375712e-15","-0.73539999464489358","0.33000000589526901","-0.58739999087491335","0.40500000619795351","SIDE","0.72483684925395109","0.13770924713543917","0.67501681846972927","-7.6584339342561694e-17","-191.65249458952172","32.780844880903715","63.939387969858871","0.004651032","0.000146601","10"
"11","yellowsaltcube","0.0","-0.88739999534526004","0.94719999999998439","-0.89239999558273764","0.94719999999999949","-0.74639999516736677","0.94719999999999827","SIDE","0.50036834451849399","-0.42676280946611983","0.56314877613666847","0.50036834451849421","-24.790182756722736","-197.86650605962919","72.169826673767815","0.008981506","0.000060448","11"
"12","yellowsaltcube","0.0","-0.43139998998455942","0.0","-0.4783999922169368","0.0","-0.38339999096430871","2.1771580607439979e-16","SIDE","0.50036834451849366","-0.42676280946611994","0.56314877613666847","0.50036834451849432","-31.614504792572433","-247.3985481904042","72.09613063453213","0.010723262","0.000071181","12"
"13","yellowsaltcube","0.0","-0.76839999621231059","-4.1859503230188078e-16","-0.72539999416991918","0.39100000879263053","-0.64639999367725487","0.54600000963546447","SIDE","-2.9407630160647137e-16","0.70786668623091809","-0.16800983163045141","-0.68607393989275423","181.50710268378623","-37.930651632954174","81.919802349134869","0.005583723","0.000084846","13"
"14","yellowsaltcube","0.0","-0.76639999611731902","0.94719999999999549","-0.80639999475758362","0.94719999999999971","-0.71939999388493403","0.94719999999999938","SIDE","0.50036834451849366","-0.42676280946612005","0.56314877613666847","0.50036834451849421","-31.614504792572433","-247.39854819040426","72.09613063453213","0.001957149","0.000058542","14"
"15","yellowsaltcube","0.0","-0.93739999772012716","0.94719999999999938","-0.87339999793991474","0.94719999999999949","-0.77739999663978887","0.94719999999999949","SIDE","-2.7447121483270659e-16","0.70786668623091809","-0.16800983163045141","-0.68607393989275423","181.70136225044422","-37.976758502682117","81.931523369466291","0.007418463","0.000046474","15"
"16","yellowsaltcube","0.0","-0.97439999947752776","0.94719999999999938","-0.90039999596270692","0.94719999999999949","-0.74839999526236645","0.94720000000000026","SIDE","0.72483684925395109","0.13770924713543919","0.67501681846972927","-9.573042417820212e-17","-191.75035000840657","32.800808229510594","63.934310277934713","0.006689302","0.000043197","16"
"17","yellowsaltcube","0.0","-0.26539998861923891","0.0","-0.1503999864166618","-6.05043511770579e-16","-0.02539998373910804","6.6022428612922138e-16","TOP","0.012932102864824796","0.25325595760402148","0.96731286596093802","2.824514767462839e-17","-6.9779848951871939","0.71966852146942983","336.9020029062936","0.007367052","0.000009986","17"
"18","yellowsaltcube","0.0","-0.25039998790677598","-2.3027059827224121e-15","-0.17039998736660941","0.0","-0.018399983406626141","-5.5956812534552806e-16","SIDE","0.99926386359268504","-0.010576421001671967","-0.036876418435296453","-2.3598769164709684e-16","12.012590642318079","-4.6069068311145314","-192.08311769021532","0.008716221","0.000010587","18"
"19","yellowsaltcube","0.0","-0.23139998700432859","-1.211361094653062e-16","-0.11239998461176071","-7.700258834057101e-16","-0.062399985496515049","0.0","TOP","-2.7348476319878279e-17","0.96731286596093802","-0.25325595760402142","0.012932102864824329","-6.9304492121817773","0.70722301873282778","335.00263829705614","0.006264995","0.000005256","19"
"20","yellowsaltcube","0.0","-0.27639998914170899","-5.609713223825112e-15","-0.20339998567440179","-1.556912064847618e-15","-0.1163999848017499","-1.418614928210097e-15","TOP","0.0091443776307195621","-0.50491448205227696","0.86307249204766945","-0.0091443776307193331","-6.7903440493610745","0.6705415391166093","329.40451135358597","0.006914196","0.000007949","20"
"21","yellowsaltcube","0.0","-0.18039998784158731","9.8467510264674307e-16","-0.2053999857694003","0.0","-0.1153999847542518","5.2682775887776809e-16","TOP","0.0091443776307194302","0.86307249204766978","0.50491448205227663","0.0091443776307192949","-6.7928459274126949","0.67119656557701468","329.50447791196626","0.007170734","0.000007348","21"
"22","yellowsaltcube","0.0","-0.21139998605437571","0.0","-0.12639998527672131","0.0","-0.065399985639006508","0.0","SIDE","1.664933852103311e-16","-0.036876418435296175","0.010576421001671917","0.99926386359268504","11.688317025304761","-4.513902834556661","-187.69606864854183","0.007761937","0.000010087","22"
"23","yellowsaltcube","0.0","-0.13339998560919211","0.0","-0.22239998657684071","-3.6952964296801281e-16","-0.1073999843742707","2.6800783014161442e-16","SIDE","0.70658625414105669","-0.033554224552436632","-0.018596906530504664","0.70658625414105702","11.710426590101797","-4.5202440161419837","-187.99518562865566","0.002196122","0.000011597","23"
"24","yellowsaltcube","0.0","-0.54339999204464584","0.0","-0.72839999431241087","0.37700000812764661","-0.65039999386724634","0.56400001049041737","SIDE","7.6584339342561706e-17","0.6750168184697295","-0.13770924713543903","0.72483684925395087","-186.85757938314373","31.802640864232018","64.188194857587533","0.008401489","0.000090526","24"
"25","yellowsaltcube","0.0","-0.47939999226443519","0.0","-0.7373999947398937","0.33500000613275821","-0.59539999125489451","0.39300000888761849","SIDE","0.68607393989275378","-0.16800983163045136","-0.70786668623091831","-8.0911324572297922e-17","186.07220218364586","-39.014162996417362","82.19524630781838","0.008895155","0.000090156","25"
"26","yellowsaltcube","0.0","-0.57239999342206971","0.94719999999999938","-0.87839999817740178","0.94719999999999938","-0.77839999668728532","0.94719999999999971","SIDE","5.7438254506921292e-17","0.67501681846972972","-0.13770924713543903","0.72483684925395075","-186.85757938314373","31.802640864232011","64.188194857587533","0.004977598","0.000040606","26"
"27","yellowsaltcube","0.0","-0.54039999190215071","0.94719999999999827","-0.50239999009724923","0.94719999999999949","-0.40739998884462331","0.94719999999999938","SIDE","0.70658625414105658","0.018596906530504335","-0.033554224552436847","-0.70658625414105714","11.644097895714411","-4.5012204713911208","-187.09783468831318","0.007574942","0.000018237","27"
"28","yellowsaltcube","0.0","-0.31139998754450082","0.94719999999999194","-0.53639999171216879","1.0642000022975711","-0.2413999874793053","0.94720000000000448","SIDE","0.50427520688141458","0.59302534270302687","0.37381007792911397","0.50427520688141492","-166.14996988136932","30.67987604747313","119.98909541259061","0.010553453","0.000031251","28"
"29","yellowsaltcube","0.0","-0.39339998817965122","0.94719999999999793","-0.48039999231193198","0.96720000094994862","-0.2323999870518233","0.94719999999999949","SIDE","2.9679436256196551e-16","0.15281236199167827","0.69621036110935375","0.70138399975085519","-31.841843823353642","-167.66807578743561","124.64519758373592","0.009041786","0.000032768","29"
"30","yellowsaltcube","0.0","-0.31139998754449771","-1.076071249375712e-15","-0.53639999171216957","1.065000017988488","-0.10739998437425741","0.49700001056773607","SIDE","0.50427520688141458","0.59302534270302698","0.37381007792911392","0.50427520688141492","-166.14996988136929","30.67987604747313","119.98909541259061","0.013730108","0.000059610","30"
"31","yellowsaltcube","3.3306690738754701e-16","-0.38839998794216268","0.94719999999999527","-0.51339999061972086","0.94719999999999938","-0.42039998946208251","0.94719999999999971","SIDE","0.70658625414105669","-0.033554224552436639","-0.018596906530504668","0.70658625414105702","11.710426590101799","-4.5202440161419837","-187.99518562865569","0.007988393","0.000011492","31"
"32","yellowsaltcube","0.0","-0.43539999017454423","0.94719999999999915","-0.49539998976476518","1.0972000038649901","-0.22539998671934031","0.94719999999999949","SIDE","0.70099145768810323","0.69970531138485226","-0.13792553595377158","-1.3858159552341415e-16","23.524393532980746","162.37666016719632","124.70285285274383","0.009186618","0.000031009","32"
"33","yellowsaltcube","0.0","-0.54539999213964174","0.94719999999999849","-0.45439999107699991","0.94719999999999949","-0.35339998953938351","0.94719999999999915","TOP","0.012932102864824794","0.25325595760402153","0.96731286596093802","2.7348476319878282e-17","-6.9779848951871939","0.71966852146942972","336.9020029062936","0.006233226","0.000006315","33"
"34","yellowsaltcube","0.0","0.16460001876614949","0.0","-0.056399985211525783","0.0","-0.34939998934939359","0.0","SIDE","-0.49567581328510046","-0.39723828874077288","0.59229445228417488","-0.49567581328510069","43.576784365300767","264.10375714249045","126.48876933783893","0.000000543","0.000016753","34"
"35","yellowsaltcube","0.0","-0.54139999194964983","0.94719999999999827","-0.47939999226443342","0.94719999999999949","-0.34139998896941548","0.94719999999999949","SIDE","0.99926386359268504","-0.010576421001671967","-0.036876418435296453","-2.3598769164709684e-16","12.012590642318079","-4.6069068311145314","-192.08311769021535","0.009432807","0.000015880","35"
"36","yellowsaltcube","0.0","-0.34139998896941248","0.0","-0.48039999231193259","0.96700001659337553","0.044600016326083222","0.0","SIDE","2.7700807172450116e-16","0.15281236199167825","0.69621036110935364","0.70138399975085508","-31.841843823353642","-167.66807578743561","124.64519758373594","0.009666173","0.000033384","36"
"37","yellowsaltcube","3.8448519541767191e-16","-0.47739999216943951","0.94719999999999949","-0.49639998981225242","0.94719999999999949","-0.42339998960457331","0.94719999999999938","TOP","0.0091443776307195621","-0.50491448205227696","0.86307249204766945","-0.0091443776307193348","-6.7903440493610745","0.6705415391166093","329.40451135358597","0.008130143","0.000014814","37"
"38","yellowsaltcube","0.0","-0.089399983519323087","-1.1545758723099e-15","-0.27039998885672673","-9.9756662644152258e-16","-0.046399984736555502","2.12809267141013e-16","SIDE","0.50427520688141458","0.59302534270302687","0.37381007792911386","0.50427520688141492","-214.90508305732422","41.734358347016219","119.13039855753161","0.008609024","0.000008260","38"
"39","yellowsaltcube","0.0","-0.51739999080971333","0.94719999999999815","-0.42139998950958291","0.94719999999999938","-0.38239999091681098","0.94720000000000026","TOP","-2.6900140642503227e-17","0.96731286596093802","-0.25325595760402142","0.012932102864824329","-6.9304492121817765","0.70722301873282767","335.00263829705614","0.008031976","0.000015498","39"
"40","yellowsaltcube","0.0","-0.4443999906020249","0.94719999999999915","-0.53739999175965802","1.0962000038174979","-0.24339998757429179","0.94720000000000149","SIDE","-0.47276149207695267","-0.39080855135529247","0.63266248458868191","0.47276149207695312","156.82332458016913","-32.735908594640151","137.33692459488501","0.009136620","0.000045245","40"
"41","yellowsaltcube","0.0","0.1726000191461266","-1.1938281837769941e-15","-0.30739998735449742","9.3806298277956871e-16","-0.071399985923991716","0.0","SIDE","-0.49823581145090889","0.57906799220955296","0.41012487461028907","0.49823581145090889","-42.139962734061513","-267.96263544506814","40.980367405309636","0.000059027","0.000017796","41"
"42","yellowsaltcube","0.0","-0.41439998917709281","-5.265388888363904e-16","-0.53739999175964559","1.096000019460929","-0.13039998546671841","0.54400000954047134","SIDE","-0.47276149207695273","-0.39080855135529247","0.63266248458868191","0.47276149207695312","156.82332458016913","-32.735908594640151","137.33692459488503","0.015898832","0.000066395","42"
"43","yellowsaltcube","0.0","-0.19939998548441801","-9.7794047070797583e-16","-0.46739999169446739","-1.536419298989937e-16","-0.41439998917709142","-2.680315483308932e-16","SIDE","7.6584339342561731e-17","0.67501681846972972","-0.13770924713543903","0.72483684925395075","-235.78528577244674","41.7843145449106","61.649349053948029","0.003754113","0.000049514","43"
"44","yellowsaltcube","0.0","-0.39739998836965817","0.9471999999999946","-0.55839999275711816","0.94719999999999849","-0.37139999039433619","0.94719999999999938","SIDE","0.50427520688141492","0.59302534270302676","0.37381007792911392","0.50427520688141469","-214.90508305732422","41.734358347016219","119.13039855753161","0.006458774","0.000008021","44"
"45","yellowsaltcube","0.0","-0.49439998971727012","0.94719999999999915","-0.4233999896045762","0.94719999999999949","-0.39339998817965488","0.94720000000000026","SIDE","1.664933852103311e-16","-0.036876418435296182","0.010576421001671915","0.99926386359268504","11.688317025304761","-4.5139028345566601","-187.69606864854183","0.005316906","0.000005493","45"
"46","yellowsaltcube","0.0","-0.6043999916823718","-2.1252039709963529e-16","-0.8043999946626017","-6.050435117705791e-16","-0.015399983264126411","-4.4413029723697871e-16","SIDE","0.71315283674019481","0.15500860026123803","0.68365588222033513","-3.8919533353466004e-17","-221.53577927166302","43.237768126222591","119.01361577075888","0.003047478","0.000041234","46"
"47","yellowsaltcube","0.0","-0.17639998765159501","-7.6205275763895679e-16","-0.47539999207444672","-1.4293420525795611e-15","-0.37239999044183669","-1.1838211086259581e-16","SIDE","0.68607393989275378","-0.16800983163045136","-0.70786668623091831","-8.0911324572297922e-17","234.63709081777282","-50.54087970915954","85.125501207821586","0.006966782","0.000062747","47"
"48","yellowsaltcube","0.0","-0.18639998486694229","-4.5302746584800174e-15","-0.26239998847674301","-1.340157741654466e-16","-0.059399985354018428","0.0","SIDE","-0.47276149207695273","-0.39080855135529236","0.63266248458868202","0.47276149207695312","205.20909398521005","-44.16983122865026","142.63623891671972","0.002104993","0.000011156","48"
"49","yellowsaltcube","0.0","-0.51839999085720889","0.94719999999999882","-0.54739999223463376","0.94720000000000182","-0.38139999086931348","0.94719999999999949","SIDE","-0.47276149207695267","-0.39080855135529247","0.63266248458868202","0.47276149207695312","205.20909398521005","-44.16983122865026","142.63623891671972","0.006018622","0.000010139","49"
"50","yellowsaltcube","0.0","-0.26939998880922661","0.0","-0.2043999857218943","0.0","0.011600018018296019","0.0","SIDE","0.70099145768810323","0.69970531138485226","-0.13792553595377161","-1.1878422473435497e-16","33.192855783045651","211.42540478517424","125.56395047757474","0.003202145","0.000004909","50"
"51","yellowsaltcube","0.0","-0.32539998820945509","0.61200000951066569","-0.49539998976476679","1.0970000195084131","0.014600018160791879","0.070000003324821897","SIDE","0.70099145768810323","0.69970531138485226","-0.13792553595377161","-1.1878422473435497e-16","23.524393532980749","162.37666016719632","124.70285285274385","0.015697166","0.000077656","51"
"52","yellowsaltcube","0.0","-0.63339999305978223","0.96920000104493942","-0.50239999009724601","0.94719999999999949","-0.28439998952169021","0.94719999999999938","SIDE","0.50759284007597794","0.57067686517807426","0.39878181121727674","0.5075928400759776","-171.20502669455172","24.88745435648099","34.849343086029272","0.008886320","0.000085914","52"
"53","yellowsaltcube","0.0","-0.4383999903170383","0.96420000080745283","-0.3773999906793235","0.94719999999999938","-0.30839998740199759","0.94719999999999949","SIDE","1.7006821204090531e-16","-0.10513511098326341","-0.67051175635720561","0.73441173263048576","18.441347400249555","164.4901168468067","61.904776937733224","0.004383687","0.000039039","53"
"54","yellowsaltcube","1.110223024625157e-16","-0.55439999256712069","1.0302000039422881","-0.38939998798966657","0.94719999999999949","-0.37639999063182472","0.94720000000000004","SIDE","0.51253705136136007","-0.3799338272733514","0.57468411223647753","-0.51253705136136019","-168.55861668966244","28.069494804860877","65.137723214294667","0.012796891","0.000079078","54"
"55","yellowsaltcube","0.0","-0.17439998755659941","0.0","-0.22039998648185111","-1.772546485159177e-16","0.032600015756114438","0.0","SIDE","2.5722178088703681e-16","0.15281236199167825","0.69621036110935364","0.70138399975085508","-42.559858389863429","-216.49915656172158","125.45124607308522","0.003666140","0.000004739","55"
"56","yellowsaltcube","0.0","-0.63339999305979289","0.97000001673586267","-0.467399991694467","0.85700001462828934","-0.1023999841367889","0.30500000470783628","SIDE","0.50759284007597805","0.57067686517807426","0.39878181121727663","0.5075928400759776","-171.20502669455169","24.887454356480987","34.849343086029272","0.019224868","0.000161202","56"
"57","yellowsaltcube","0.0","-0.35739998972937959","-1.1545758723099e-15","-0.25439998809677528","2.61364602853116e-15","-0.056399985211519933","2.913138900752017e-16","SIDE","0.50759284007597805","0.57067686517807403","0.39878181121727679","0.50759284007597749","-220.41405498333381","33.612724219978404","33.319244826749859","0.008481415","0.000015161","57"
"58","yellowsaltcube","0.0","-0.50539999023974413","0.94719999999999849","-0.90139999601021537","0.94719999999999938","-0.75639999564234206","0.94719999999999938","SIDE","0.68607393989275378","-0.16800983163045136","-0.70786668623091831","-8.0911324572297922e-17","186.07220218364583","-39.014162996417355","82.19524630781838","0.006926749","0.000044863","58"
"59","yellowsaltcube","0.0","-0.42839998984206112","0.94719999999999727","-0.51539999071471498","0.94719999999999949","-0.30139998706951993","0.94719999999999971","SIDE","2.7700807172450116e-16","0.1528123619916783","0.69621036110935375","0.70138399975085519","-42.559858389863429","-216.49915656172158","125.45124607308522","0.006320481","0.000005196","59"
"60","yellowsaltcube","0.0","-0.32139998801946579","0.0","-0.19939998548440269","0.0","0.0076000178283074857","2.0796706666238552e-15","SIDE","3.3482604000171911e-16","0.11946082408923596","0.69946498402967172","0.70461184181383996","-34.783197788407662","-224.8874305445969","40.672531285198097","0.007825272","0.000020764","60"
"61","yellowsaltcube","0.0","-0.28739998640455477","-5.9032389497041869e-16","-0.16139998693909771","-5.265388888363905e-16","-0.15239998651165751","-8.1756390887021432e-16","SIDE","0.51253705136136019","-0.37993382727335151","0.57468411223647753","-0.51253705136136007","-217.48632307896588","38.051168485539414","62.598877410655177","0.007735834","0.000012682","61"
"62","yellowsaltcube","0.0","-0.43839999031703941","0.96400001645087963","-0.20339998567439521","0.38900000869762441","-0.1943999852469169","0.62700001022313046","SIDE","1.5117174403636026e-16","-0.10513511098326342","-0.67051175635720561","0.73441173263048587","18.441347400249551","164.49011684680667","61.904776937733217","0.018189321","0.000144944","62"
"63","yellowsaltcube","0.0","-0.35639998968187198","1.8285997991892729e-15","-0.26039998838174711","-4.4803426590220151e-16","-0.055399985164035978","-1.8920959352819232e-15","SIDE","-0.49165797724827165","-0.41850255099784972","0.58429485846152007","0.49165797724827193","218.2622782277235","-32.474819091175668","45.790328300036705","0.010759237","0.000026169","63"
"64","yellowsaltcube","0.0","-0.55439999256711492","1.0300000163260881","-0.31839998787696872","0.73100001190324049","-0.29739998687952818","0.71500001114327971","SIDE","0.51253705136136007","-0.37993382727335151","0.57468411223647764","-0.51253705136136019","-168.55861668966247","28.06949480486087","65.137723214294681","0.021109535","0.000124727","64"
"65","yellowsaltcube","0.0","-0.63139999296479932","0.9990000181132922","-0.47739999216943541","0.88800001610071633","-0.1013999840892752","0.2980000076349692","SIDE","-0.49165797724827176","-0.41850255099784961","0.58429485846152018","0.49165797724827204","168.95894363526361","-24.323508038084366","44.135841618409231","0.017039269","0.000119437","65"
"66","yellowsaltcube","0.0","-0.63139999296478722","0.99920000246986562","-0.50039999000224533","0.94719999999999938","-0.28039998933170218","0.94719999999999938","SIDE","-0.49165797724827165","-0.41850255099784972","0.58429485846152007","0.49165797724827193","168.95894363526364","-24.323508038084366","44.135841618409223","0.008798739","0.000080413","66"
"67","yellowsaltcube","0.0","-0.51439999066721798","1.035000016563564","-0.36739999020434788","0.92800001474097049","-0.30239998711702543","0.87900001567323682","SIDE","-0.49165797724827176","0.58429485846152018","0.41850255099784966","-0.49165797724827215","162.7467234104025","-23.296442834450037","43.927376294302206","0.022296344","0.000128084","67"
"68","yellowsaltcube","0.0","-0.4213999895095803","0.94719999999999882","-0.36239998996686063","0.94719999999999949","-0.2483999878117813","0.94719999999999938","SIDE","-5.761066645822265e-17","0.069222567942639979","0.72266762360116954","-0.68772068595183677","10.136478549027995","161.64991332896128","46.300660231410227","0.001591274","0.000007182","68"
"69","yellowsaltcube","0.0","-0.51439999066722553","1.0352000041797711","-0.37339999048933492","0.94719999999999938","-0.32639998825695249","0.94720000000000448","SIDE","-0.49165797724827176","0.58429485846152007","0.41850255099784955","-0.49165797724827193","162.7467234104025","-23.296442834450037","43.927376294302213","0.005189262","0.000036227","69"
"70","yellowsaltcube","0.0","-0.68239999538715912","0.94719999999999904","-0.53539999166466257","0.94719999999999938","-0.31539998773448769","0.94719999999999949","SIDE","-0.48512753529353791","-0.38173644275802998","0.6193382252618348","0.4851275352935383","172.37690336746491","-35.763628830886688","81.368914412662363","0.008689989","0.000021498","70"
"71","yellowsaltcube","0.0","-0.46839999174196312","1.0012000025648611","-0.34239998901691171","0.94719999999999949","-0.28939998649954851","0.94719999999999949","SIDE","0.70461184181383996","-0.69946498402967161","0.11946082408923572","-7.8782597647463306e-17","-24.227839394594056","-163.08387572531478","40.230853373996787","0.002903961","0.000036308","71"
"72","yellowsaltcube","0.0","-0.58939999096990436","1.060200002107581","-0.44439999060202312","0.94719999999999949","-0.2853999863095581","0.94719999999999949","SIDE","4.1184586806855595e-16","0.096439441891427197","0.69997319495485899","0.70762769900022759","-21.528156753509055","-174.19018941248754","72.205053381282141","0.008175077","0.000070992","72"
"73","yellowsaltcube","0.0","-0.51639999076221277","1.0262000037522909","-0.3833999909643056","0.94719999999999938","-0.34539998915940617","0.94719999999999849","SIDE","0.50759284007597805","-0.39878181121727707","0.5706768651780737","-0.50759284007597771","-165.98886969127076","23.962575750125339","35.011533501658079","0.005382778","0.000036550","73"
"74","yellowsaltcube","0.0","-0.65239999396223936","0.94719999999999949","-0.51439999066721931","0.94719999999999793","-0.28939998649954479","0.94720000000001092","SIDE","0.51253705136136019","0.57468411223647775","0.37993382727335112","0.51253705136135996","-172.57068854496003","28.88799203268055","64.929537861957655","0.007704658","0.000045145","74"
"75","yellowsaltcube","0.0","-0.57539999356456462","1.0690000181784891","-0.33339998858944159","0.90900001383852125","-0.34639998920690102","0.90200001350604153","SIDE","-0.48512753529353791","0.61933822526183457","0.38173644275802993","-0.48512753529353836","160.72132968459042","-32.99721672235345","80.665653211882343","0.021530698","0.000164065","75"
"76","yellowsaltcube","0.0","-0.57539999356456395","1.069200002535059","-0.34639998920691101","0.94719999999999949","-0.3623999899668604","0.94720000000000359","SIDE","-0.48512753529353803","0.61933822526183469","0.38173644275802993","-0.48512753529353847","160.72132968459039","-32.99721672235345","80.665653211882343","0.009473068","0.000066389","76"
"77","yellowsaltcube","0.0","-0.46439999155197359","0.9471999999999986","-0.35939998982436949","0.94719999999999938","-0.28639998635705932","0.94719999999999938","SIDE","0.70762769900022759","-0.6999731949548591","0.096439441891427002","3.9223416006529139e-17","-20.190589595511067","-164.48190887198376","72.219497805392493","0.007966496","0.000034992","77"
"78","yellowsaltcube","0.0","-0.64939999381975222","0.94719999999999949","-0.56039999285209641","0.94719999999999949","-0.3873999878946548","0.94719999999999949","SIDE","-0.49165797724827165","-0.41850255099784972","0.58429485846152007","0.49165797724827193","218.26227822772344","-32.474819091175675","45.790328300036705","0.008500389","0.000016592","78"
"79","yellowsaltcube","0.0","-0.46839999174196417","1.001000014948656","-0.2153999862443664","0.54600000963545925","-0.21639998629186491","0.74400001252070458","SIDE","0.70461184181383996","-0.69946498402967161","0.1194608240892357","-5.9086948235597482e-17","-24.227839394594053","-163.08387572531478","40.230853373996787","0.016712634","0.000098879","79"
"80","yellowsaltcube","0.0","-0.66039999434221108","0.89100001624318736","-0.43739999026953158","0.67800001264551235","-0.093399983709323564","0.2210000039776803","SIDE","-0.48512753529353791","-0.38173644275802998","0.6193382252618348","0.4851275352935383","172.37690336746491","-35.763628830886688","81.368914412662363","0.017517594","0.000110832","80"
"81","yellowsaltcube","0.0","-0.46939999178946062","0.94719999999999849","-0.49539998976477351","0.94719999999999938","-0.32139998801946817","0.94719999999999949","SIDE","0.70099145768810323","0.69970531138485226","-0.13792553595377161","-1.5837896631247331e-16","33.192855783045644","211.42540478517424","125.56395047757476","0.005376289","0.000006447","81"
"82","yellowsaltcube","0.0","-0.45939999131448522","0.93300001497845553","-0.21639998629186191","0.47000000928528579","-0.2183999863868594","0.7620000133756577","SIDE","0.70762769900022759","-0.69997319495485921","0.096439441891427002","1.9611708003264572e-17","-20.190589595511067","-164.48190887198373","72.219497805392493","0.019892852","0.000180911","82"
"83","yellowsaltcube","0.0","-0.38439999101180677","0.9471999999999986","-0.50039999000225133","0.94719999999999815","-0.42239998955708902","0.94719999999999949","TOP","0.0091443776307194302","0.86307249204766978","0.50491448205227663","0.0091443776307192949","-6.792845927412694","0.67119656557701479","329.50447791196626","0.008026930","0.000008507","83"
"84","yellowsaltcube","0.0","-0.30139998706951798","-5.0691273310284325e-16","-0.16039998689163701","0.0","-0.16539998712912199","-1.895269253967044e-16","SIDE","-0.48512753529353791","0.61933822526183457","0.38173644275802993","-0.48512753529353836","209.2862183187174","-44.523933435095756","83.595908111885535","0.007037568","0.000013035","84"
"85","yellowsaltcube","0.0","-0.51639999076221244","1.026000016136092","-0.35239998949188339","0.85100001434330019","-0.29239998664205152","0.79600001499056694","SIDE","0.50759284007597805","-0.39878181121727724","0.57067686517807381","-0.50759284007597771","-165.98886969127079","23.962575750125335","35.011533501658086","0.020443623","0.000121902","85"
"86","yellowsaltcube","0.0","-0.37339999048933281","0.9471999999999986","-0.89539999572522855","0.94719999999999949","-0.75239999545235414","0.94719999999999949","SIDE","0.50036834451849388","-0.56314877613666847","-0.42676280946612016","-0.50036834451849399","-24.462615323053605","-195.48896821190874","72.173364083393921","0.003277176","0.000049724","86"
"87","yellowsaltcube","0.0","-0.65539999410472649","0.94719999999999915","-0.56139999289959375","0.94719999999999938","-0.38639998784715113","0.94720000000000448","SIDE","0.50759284007597771","0.57067686517807437","0.39878181121727685","0.50759284007597771","-220.41405498333378","33.612724219978404","33.319244826749852","0.010587817","0.000024850","87"
"88","yellowsaltcube","0.0","-0.38139999086931359","0.0","-0.2443999876217855","-1.6256036099150329e-15","-0.049399984879042382","0.0","SIDE","-0.48512753529353786","-0.38173644275803004","0.61933822526183469","0.48512753529353819","220.94179200159303","-47.290345543628654","84.299169312665569","0.010094483","0.000034742","88"
"89","yellowsaltcube","0.0","-0.27839998923670528","0.0","-0.22839998686183091","0.0","0.016600014996155439","0.0","SIDE","0.68772068595183677","0.72266762360116943","-0.069222567942640381","-3.0269093451668459e-17","16.020554468032628","223.07830710076047","49.642836156484023","0.004704985","0.000018057","89"
"90","yellowsaltcube","0.0","-0.25839998828675059","1.750961786379216e-16","-0.17239998746160209","-1.4146224357794e-15","-0.14739998627417239","-8.9606853180440321e-16","SIDE","0.50759284007597794","-0.39878181121727702","0.57067686517807381","-0.50759284007597771","-215.19789798005263","32.687845613622812","33.48143524237868","0.007513383","0.000011400","90"
"91","yellowsaltcube","0.0","-0.5973999913498842","1.0160000156611171","-0.38539998779967011","0.77300001389812856","0.0016000175433222969","0.0","SIDE","3.3482604000171916e-16","0.11946082408923596","0.69946498402967172","0.70461184181383985","-26.36584665979624","-175.60229947645277","40.320316047627315","0.017259401","0.000117232","91"
"92","yellowsaltcube","0.0","-0.59739999134988175","1.016200003277322","-0.45139999093450539","0.94719999999999993","-0.28739998640455561","0.94719999999999993","SIDE","3.3482604000171916e-16","0.11946082408923596","0.69946498402967172","0.70461184181383985","-26.365846659796244","-175.60229947645277","40.320316047627315","0.010181709","0.000089270","92"
"93","yellowsaltcube","0.0","-0.57339999346956638","1.0292000038947871","-0.47639999212194212","1.0182000033723171","-0.25239998800177038","0.94719999999999938","SIDE","0.73441173263048565","0.67051175635720561","-0.10513511098326392","-7.5585872018180143e-17","19.151702017200513","169.02048845523197","61.542659484965519","0.018682608","0.000144024","93"
"94","yellowsaltcube","0.0","-0.30839998740199392","0.0","-0.1623999869866303","0.0","-0.15339998655914941","-1.895269253967044e-16","SIDE","-0.47276149207695289","0.63266248458868191","0.39080855135529247","-0.47276149207695317","205.69295170945344","-44.284170462123129","142.68923206324516","0.007071248","0.000024508","94"
"95","yellowsaltcube","0.0","-0.2303999869568269","-9.9756662644152298e-16","-0.71839999383743469","0.31200000504031927","-0.65339999400973559","0.6010000089881955","SIDE","0.51930751632597816","0.39978165986841607","-0.54846515970254828","0.51930751632597816","22.487280354216431","190.2935386123541","59.842281811490537","0.008949215","0.000116779","95"
"96","yellowsaltcube","0.0","-0.48539998928979522","0.74100001237820734","-0.46739999169446161","0.85300001443829354","-0.23839998733680459","0.50600000773556597","SIDE","0.70658625414105658","0.018596906530504335","-0.03355422455243684","-0.70658625414105714","7.9591706596029432","-3.4443569400797176","-137.24500778009531","0.021467504","0.000219780","96"
"97","yellowsaltcube","0.0","-0.64439999358225875","0.92600001464597137","-0.46939999178946001","0.82900001329835005","-0.09739998389929469","0.24700000521261631","SIDE","0.51253705136136007","0.57468411223647786","0.37993382727335107","0.51253705136136007","-172.57068854496003","28.887992032680557","64.929537861957655","0.017013345","0.000157415","97"
"98","yellowsaltcube","0.0","-0.58239999389704289","1.0480000171810431","-0.36539999010935093","1.00500001513865","-0.33939998887443001","0.95600001607090535","SIDE","-0.47276149207695284","0.63266248458868179","0.39080855135529241","-0.47276149207695306","157.30718230441121","-32.85024782811341","137.38991774141041","0.020465294","0.000217273","98"
"99","yellowsaltcube","0.0","-0.58239999389704256","1.0482000015376129","-0.36539999010935759","1.005200002754846","-0.33939998887441242","0.95620000042748132","SIDE","-0.47276149207695289","0.63266248458868191","0.39080855135529247","-0.47276149207695317","157.30718230441121","-32.85024782811341","137.38991774141044","0.020191960","0.000219433","99"
"100","yellowsaltcube","0.0","-0.56339999299459198","1.0302000039422861","-0.36539999010934809","0.94719999999999938","-0.37739999067932262","0.94719999999999938","SIDE","0.50427520688141469","-0.37381007792911447","0.59302534270302665","-0.50427520688141469","-168.19768476252906","31.144164333024694","119.9530301424272","0.012465314","0.000103590","100"
"101","yellowsaltcube","0.0","-0.56339999299459043","1.0310000163735731","-0.31539998773448069","0.79700001503807039","-0.3223999880669644","0.78900001465809788","SIDE","0.50427520688141492","-0.37381007792911447","0.59302534270302665","-0.50427520688141469","-168.19768476252906","31.144164333024694","119.9530301424272","0.020973075","0.000167048","101"
"102","yellowsaltcube","0.0","-0.56639999313708467","0.94719999999999938","-0.50339999014474313","0.94719999999999949","-0.40439998870212313","0.94719999999999993","SIDE","0.70658625414105658","0.018596906530504331","-0.03355422455243684","-0.70658625414105714","7.9591706596029432","-3.444356940079718","-137.24500778009534","0.007932206","0.000020619","102"
"103","yellowsaltcube","4.4408920985006262e-16","-0.29539998678452511","-2.959315589672109e-16","-0.153399986559146","-1.4587812861798821e-15","-0.1553999866541495","1.0665470415503151e-15","SIDE","0.50427520688141469","-0.37381007792911447","0.59302534270302665","-0.50427520688141469","-216.9527979384842","42.198646632567559","119.09433328736863","0.007551021","0.000020902","103"
"104","yellowsaltcube","0.0","-0.47139999188445508","0.95320000028498364","-0.31639998778197997","0.94719999999999827","-0.3623999899668619","0.9472000000000016","SIDE","0.70138399975085519","-0.69621036110935364","0.15281236199167808","1.1871774502478618e-16","-31.370251152995749","-165.51950809930216","124.60973144799171","0.010047524","0.000059873","104"
"105","yellowsaltcube","0.0","-0.47139999188445469","0.95300001592841233","-0.14339998608417681","0.40700000629294741","-0.26139998842924939","0.66500001202803682","SIDE","0.70138399975085541","-0.69621036110935353","0.15281236199167803","1.1871774502478618e-16","-31.370251152995742","-165.51950809930216","124.60973144799171","0.016233938","0.000192032","105"
"106","yellowsaltcube","0.0","-0.25239998800177071","-6.9336121257154157e-16","-0.17739998769909321","-1.0907908661758721e-15","-0.14939998636915519","6.740239268793719e-16","SIDE","-0.49165797724827176","0.58429485846152007","0.41850255099784955","-0.49165797724827204","212.05005800286304","-31.447753887541229","45.581862975929695","0.007778187","0.000011662","106"
"107","yellowsaltcube","0.0","-0.48539998928979861","1.0182000033723191","-0.33339998858943459","0.94719999999999938","-0.29739998687952979","0.94719999999999938","SIDE","-5.9392112367177484e-17","-0.13792553595377141","-0.69970531138485226","0.70099145768810345","23.369698127328249","161.59188020434013","124.6890752898868","0.008461363","0.000070598","107"
"108","yellowsaltcube","0.0","-0.48539998928979777","1.018000015756112","-0.2443999876217921","0.68700001307297565","-0.20939998595938369","0.69400001340546436","SIDE","-5.939211236717746e-17","-0.13792553595377138","-0.69970531138485204","0.70099145768810334","23.369698127328252","161.5918802043401","124.6890752898868","0.017786905","0.000171067","108"
"109","yellowsaltcube","0.0","-0.58339999394454456","0.94719999999999938","-0.47139999188446252","0.94719999999999938","-0.4613999914094794","0.94719999999999915","SIDE","0.51253705136135996","-0.37993382727335151","0.57468411223647753","-0.51253705136136019","-217.48632307896585","38.051168485539407","62.598877410655184","0.008847348","0.000017964","109"
"110","yellowsaltcube","0.0","-0.58939999096990103","1.0600000177510029","-0.41439998917709869","0.86900001519825676","-0.00039998255167144421","-3.9928146479898999e-16","SIDE","4.11845868068556e-16","0.096439441891427197","0.69997319495485921","0.70762769900022759","-21.528156753509055","-174.19018941248754","72.205053381282156","0.015262793","0.000077731","110"
"111","yellowsaltcube","0.0","-0.36639999015685271","0.0","-0.25639998819176701","-1.340157741654465e-16","-0.052399985021540092","8.5065932848129655e-16","SIDE","0.51253705136136007","0.57468411223647786","0.37993382727335101","0.51253705136135996","-221.49839493426305","38.869665713358927","62.390692058318152","0.009598952","0.000020485","111"
"112","yellowsaltcube","0.0","-0.54939999232962833","1.09900001960341","-0.43639999022204368","0.9120000139810156","-0.001399982599170858","0.0","SIDE","0.68772068595183677","0.72266762360116954","-0.069222567942640367","-3.0269093451668459e-17","11.259975277146616","173.37895971894125","46.938810345090509","0.015986978","0.000098796","112"
"113","yellowsaltcube","0.0","-0.54939999232962822","1.0992000039599841","-0.4493999908395106","0.94719999999999949","-0.28339998947419248","0.94719999999999938","SIDE","0.68772068595183677","0.72266762360116954","-0.069222567942640367","-3.0269093451668459e-17","11.259975277146616","173.37895971894122","46.938810345090509","0.010015922","0.000048545","113"
"114","yellowsaltcube","0.0","-0.3953999882746439","0.0","-0.81539999518506512","-9.9756662644152298e-16","-0.16639998717662099","-2.054731769302115e-16","SIDE","0.69530937947342841","-0.11723286487612643","-0.70908484838502339","0.0","209.8807118801067","-31.089096300289217","45.509065582052585","0.000495917","0.000039159","114"
"115","yellowsaltcube","0.0","-0.55139999242462534","0.94719999999999527","-0.49239998962227449","0.94719999999999849","-0.44939999083950488","0.94720000000000326","SIDE","-0.49165797724827176","0.58429485846152018","0.41850255099784966","-0.49165797724827215","212.05005800286307","-31.447753887541229","45.581862975929695","0.009099015","0.000013687","115"
"116","yellowsaltcube","1.6653345369377351e-16","-0.68239999538715979","0.94720000000000115","-0.55839999275709751","0.94719999999999949","-0.38339999096430838","0.94719999999999949","SIDE","-0.48512753529353791","-0.38173644275802998","0.6193382252618348","0.4851275352935383","220.94179200159303","-47.290345543628654","84.299169312665569","0.009812935","0.000029690","116"
"117","yellowsaltcube","0.0","-0.59339999115988118","0.94719999999999971","-0.46639999164696982","0.94719999999999938","-0.46839999174196228","0.94720000000000204","SIDE","-0.48512753529353791","0.61933822526183457","0.38173644275802993","-0.48512753529353836","209.2862183187174","-44.523933435095756","83.595908111885549","0.010122329","0.000022551","117"
"118","yellowsaltcube","0.0","-0.5503999923771159","0.94719999999999938","-0.48639998933727452","0.94719999999999949","-0.45539999112450108","0.94719999999999949","SIDE","0.50759284007597782","-0.39878181121727713","0.57067686517807381","-0.50759284007597771","-215.19789798005263","32.687845613622812","33.48143524237868","0.008955089","0.000013756","118"
"119","yellowsaltcube","0.0","-0.66339999448470743","0.94719999999999904","-0.56339999299459254","0.9471999999999986","-0.38239999091681109","0.94720000000000149","SIDE","0.51253705136136007","0.57468411223647786","0.37993382727335107","0.51253705136136007","-221.49839493426308","38.869665713358927","62.390692058318145","0.008907261","0.000017265","119"
"120","yellowsaltcube","0.0","-0.034399984166587808","0.0","-0.81539999518506501","2.8000945079998579e-15","-0.1743999875565995","-1.6778535059177471e-14","SIDE","-0.49823581145090889","0.57906799220955296","0.41012487461028907","0.49823581145090889","-33.72261160544987","-218.67750437692425","40.628152167738854","0.001374225","0.000062687","120"
"121","yellowsaltcube","0.0","-0.35539998963438141","0.94719999999999949","-0.88339999841488903","0.94719999999999882","-0.77839999668728554","0.94720000000000037","SIDE","0.51930751632597805","0.39978165986841607","-0.54846515970254839","0.51930751632597827","22.487280354216431","190.29353861235413","59.842281811490544","0.002156391","0.000047555","121"
"122","yellowsaltcube","0.0","-0.22639998676683579","0.0","-0.49039998952726449","0.91000001388602103","-0.27439998904671442","0.55200000992044718","TOP","0.0091443776307194302","0.86307249204766978","0.50491448205227663","0.0091443776307192949","-5.541906978905109","0.34368335609058487","279.5212018404161","0.018135890","0.000090974","122"
"123","yellowsaltcube","0.0","-0.35839998977686949","4.0570350850710112e-16","-0.81439999513756334","-1.527472831247297e-15","-0.1813999878890826","-4.2504079419927059e-16","SIDE","-3.8665154793376312e-17","0.68551080415928756","-0.12154815830810699","0.7178446785989252","-209.78490558460709","31.728066055648043","33.649746028626467","0.004363401","0.000042198","123"
"124","yellowsaltcube","0.0","-0.38939998798966791","0.68400001293047386","-0.48739998938477902","0.91600001417100441","-0.28139998937919758","0.57300001091790476","TOP","0.0091443776307195621","-0.50491448205227696","0.86307249204766945","-0.0091443776307193331","-5.5394051008534886","0.34302832963017948","279.42123528203706","0.021510924","0.000213462","124"
"125","yellowsaltcube","0.0","-0.49039998952728808","0.94719999999999949","-0.50039999000224589","0.9471999999999986","-0.42339998960457631","0.94719999999999949","TOP","0.0091443776307195621","-0.50491448205227696","0.86307249204766945","-0.0091443776307193331","-5.5394051008534886","0.34302832963017954","279.42123528203706","0.007934355","0.000010894","125"
"126","yellowsaltcube","0.0","-0.22339998662434879","3.1247926877275202e-16","-0.46939999178946151","0.84000001382082856","-0.24039998743180421","0.45900000876281538","SIDE","0.70658625414105669","-0.033554224552436632","-0.018596906530504671","0.70658625414105702","8.0254993539903285","-3.4633804848305805","-138.14235872043758","0.020216236","0.000106107","126"
"127","yellowsaltcube","0.0","-0.60539999172985992","0.94719999999999793","-0.50339999014474357","0.94719999999999949","-0.33039998844694218","0.94719999999999949","SIDE","3.1513039058985327e-16","0.11946082408923595","0.69946498402967161","0.70461184181383996","-34.783197788407662","-224.8874305445969","40.672531285198097","0.008056630","0.000011530","127"
"128","yellowsaltcube","0.0","-0.19439998524692001","0.0","-0.105399984279273","0.0","-0.082399986446462209","0.0","SIDE","1.8896468004545031e-16","-0.10513511098326342","-0.67051175635720561","0.73441173263048587","26.162593302001213","213.73328692034698","57.968717635201948","0.006145061","0.000010333","128"
"129","yellowsaltcube","0.0","-0.18439998803157329","-1.438288520322202e-16","-0.74239999497737619","0.38100000831764452","-0.61239999206234541","0.5120000080205509","SIDE","0.50036834451849388","-0.56314877613666847","-0.42676280946612016","-0.50036834451849399","-24.462615323053608","-195.48896821190871","72.173364083393921","0.004949259","0.000105782","129"
"130","yellowsaltcube","0.0","-0.5983999913973892","0.94719999999999971","-0.46039999136198662","0.94719999999999971","-0.45439999107699719","0.94720000000000459","SIDE","-0.47276149207695284","0.63266248458868179","0.39080855135529241","-0.47276149207695306","205.69295170945344","-44.284170462123122","142.68923206324513","0.008002327","0.000019376","130"
"131","yellowsaltcube","0.0","-0.33239998854194053","0.66800001217051985","-0.2603999883817511","0.58700001158285575","-0.20439998572189491","0.83100001339335094","SIDE","-4.8008888715185534e-17","0.069222567942639993","0.72266762360116954","-0.68772068595183666","10.136478549027995","161.64991332896128","46.300660231410212","0.018446562","0.000117033","131"
"132","yellowsaltcube","4.4408920985006262e-16","-0.58339999394454189","0.94719999999999849","-0.45439999107699852","0.94719999999999949","-0.45539999112450108","0.94719999999999938","SIDE","0.50427520688141492","-0.37381007792911441","0.59302534270302643","-0.50427520688141469","-216.9527979384842","42.198646632567559","119.09433328736863","0.008046919","0.000015512","132"
"133","yellowsaltcube","0.0","-0.217399986339359","0.0","-0.058399985306523641","0.0","-0.11539998475424811","0.0","SIDE","0.70138399975085541","-0.69621036110935353","0.15281236199167808","1.1871774502478618e-16","-42.088265719505628","-214.35058887358929","125.41577993734099","0.006937098","0.000009616","133"
"134","yellowsaltcube","0.0","-0.20839998591188089","0.0","-0.1063999843267706","0.0","-0.088399983471819696","0.0","SIDE","0.70762769900022759","-0.6999731949548591","0.096439441891427002","1.9611708003264569e-17","-27.014911631360771","-214.01395100275789","72.145801766156723","0.005579698","0.000009427","134"
"135","yellowsaltcube","0.0","-0.19839998543690759","0.0","-0.10539998427927499","0.0","-0.093399983709302525","0.0","SIDE","0.70461184181383996","-0.69946498402967161","0.11946082408923571","-3.9391298823731653e-17","-32.645190523205585","-212.3690067934576","40.583068611567576","0.007549090","0.000009565","135"
"136","yellowsaltcube","0.0","-0.47839999221693752","0.94719999999999938","-0.45939999131448478","0.94719999999999938","-0.37939999077431819","0.94719999999999949","SIDE","-6.7212444201259749e-17","0.069222567942639993","0.72266762360116976","-0.68772068595183677","14.897057739914123","211.34926071077922","49.004686042803726","0.007924291","0.000009539","136"
"137","yellowsaltcube","0.0","-0.4803999923119327","0.95520000037997854","-0.40039998851213282","0.94719999999999949","-0.40839998889211648","0.94719999999999949","SIDE","1.6654763525438789e-16","-0.036876418435296182","0.010576421001671917","0.99926386359268504","8.0033897891932391","-3.4570393032453688","-137.84324174032392","0.010422437","0.000040538","137"
"138","yellowsaltcube","0.0","-0.41239998908210862","0.94719999999999827","-0.50539999023973581","0.94719999999999882","-0.42439998965207559","0.9472000000000016","TOP","0.0091443776307194267","0.86307249204766978","0.50491448205227663","0.0091443776307192914","-5.541906978905109","0.34368335609058492","279.5212018404161","0.008264774","0.000008542","138"
"139","yellowsaltcube","0.0","-0.51539999071471709","0.94719999999999915","-0.42839998984206229","0.94719999999999949","-0.38539998779967499","0.94719999999999971","TOP","-2.6900140642503227e-17","0.96731286596093802","-0.25325595760402142","0.012932102864824329","-5.6795102636744144","0.37970980924639808","285.01936222550722","0.006538344","0.000008198","139"
"140","yellowsaltcube","0.0","-0.50239999009725123","0.94719999999999793","-0.43139998998455448","0.94719999999999938","-0.39239998813215687","0.94719999999999938","SIDE","1.7006821204090528e-16","-0.10513511098326342","-0.67051175635720561","0.73441173263048587","26.162593302001213","213.73328692034696","57.968717635201948","0.007943341","0.000009271","140"
"141","yellowsaltcube","0.0","-0.4803999923119327","0.95600001607090268","-0.28439998952168988","0.6430000109830899","-0.1493999863691626","0.2330000045476483","SIDE","1.6654763525438789e-16","-0.036876418435296182","0.010576421001671915","0.99926386359268504","8.0033897891932391","-3.4570393032453683","-137.84324174032392","0.015286074","0.000130911","141"
"142","yellowsaltcube","0.0","-0.50039999000225732","0.94719999999999915","-0.42739998979456473","0.94719999999999938","-0.40239998860712828","0.94719999999999949","SIDE","0.70461184181384007","-0.69946498402967172","0.1194608240892357","-7.8782597647463318e-17","-32.645190523205571","-212.3690067934576","40.583068611567576","0.009160774","0.000012820","142"
"143","yellowsaltcube","0.0","-0.48639998933729711","0.87300001538824068","-0.25939998833425382","0.49600001052021769","-0.13639998575169851","0.26000000583007649","TOP","-2.7796811997253334e-17","0.96731286596093802","-0.25325595760402136","0.012932102864824329","-5.6795102636744152","0.37970980924639791","285.01936222550728","0.013233453","0.000112351","143"
"144","yellowsaltcube","0.0","-0.57339999346956694","1.0290000162785859","-0.47639999212194262","1.018000015756114","0.01060001797080048","0.023000001092441109","SIDE","0.73441173263048587","0.67051175635720561","-0.10513511098326392","-9.4482340022725154e-17","19.151702017200513","169.020488455232","61.542659484965505","0.018677844","0.000129675","144"
"145","yellowsaltcube","0.0","-0.2123999861018753","0.0","-0.096399983851795989","0.0","-0.077399986208975022","0.0","SIDE","-5.939211236717746e-17","-0.13792553595377138","-0.69970531138485204","0.70099145768810334","33.038160377392998","210.6406248223185","125.55017291471771","0.006504262","0.000008306","145"
"146","yellowsaltcube","0.0","-0.51839999085721178","0.94719999999999815","-0.43039998993705891","0.94719999999999949","-0.39139998808465842","0.94719999999999949","SIDE","0.70762769900022759","-0.69997319495485921","0.096439441891427002","1.9611708003264572e-17","-27.014911631360768","-214.01395100275792","72.145801766156708","0.007244433","0.000015341","146"
"147","yellowsaltcube","0.0","-0.55439999256711481","0.94719999999999904","-0.51839999085720578","0.94719999999999949","-0.32439998816195881","0.94719999999999949","SIDE","0.68772068595183677","0.72266762360116954","-0.069222567942640381","-3.0269093451668459e-17","16.020554468032632","223.0783071007605","49.642836156484009","0.008589610","0.000013762","147"
"148","yellowsaltcube","0.0","-0.53639999171216424","0.93400001502596186","-0.31439998768698468","0.55400001001544164","-0.067399985734001064","0.13100000296253719","TOP","0.012932102864824794","0.25325595760402148","0.96731286596093802","2.7348476319878282e-17","-5.7270459466798318","0.39215531198300019","286.91872683474344","0.016604322","0.000115456","148"
"149","yellowsaltcube","0.0","-0.54139999194964972","0.94719999999999849","-0.46239999145697758","0.94720000000000026","-0.35739998972937442","0.94719999999999949","TOP","0.012932102864824796","0.25325595760402153","0.96731286596093802","2.7796811997253334e-17","-5.7270459466798318","0.39215531198300035","286.9187268347435","0.007986328","0.000008274","149"
"150","yellowsaltcube","0.0","-0.5633999929945922","0.94719999999999938","-0.49839998990725859","0.94719999999999971","-0.31939998792447127","0.94719999999999938","SIDE","0.99926386359268504","-0.010576421001671967","-0.036876418435296453","-2.3598769164709684e-16","8.3276634062066091","-3.5500432998032396","-142.23029078199741","0.006562999","0.000005317","150"
"151","yellowsaltcube","0.0","-0.15639998670164579","0.0","-0.13639998575169651","-2.5790588223346321e-16","-0.079399986303970493","0.0","SIDE","-5.761066645822265e-17","0.069222567942639993","0.72266762360116954","-0.68772068595183677","14.897057739914123","211.34926071077916","49.004686042803726","0.007071293","0.000009174","151"
"152","yellowsaltcube","0.0","-0.51939999090471112","0.83600001363083731","-0.34839998930189658","0.54900000977795638","-0.04739998478405176","0.18100000533741009","SIDE","0.99926386359268504","-0.010576421001671967","-0.036876418435296453","-2.3604194169115363e-16","8.3276634062066108","-3.5500432998032396","-142.23029078199744","0.014233375","0.000125333","152"
"153","yellowsaltcube","0.0","-0.26839998876173221","0.94719999999999882","-0.80739999480508529","0.94719999999999971","-0.72439999412242861","0.94720000000000037","SIDE","0.50036834451849388","-0.56314877613666836","-0.42676280946612027","-0.50036834451849399","-31.286937358903081","-245.02101034268287","72.099668044158236","0.004518343","0.000085463","153"
"154","yellowsaltcube","0.0","-0.58739999087491102","0.9471999999999986","-0.50739999033473626","0.94719999999999949","-0.3283999883519465","0.94719999999999971","SIDE","3.9223416006529151e-16","0.096439441891427183","0.69997319495485932","0.70762769900022759","-28.352478789358759","-223.72223154326164","72.131357342046329","0.008080626","0.000014297","154"
"155","yellowsaltcube","0.0","-0.31439998768698418","0.0","-0.2113999860543738","0.0","0.01160001801829939","4.8735612658334647e-15","SIDE","4.11845868068556e-16","0.096439441891427197","0.69997319495485921","0.70762769900022759","-28.352478789358759","-223.72223154326164","72.131357342046357","0.006241069","0.000018087","155"
"156","yellowsaltcube","0.0","-0.26039998838175332","0.0","-0.81639999523255369","1.9071044221234599e-15","-0.15539998665414739","-9.5004046007165802e-16","SIDE","-0.48629196059880764","-0.46205542998896709","0.55995092439574201","-0.48629196059880775","16.04911801589903","223.37650394423522","49.659060352658315","0.000602589","0.000095999","156"
"157","yellowsaltcube","0.0","-0.26439998857173508","0.94719999999999949","-0.79439999418760976","0.94719999999999815","-0.73939999483488672","0.94720000000001325","SIDE","0.51930751632597794","0.39978165986841602","-0.54846515970254839","0.51930751632597816","30.208526255967925","239.53670868589393","55.90622250895926","0.003533202","0.000049591","157"
"158","yellowsaltcube","0.0","-0.57139999337457303","0.94719999999999938","-0.51439999066721931","0.94719999999999938","-0.32439998816195997","0.9472000000000016","SIDE","0.73441173263048565","0.67051175635720561","-0.10513511098326388","-9.4482340022725179e-17","26.872947918952228","218.26365852877294","57.606600182434235","0.006814307","0.000012860","158"
"159","yellowsaltcube","0.0","-0.30039998702201742","0.0","-0.22239998657684679","0.0","0.013600018113292971","0.0","SIDE","0.73441173263048565","0.67051175635720561","-0.10513511098326392","-1.1337880802727021e-16","26.872947918952232","218.26365852877294","57.606600182434242","0.006635008","0.000014225","159"
"160","yellowsaltcube","0.0","0.029600015613623409","0.0","-0.46639999164696322","-6.6392197897122094e-16","-0.42039998946208529","0.0","SIDE","0.51930751632597794","0.39978165986841607","-0.54846515970254839","0.51930751632597816","30.208526255967925","239.53670868589393","55.906222508959274","0.006081453","0.000067535","160"
"161","yellowsaltcube","0.0","0.041600016183593241","3.2956549402719248e-15","-0.47839999221693669","-5.5597812243671103e-16","-0.38739998789467178","0.0","SIDE","0.50036834451849366","-0.56314877613666847","-0.42676280946612016","-0.5003683445184941","-31.286937358903081","-245.02101034268287","72.099668044158236","0.003035825","0.000089026","161"
"162","yellowsaltcube","0.0","-0.31139998754448861","0.94719999999999605","-0.51139999052472029","0.94719999999999938","-0.42139998950958379","0.94719999999999938","SIDE","0.70658625414105669","-0.033554224552436632","-0.018596906530504671","0.70658625414105702","8.0254993539903303","-3.46338048483058","-138.14235872043756","0.007335514","0.000008587","162"
"163","yellowsaltcube","0.0","-0.51439999066722197","0.94719999999999815","-0.41439998917710058","0.94719999999999915","-0.38539998779967449","0.94719999999999938","SIDE","-5.9392112367177484e-17","-0.13792553595377141","-0.69970531138485226","0.70099145768810345","33.038160377392991","210.6406248223185","125.55017291471771","0.008600960","0.000010709","163"
"164","yellowsaltcube","0.0","-0.51639999076221554","0.94719999999999815","-0.37939999077431857","0.94719999999999949","-0.42039998946208867","0.94720000000000149","SIDE","0.70138399975085541","-0.69621036110935353","0.15281236199167803","9.8931454187321828e-17","-42.088265719505635","-214.35058887358926","125.41577993734099","0.007889831","0.000011401","164"
