ipa320/cob_manipulation/cob_grasp_generation/files/database/yellowsaltcube/yellowsaltcube_opt3.csv
"id","object","sdh_knuckle_joint","sdh_finger_12_joint","sdh_finger_13_joint","sdh_finger_22_joint","sdh_finger_23_joint","sdh_thumb_2_joint","sdh_thumb_3_joint","direction","qw","qx","qy","qz","pos-x","pos-y","pos-z","eps_l1","vol_l1"
"0","yellowsaltcube","0.0","-0.64239999348725974","0.46999999999999942","-0.64239999348726295","0.4699999999999997","-0.4983999899072642","0.46999999999999931","SIDE","0.51930751632597838","0.54846515970254817","0.39978165986841613","-0.51930751632597827","31.922642902781018","250.46869280333129","55.032417314933461","0.007877633","0.000067808","0"
"1","yellowsaltcube","0.0","-0.89039999548774951","0.94719999999998949","1.0986000337920909","1.570796326794897","-0.69039999250751205","0.94720000000000415","SIDE","1.5710344274004695e-16","0.70668281054935256","0.52917264898860039","0.46965488695046642","-162.14875212794544","-86.663347914442411","173.99055730154026","0.000003907","0.000000063","1"
"2","yellowsaltcube","0.0","-0.85139999689497092","0.94719999999999949","1.098600033792106","1.5707963267948959","-0.68539999227003734","0.9472000000000016","SIDE","-0.43126003158889731","-0.49645576894908688","0.75335679105661091","1.4737014888629696e-16","155.8534188573235","70.182154103189447","192.04484265240183","0.000972594","0.000022377","2"
"3","yellowsaltcube","0.0","1.032600030657274","1.570796326794897","-0.28939998649954229","0.47000000000000219","-0.86039999732245098","0.46999999999999947","SIDE","0.5542288454871761","-0.52000470813666733","-0.33949355984407559","-0.55422884548717632","-32.594643234696633","-253.67501579611053","61.654189753918615","0.000015893","0.000000166","3"
"4","yellowsaltcube","0.0","1.0326000306572749","1.570796326794897","-0.43839999031703908","0.46999999999999881","-0.89439999567773287","0.46999999999999809","SIDE","0.45428366763786765","-0.43553188622007077","0.63052729894950754","0.45428366763786793","-66.733389507235501","-213.33645049633134","77.646885688533388","0.000045878","0.000000474","4"
"5","yellowsaltcube","0.0","1.0326000306572769","1.5707963267948959","-0.28539998630955732","0.46999999999999909","-0.85939999727495164","0.46999999999999847","SIDE","0.55251462559620479","0.33072114219062848","-0.52922462443909135","0.55251462559620479","29.969885421809561","252.61267717645853","63.515772953291474","0.000024483","0.000000229","5"
"6","yellowsaltcube","0.0","-0.37639999063182711","0.47000000000000047","-0.28739998640455727","0.47000000000000008","-0.85539999708496461","0.46999999999999942","SIDE","1.6795884485003553e-16","0.65066549742770918","-0.15375716971512363","0.74363508740399453","-234.81109727862639","59.810262219830875","94.444274003624102","0.005023052","0.000032545","6"
"7","yellowsaltcube","0.0","1.0326000306572749","1.570796326794897","-0.43539999017454389","0.46999999999999892","-0.89239999558273997","0.46999999999999897","SIDE","0.45743135521577899","0.61751314530654289","0.44742667098032063","-0.45743135521577927","59.12279517604734","212.53568435566851","74.961884413962011","0.000001356","0.000000009","7"
"8","yellowsaltcube","0.0","-0.80639999475759172","0.46999999999999997","-0.77139999635480527","0.47000000000000292","-0.57839999370705253","0.46999999999999931","SIDE","0.51930751632597849","0.54846515970254817","0.39978165986841618","-0.51930751632597838","24.201397001029303","201.22552272979055","58.968476617464525","0.005688955","0.000029390","8"
"9","yellowsaltcube","0.0","-0.79739999433011788","0.47000000000000242","-0.76739999616481258","0.4699999999999997","-0.59439999120738529","0.47400000018998861","SIDE","-0.49963138392601164","-0.42739228828396819","0.56397942542946566","-0.49963138392601153","29.026421335093257","192.7431819369101","72.750993644769679","0.002796664","0.000052179","9"
"10","yellowsaltcube","0.0","-0.66139999438971797","0.46999999999999958","-0.63939999334477327","0.47000000000000253","-0.53339999156966567","0.46999999999999931","SIDE","0.72483684925395087","0.13770924713543922","0.6750168184697295","0.0","-240.58020097882471","42.762518561582304","61.400542166219708","0.011015124","0.000101334","10"
"11","yellowsaltcube","0.0","-0.65139999391474135","0.4700000000000002","-0.61639999225233166","0.46999999999999897","-0.54439999209213819","0.46999999999999931","SIDE","0.68892056288341774","-0.1448886013635752","-0.71020824497558588","4.0288499300210085e-17","234.99710937391046","-54.259350481387301","86.078123598055015","0.009930886","0.000100566","11"
"12","yellowsaltcube","0.0","1.032600030657274","1.570796326794897","-0.95339999848007995","0.94719999999999915","-0.78039999678228233","0.94720000000000004","SIDE","0.55464726048517632","-0.52344862568486672","-0.33276774053565117","-0.55464726048517621","-19.208887650273844","-194.39137329201793","25.361997192132954","0.000663060","0.000004319","12"
"13","yellowsaltcube","0.0","-0.65139999391474146","0.47000000000000169","-0.62839999282230274","0.46999999999999992","-0.56939999327957269","0.46999999999999942","SIDE","-3.9210173547529499e-16","0.70786668623091797","-0.16800983163045122","-0.686073939892754","230.16912110124289","-49.480421780559894","84.855917759303679","0.009926333","0.000083881","13"
"14","yellowsaltcube","0.0","1.032600030657274","1.5707963267948959","-0.78939999395013238","0.47000000000000319","-0.65439999405723404","0.60900000334252402","SIDE","0.55464726048517632","-0.52344862568486672","-0.33276774053565122","-0.55464726048517621","-19.208887650273844","-194.39137329201793","25.361997192132947","0.008316906","0.000068248","14"
"15","yellowsaltcube","0.0","-0.64639999367725298","0.47000000000000153","-0.62639999272730229","0.46999999999999892","-0.53139999147467964","0.46999999999999847","SIDE","7.6300650653542524e-17","0.66752940976914932","-0.15843591162743809","0.72753181992269833","-236.53946287319519","61.291326825861688","56.696167916830305","0.007077658","0.000073055","15"
"16","yellowsaltcube","0.0","-0.8233999955650414","0.47000000000000419","-0.78239999687727535","0.4699999999999992","-0.59439999120739329","0.46999999999999831","SIDE","9.5375813316928143e-17","0.66752940976914932","-0.15843591162743809","0.72753181992269833","-187.97457423906812","49.764610113119502","59.626422816833617","0.008896353","0.000101207","16"
"17","yellowsaltcube","7.7715611723760938e-16","1.032600030657274","1.5707963267948959","-0.94239999795761165","0.94719999999999949","-0.77539999654479352","0.94720000000000326","SIDE","0.54763890329613396","0.34338887507790561","-0.53128838088739094","0.54763890329613429","13.446029687913526","193.93898099114159","31.888459755631814","0.000035199","0.000000153","17"
"18","yellowsaltcube","0.0","-0.75139999540485747","0.46999999999999981","-0.75839999573733674","0.46999999999999947","-0.60239999158736679","0.49700000128242933","SIDE","0.50036834451849388","-0.42676280946611994","0.56314877613666847","0.50036834451849421","-24.790182756722736","-197.86650605962919","72.169826673767815","0.009112939","0.000073383","18"
"19","yellowsaltcube","0.0","-0.96039999881256766","0.94719999999999904","-0.91539999667518146","0.94719999999999938","-0.74739999521486544","0.94720000000000126","SIDE","9.537581331692818e-17","0.66752940976914943","-0.15843591162743809","0.72753181992269844","-187.97457423906815","49.76461011311951","59.62642281683361","0.007702391","0.000050741","19"
"20","yellowsaltcube","0.0","-0.46639999164696522","0.47000000000000008","-0.4003999885121387","0.46999999999999997","-0.87739999812990543","0.46999999999999831","SIDE","0.49823581145090923","-0.41012487461028868","0.57906799220955285","0.49823581145090928","-33.587933978987515","-217.88894223062672","40.622516723585193","0.007174439","0.000107798","20"
"21","yellowsaltcube","0.0","-0.93639999767262716","0.94719999999999915","-0.91039999643769254","0.94719999999999971","-0.72339999407492628","0.94720000000000004","SIDE","0.51930751632597827","0.54846515970254828","0.39978165986841629","-0.51930751632597838","24.201397001029299","201.22552272979058","58.968476617464511","0.007472767","0.000055273","21"
"22","yellowsaltcube","0.0","-0.81539999518506145","0.46999999999999981","-0.74039999488238184","0.46999999999999958","-0.64639999367726209","0.54600000360981449","SIDE","-3.9210173547529514e-16","0.70786668623091809","-0.16800983163045133","-0.68607393989275423","181.60423246711588","-37.953705067817701","81.925662859300346","0.008789428","0.000060089","22"
"23","yellowsaltcube","0.0","1.0326000306572729","1.570796326794897","-0.91139999648518988","0.94720000000000115","-0.79739999433011055","0.94719999999999394","SIDE","0.43859596035108317","0.66195171065515879","0.42081718107526345","-0.43859596035108328","65.293857049101291","185.05218207820116","117.46046467517303","0.000005697","0.000000026","23"
"24","yellowsaltcube","1.110223024625157e-16","1.0326000306572769","1.5707963267948959","-0.78439999697227036","0.46999999999999942","-0.65939999429471907","0.63800000471995533","SIDE","0.54763890329613396","0.34338887507790578","-0.53128838088739105","0.5476389032961344","13.446029687913533","193.93898099114159","31.888459755631814","0.005604245","0.000045815","24"
"25","yellowsaltcube","0.0","-0.47539999207444389","0.46999999999999942","-0.3993999884646281","0.46999999999999958","-0.87639999808240854","0.46999999999999992","SIDE","-2.1528547145470684e-16","0.70908484838502306","-0.11723286487612627","-0.69530937947342886","212.54309211422796","-31.529267124621676","45.598407868434499","0.008707501","0.000039300","25"
"26","yellowsaltcube","0.0","1.032600030657276","1.570796326794897","-0.92739999724514577","0.94719999999999949","-0.79139999404512851","0.94719999999999949","SIDE","0.44731603100784045","-0.42040323600309604","0.65044435270429579","0.44731603100784073","-68.257428150934615","-186.39281390893547","111.14294963527988","0.000000668","0.000000005","26"
"27","yellowsaltcube","0.0","-0.60239999158737023","0.47000000000000342","-0.64239999348725796","0.46999999999999931","-0.54039999190215571","0.4699999999999982","SIDE","0.50036834451849399","-0.42676280946611983","0.56314877613666847","0.50036834451849421","-31.614504792572447","-247.3985481904042","72.096130634532145","0.006265900","0.000047029","27"
"28","yellowsaltcube","0.0","-0.88739999534526137","0.94719999999999571","-0.89239999558274097","0.94719999999999938","-0.74639999516736544","0.94719999999999949","SIDE","0.50036834451849377","-0.42676280946611983","0.56314877613666858","0.50036834451849421","-24.790182756722736","-197.86650605962919","72.169826673767815","0.008981506","0.000060448","28"
"29","yellowsaltcube","0.0","-0.48939998947978158","0.46999999999999942","-0.41139998903460567","0.46999999999999942","-0.87739999812990632","0.47000000000000303","SIDE","0.7178446785989252","0.1215481583081072","0.68551080415928756","7.7330309586752636e-17","-210.76908589097789","31.902571406926093","33.619144071504572","0.008614856","0.000038626","29"
"30","yellowsaltcube","0.0","-0.81639999523256823","0.46999999999999942","-0.73639999469239592","0.46999999999999958","-0.63239999301229044","0.46999999999999992","SIDE","0.68892056288341774","-0.1448886013635752","-0.71020824497558588","4.0288499300210085e-17","186.06940298460751","-44.277676800708711","83.539277794415497","0.005664247","0.000068485","30"
"31","yellowsaltcube","0.0","-0.80339999461509215","0.9471999999999986","-0.73539999464489403","0.94719999999999938","-0.15839998679663889","0.94720000000000004","SIDE","0.7054503601628338","-0.054075650849767537","-0.041897525910598837","0.70545036016283436","36.498324078023892","-38.624531808520274","-210.51297152441208","0.000270050","0.000007881","31"
"32","yellowsaltcube","0.0","-0.44539999064952251","0.46999999999999942","-0.39039998803717252","0.46999999999999897","-0.89939999591522135","0.46999999999999847","SIDE","0.48629196059880797","0.55995092439574168","0.46205542998896698","-0.48629196059880814","15.420721554527228","216.81619000447935","49.302128940910571","0.002949970","0.000042696","32"
"33","yellowsaltcube","0.0","-0.89839999586772468","0.94719999999999938","-0.9013999960102157","0.94719999999999849","-0.74139999492987974","0.94720000000000426","SIDE","-0.49963138392601153","-0.42739228828396825","0.56397942542946566","-0.49963138392601153","29.026421335093254","192.7431819369101","72.750993644769679","0.006474092","0.000057920","33"
"34","yellowsaltcube","1.110223024625157e-16","1.032600030657276","1.570796326794897","-0.74739999521486156","0.47000000000000042","-0.62539999267980906","0.4710000000474947","SIDE","0.43859596035108317","0.66195171065515879","0.42081718107526345","-0.43859596035108328","65.293857049101291","185.05218207820118","117.46046467517303","0.008730371","0.000076723","34"
"35","yellowsaltcube","0.0","-0.83739999623000672","0.46999999999999931","-0.76339999597482255","0.46999999999999847","-0.60139999153986923","0.4699999999999992","SIDE","0.72483684925395087","0.13770924713543919","0.67501681846972938","1.9146084835640426e-17","-191.65249458952215","32.780844880903707","63.939387969859204","0.005982535","0.000064528","35"
"36","yellowsaltcube","0.0","-0.80439999466259438","0.94719999999999915","1.0986000337921009","1.5707963267948959","-0.1213999850392386","0.94719999999999993","SIDE","0.7029618793870922","-0.095086885564991439","-0.051455577449723462","0.7029618793870922","66.412186221737286","-52.9244927314273","-202.70328351860601","0.000001842","0.000000147","36"
"37","yellowsaltcube","0.0","-0.80639999475759028","0.94719999999999582","1.098600033792104","1.570796326794897","-0.1163999848017389","0.94720000000000004","SIDE","0.70373554911620573","-0.047069628033498553","0.085422502521363408","-0.70373554911620606","-64.309130881566404","49.991419632436859","-204.44678188967245","0.000003356","0.000000037","37"
"38","yellowsaltcube","0.0","1.0326000306572809","1.570796326794897","-0.7663999961173158","0.46999999999999942","-0.63439999310728856","0.51400000208988683","SIDE","0.4473160310078404","-0.42040323600309604","0.65044435270429579","0.44731603100784068","-68.257428150934615","-186.39281390893547","111.14294963527986","0.008155654","0.000097273","38"
"39","yellowsaltcube","0.0","-0.76639999611731868","0.94719999999999527","-0.80639999475759017","0.94719999999999938","-0.71939999388493392","0.9471999999999986","SIDE","0.50036834451849399","-0.42676280946611983","0.56314877613666847","0.50036834451849421","-31.614504792572433","-247.39854819040417","72.09613063453213","0.001957149","0.000058542","39"
"40","yellowsaltcube","0.0","-0.75939999578484174","0.94719999999999827","-0.78539999376013514","0.94719999999999949","-0.13539998570419659","0.94720000000000026","TOP","0.048371369074356865","0.78864187840884625","0.61103552182136811","0.048371369074356511","-41.077277361672763","-28.780892174467219","357.02517176243305","0.008865492","0.000015741","40"
"41","yellowsaltcube","0.0","-0.79239999409262452","0.94719999999999815","1.098600033792102","1.5707963267948959","-0.1853999848194624","0.94719999999999949","SIDE","0.70442590126123439","-0.077339373594459471","0.039836171460258439","-0.70442590126123505","-49.437636243678583","17.883774935094298","-209.552338744569","0.000259207","0.000000355","41"
"42","yellowsaltcube","0.0","-0.93739999772012417","0.94719999999999815","-0.87339999793991485","0.94719999999999938","-0.77739999663979098","0.94720000000000026","SIDE","-3.9210173547529514e-16","0.70786668623091809","-0.16800983163045133","-0.68607393989275423","181.70136225044465","-37.976758502681676","81.931523369466063","0.007418463","0.000046474","42"
"43","yellowsaltcube","0.0","-0.93439999757763004","0.94719999999999849","-0.87339999793991419","0.94719999999999949","-0.77239999640230239","0.94719999999999915","SIDE","0.68892056288341774","-0.14488860136357523","-0.71020824497558588","2.0144249650105042e-17","186.06940298460748","-44.277676800708704","83.539277794415511","0.008167782","0.000047193","43"
"44","yellowsaltcube","0.0","-0.97439999947752964","0.9471999999999976","-0.90039999596271592","0.94719999999999938","-0.74839999526236656","0.94719999999999949","SIDE","0.72483684925395098","0.13770924713543917","0.67501681846972927","3.8292169671280853e-17","-191.750350008407","32.800808229510814","63.934310277935069","0.006689302","0.000043197","44"
"45","yellowsaltcube","0.0","-0.43139998998455942","0.46999999999999958","-0.39739998836963869","0.46999999999999831","-0.87639999808240898","0.46999999999999931","SIDE","0.71871055844218357","0.1134157688007152","0.68599708204267695","9.6546430581837969e-17","-213.73354314726666","38.946968963736282","31.293715872263927","0.007021846","0.000036322","45"
"46","yellowsaltcube","0.0","-0.45239999098200512","0.46999999999999881","-0.41239998908210251","0.46999999999999942","-0.87639999808240876","0.46999999999999947","SIDE","-2.1597536088013498e-16","0.70681982085299999","-0.12532646744453863","-0.69620328741482251","209.08234748556742","-42.541431780636074","46.673942544572242","0.007834179","0.000061074","46"
"47","yellowsaltcube","0.0","-0.79539999423511643","0.94719999999999904","-0.764399996022323","0.94719999999999949","-0.15739998674913949","0.94719999999999915","SIDE","0.70457480464512601","-0.070952766401551182","-0.04598254297591458","0.70457480464512623","39.218192644739247","-42.795750902918982","-208.30045115675367","0.004643660","0.000016417","47"
"48","yellowsaltcube","3.1485231088979049e-16","-0.7863999938076337","0.94719999999999616","-0.76839999621231425","0.94719999999999949","-0.1543999866066513","0.94720000000000004","TOP","0.059785823229947098","0.83617702033018659","0.5419034059250466","0.059785823229946855","-54.738991077564854","-22.732248420394452","353.74718896372832","0.007711109","0.000016872","48"
"49","yellowsaltcube","0.0","-0.74139999492988173","0.94719999999999815","1.098600033792116","1.570796326794897","-0.22939998690933089","0.94719999999999949","TOP","-1.10179146779905e-16","0.8187177282375373","-0.57157217854593501","-0.054831799002220634","26.466567650111237","13.132269049936252","356.38988907272483","0.000001818","0.000000002","49"
"50","yellowsaltcube","0.0","-0.58139999384954688","0.46999999999999947","-0.64439999358225519","0.46999999999999892","-0.53439999161717144","0.4699999999999992","SIDE","-0.49963138392601153","-0.42739228828396825","0.56397942542946566","-0.49963138392601153","35.850743370942737","242.27522406768421","72.824689684005349","0.007351033","0.000099639","50"
"51","yellowsaltcube","0.0","-0.80239999456760069","0.94719999999999949","-0.77239999640230217","0.94719999999999949","-0.14139998598918219","0.94719999999999938","SIDE","0.70604301349782495","-0.0095967489557383778","0.053985447958689807","-0.70604301349782528","-24.638219154724528","48.810101983937095","-209.38748692478737","0.008613794","0.000022894","51"
"52","yellowsaltcube","0.0","-0.68839999241251892","0.46999999999999797","-0.72039999393243681","0.50800000180490312","-0.64639999367725509","0.46999999999999981","SIDE","-0.47991635051052761","0.59348275917974413","0.43259543176241488","0.47991635051052789","-37.954633172158523","-195.18200059749825","90.653754341372888","0.005931087","0.000081076","52"
"53","yellowsaltcube","0.0","-0.72839999431241487","0.46999999999999847","0.3656000217938829","1.262000014800567","-0.32539998820945942","0.46999999999999859","SIDE","2.7343277549412313e-16","0.43951057868717075","0.24975511716621526","0.86281680133812777","-144.53248425687667","-47.768639292706027","-52.459544736091821","0.004059974","0.000066136","53"
"54","yellowsaltcube","0.0","-0.32839998835194811","0.47000000000000069","-0.39239998813216181","0.46999999999999931","-0.87339999793991363","0.46999999999999859","SIDE","0.51334211697168131","-0.43770778497618434","0.53044475382202416","0.51334211697168153","-26.453333444475867","-220.33927411740751","25.517517656263202","0.005943408","0.000040321","54"
"55","yellowsaltcube","0.0","-0.61939999239482124","0.46999999999999931","-0.83639999618250715","0.46999999999999942","-0.38739998789467173","0.46999999999999842","SIDE","0.62388243777012631","0.17439378621179116","0.43718213025548558","-0.62388243777012686","-48.043813785545012","167.03942703237999","-49.884959867033459","0.007824681","0.000075785","55"
"56","yellowsaltcube","0.0","-0.73339999454990534","0.94719999999999949","1.098600033792112","1.570796326794897","-0.60139999153987311","0.94719999999999949","SIDE","9.1300680083088168e-17","-0.35295447964556254","-0.20897132391371082","0.91200554882077389","126.26230313316667","109.05347236783668","-59.95584031484622","0.000003163","0.000000101","56"
"57","yellowsaltcube","0.0","-0.74539999511986987","0.94719999999999938","-0.80839999485258274","0.94719999999999915","-0.71439999364745121","0.94720000000000459","SIDE","-0.49963138392601153","-0.42739228828396825","0.56397942542946566","-0.49963138392601153","35.850743370942737","242.27522406768421","72.824689684005349","0.003987212","0.000050569","57"
"58","yellowsaltcube","0.0","-0.41939998941458562","1.2942000067027259","1.098600033792114","1.5707963267948959","-0.28039998933169891","0.94719999999999949","SIDE","0.50620998966409581","0.80106178926965166","0.31945493600252944","1.0966032351138147e-16","-58.579274427218657","140.90233101906287","84.870772651302829","0.004834849","0.000009395","58"
"59","yellowsaltcube","0.0","-0.34239998901690688","0.94719999999999938","-0.75239999545235015","0.94719999999999949","-0.1803999878415849","0.94719999999999938","TOP","-0.068965766218553076","-0.48030453871675216","0.87166220307402553","0.068965766218553312","41.405726973734019","19.389838558547588","351.66788936920869","0.007835606","0.000016347","59"
"60","yellowsaltcube","0.0","-0.74239999497737941","0.94719999999999793","-0.85739999717995563","0.94719999999999949","-0.78139999682977923","0.94719999999999993","SIDE","-0.47991635051052778","0.59348275917974425","0.43259543176241499","0.47991635051052789","-37.954633172158523","-195.18200059749822","90.653754341372903","0.001157931","0.000039077","60"
"61","yellowsaltcube","0.0","1.032600030657278","1.5707963267948959","-0.74739999521486389","0.94719999999999938","-0.1853999848194498","0.94719999999999971","TOP","0.076449958329401005","0.87432952538478648","0.47313707187587778","0.076449958329400783","-50.281808006634286","-18.180217845942703","350.45520422107802","0.000605504","0.000000683","61"
"62","yellowsaltcube","0.0","-0.75739999568983907","0.94719999999999616","1.098600033792108","1.5707963267948959","-0.179399987794086","0.94719999999999949","TOP","0.061515442226299913","0.88562897340213609","-0.45617214097978825","-0.061515442226300267","44.197429553306748","47.85261184380397","349.06218706627686","0.000016569","0.000000033","62"
"63","yellowsaltcube","0.0","-0.56539999308958755","0.46999999999999847","1.0986000337921","1.5707963267948959","-0.049399984879044539","0.46999999999999909","TOP","-1.0170382779683537e-16","0.81871772823753719","-0.57157217854593501","-0.05483179900222062","26.466567650111241","13.13226904993625","356.38988907272483","0.000547799","0.000000716","63"
"64","yellowsaltcube","0.0","-0.78239999687727768","0.47000000000000203","-0.84739999670498278","0.46999999999999942","-0.28439998952169082","0.46999999999999958","SIDE","1.7378357504730837e-16","0.68599708204267695","-0.11341576880071533","0.71871055844218346","-230.79249733787054","41.767322657811249","30.721263466271907","0.000988955","0.000042378","64"
"65","yellowsaltcube","0.0","1.0326000306572749","1.570796326794897","-0.73239999450240345","0.94719999999999949","-0.28939998649954762","0.94719999999999949","TOP","-0.038771936899127668","-0.174758294127009","0.98308342090180623","0.038771936899127876","25.918888101049362","13.514621089234065","350.32656863779476","0.000018119","0.000000038","65"
"66","yellowsaltcube","0.0","-0.77939999673478433","0.47000000000000008","-0.85039999684747503","0.47000000000000008","-0.30239998711701849","0.46999999999999859","SIDE","0.69620328741482218","-0.12532646744453868","-0.70681982085300032","-1.1960116872771031e-16","227.38810650963435","-45.787232258624798","47.243139112593148","0.000028638","0.000023642","66"
"67","yellowsaltcube","0.0","-0.77839999668728532","0.46999999999999942","0.18260001962110989","1.525000017513509","-0.32239998806696879","0.8930000070529075","SIDE","0.34478535303185309","0.28059844589076505","0.82674701864179012","-0.34478535303185309","-83.789253185585721","111.63382944940092","199.46196619752055","0.000284655","0.000055157","67"
"68","yellowsaltcube","0.0","-0.34639998920689991","0.51400000208988517","1.0986000337921129","1.570796326794897","-0.111399984564256","0.72300000549760024","SIDE","0.0","-5.7761017767027376e-05","-0.70478710584743254","0.70941886928306652","-2.1608569744729911","164.45847906676977","143.88542803616568","0.011262705","0.000046203","68"
"69","yellowsaltcube","0.0","1.032600030657276","1.570796326794897","-0.80739999480508207","0.94720000000000126","-0.16539998712912271","0.94719999999999938","TOP","-0.086995972691811904","-0.30367183843273698","0.94879666698312515","5.4850218271508539e-17","43.916788473432391","47.762789866521373","347.3879191793028","0.000005580","0.000000034","69"
"70","yellowsaltcube","0.0","-0.38439999101180311","0.46999999999999992","1.0986000337921009","1.5707963267948959","-0.25139998795427909","0.46999999999999892","SIDE","0.60523182607213954","0.39834677980433764","-0.32971004904048723","-0.60523182607214021","174.43540202115364","16.111704367265165","-93.380273074739932","0.000054114","0.000000069","70"
"71","yellowsaltcube","0.0","1.0326000306572769","1.570796326794897","-0.29839998692702502","0.94719999999999849","-0.64339999353476296","0.94719999999999949","SIDE","0.70442590126123461","0.039836171460258717","0.077339373594459193","0.70442590126123483","-47.423624018711578","18.528379639417668","-197.5370058727259","0.001276516","0.000001370","71"
"72","yellowsaltcube","0.0","-0.17639998765159551","0.94719999999999882","-0.58739999087490491","0.94720000000000149","-0.35139998944438872","0.94720000000000115","SIDE","-0.36564249850008296","0.65936577378157679","-0.54575443465596885","0.3656424985000829","-177.28597443476011","-17.046428986142779","92.289929717713107","0.002314041","0.000014185","72"
"73","yellowsaltcube","0.0","-0.633399993059791","0.46999999999999947","-0.55739999270960772","0.46999999999999942","0.0146000181607961","0.46999999999999892","SIDE","0.7054503601628338","-0.054075650849767537","-0.041897525910598837","0.70545036016283436","36.498324078023899","-38.624531808520267","-210.51297152441208","0.007989206","0.000022430","73"
"74","yellowsaltcube","0.0","1.0326000306572789","1.570796326794897","-0.26039998838174411","0.94719999999999949","-0.68939999246001626","0.94719999999999938","SIDE","0.70373554911620595","0.08542250252136363","0.047069628033498151","0.70373554911620584","-62.556229833617529","49.484002372255588","-195.22561837674957","0.000302167","0.000000226","74"
"75","yellowsaltcube","0.0","1.032600030657272","1.570796326794897","-0.51639999076221244","1.2392000073499969","-0.26439998857174141","0.94719999999999949","SIDE","3.0531537729548346e-16","5.8140614996246558e-05","0.70941886690060207","0.70478710821434221","-2.1879835871481124","-166.53442209363001","146.05356550448101","0.009159450","0.000024262","75"
"76","yellowsaltcube","0.0","1.032600030657272","1.570796326794897","-0.51639999076221255","1.2390000137081369","-0.12539998522922449","0.4699999999999987","SIDE","3.0531537729548346e-16","5.8140614996246551e-05","0.70941886690060185","0.70478710821434221","-2.1879835871481119","-166.53442209363001","146.05356550448101","0.006077249","0.000014944","76"
"77","yellowsaltcube","0.0","-0.54739999223463376","0.94719999999999815","1.098600033792114","1.5707963267948959","-0.42839998984205713","0.94719999999999949","SIDE","0.60523182607213954","0.3983467798043378","-0.32971004904048734","-0.60523182607214021","174.43540202115364","16.111704367265169","-93.380273074739961","0.000114265","0.000000163","77"
"78","yellowsaltcube","0.0","-0.46639999164696788","0.94719999999999938","1.0986000337921069","1.570796326794897","-0.19539998529441541","0.94719999999999971","SIDE","0.0","-5.7761017767027376e-05","-0.70478710584743254","0.70941886928306652","-2.1608569744729911","164.45847906676977","143.88542803616568","0.000362098","0.000000391","78"
"79","yellowsaltcube","3.3306690738754701e-16","-0.55439999256711481","0.94719999999999915","1.0986000337921289","1.570796326794897","-0.15839998679663711","0.94719999999999949","SIDE","0.62100627222064531","-0.4757536578410258","0.048588854443373464","-0.62100627222064553","-127.38888277152016","-81.127623316365145","39.99384967833808","0.000883800","0.000000712","79"
"80","yellowsaltcube","0.0","-0.65039999386724434","0.46999999999999842","1.098600033792112","1.570796326794897","0.043600016278585757","0.46999999999999892","SIDE","0.7029618793870922","-0.095086885564991439","-0.051455577449723469","0.70296187938709231","66.412186221737286","-52.924492731427307","-202.70328351860599","0.000089394","0.000000267","80"
"81","yellowsaltcube","0.0","-0.52939999137967964","0.94719999999999938","1.0986000337921069","1.570796326794897","-0.46939999178946118","0.94720000000000026","SIDE","0.50620998966409581","0.80106178926965166","0.31945493600252944","1.0966032351138147e-16","-74.750402412417259","181.4528790257115","109.24591728773048","0.000007051","0.000000014","81"
"82","yellowsaltcube","0.0","-0.65139999391473591","0.46999999999999897","1.0986000337921209","1.5707963267948959","0.04760001646857967","0.46999999999999831","SIDE","0.70373554911620584","-0.04706962803349856","0.085422502521363394","-0.70373554911620606","-64.309130881566418","49.991419632436852","-204.44678188967245","0.000020884","0.000000025","82"
"83","yellowsaltcube","0.0","-0.36039998987186589","0.46999999999999931","1.098600033792112","1.5707963267948959","-0.28839998645205023","0.46999999999999847","SIDE","0.50620998966409592","0.80106178926965166","0.31945493600252939","1.0966032351138147e-16","-74.750402412417259","181.45287902571147","109.24591728773046","0.000023770","0.000000109","83"
"84","yellowsaltcube","0.0","1.03260003065727","1.570796326794897","-0.26039998838174888","0.94719999999999971","-0.69339999265001184","0.94719999999999938","SIDE","0.70296187938709209","0.051455577449723247","-0.095086885564991799","-0.70296187938709254","64.228294483656072","-52.274264453873499","-192.35109479447755","0.000015988","0.000000017","84"
"85","yellowsaltcube","0.0","-0.58739999087490624","0.46999999999999981","-0.77539999654479319","0.46999999999999981","-0.62039999244232358","0.56000000427477026","SIDE","-2.7356628240225703e-16","0.71020824497558577","-0.14488860136357523","-0.68892056288341796","181.86162029153954","-43.419252875678715","83.320937058232175","0.009563266","0.000074717","85"
"86","yellowsaltcube","0.0","-0.59839999139737676","0.46999999999999842","-0.60739999182484949","0.46999999999999942","0.034600015851105753","0.4699999999999992","TOP","0.048371369074356865","0.78864187840884625","0.611035521821368","0.048371369074356525","-41.07727736167277","-28.780892174467215","357.0251717624331","0.009973237","0.000025269","86"
"87","yellowsaltcube","0.0","-0.61239999206234175","0.47000000000000008","-0.47739999216943579","0.46999999999999881","-0.0053999827891554521","0.46999999999999931","SIDE","0.70442590126123461","-0.077339373594459471","0.039836171460258439","-0.70442590126123483","-49.437636243678583","17.883774935094298","-209.55233874456903","0.007010574","0.000019178","87"
"88","yellowsaltcube","0.0","-0.7423999949773793","0.46999999999999909","0.035600015898606278","0.46999999999999947","-0.51039999047722762","0.46999999999999847","SIDE","1.9637930342505868e-16","0.70668281054935267","0.52917264898860039","0.46965488695046637","-162.14875212794541","-86.663347914442411","173.99055730154026","0.000571811","0.000087096","88"
"89","yellowsaltcube","0.0","-0.61339999210984009","0.46999999999999842","-0.58739999087490546","0.46999999999999947","0.01460001816079669","0.46999999999999648","SIDE","0.70457480464512601","-0.070952766401551182","-0.045982542975914573","0.70457480464512623","39.218192644739247","-42.795750902918982","-208.30045115675367","0.005116071","0.000010906","89"
"90","yellowsaltcube","0.0","1.032600030657276","1.570796326794897","-0.57339999346956649","0.46999999999999947","-0.0073999828841610901","0.46999999999999892","TOP","0.076449958329401005","0.87432952538478648","0.47313707187587789","0.076449958329400783","-50.2818080066343","-18.180217845942703","350.45520422107808","0.000051385","0.000000049","90"
"91","yellowsaltcube","0.0","-0.60539999172986447","0.46999999999999931","-0.59039999101738294","0.46999999999999942","0.01960001513864865","0.46999999999999909","TOP","0.059785823229947112","0.83617702033018659","0.5419034059250466","0.059785823229946855","-54.738991077564862","-22.732248420394448","353.74718896372832","0.007655796","0.000017856","91"
"92","yellowsaltcube","0.0","-0.62139999248981304","0.47000000000000219","-0.59539999125487186","0.46999999999999897","0.02460001537613753","0.4699999999999992","SIDE","0.70604301349782495","-0.0095967489557383691","0.053985447958689807","-0.70604301349782528","-24.638219154724531","48.810101983937095","-209.38748692478737","0.009434812","0.000019009","92"
"93","yellowsaltcube","0.0","-0.28839998645205089","0.94719999999999815","-0.2623999884767429","0.94719999999999949","-0.65639999415222727","0.94720000000000026","TOP","0.048371369074356775","-0.61103552182136833","0.78864187840884592","-0.048371369074356567","-39.276342736292555","-29.009414430534953","343.84964911740786","0.005017947","0.000012133","93"
"94","yellowsaltcube","0.0","-0.34139998896941171","0.46999999999999981","-0.109399984469263","0.46999999999999931","-0.26039998838175249","0.46999999999999942","SIDE","1.6440132201382969e-16","-0.2630012350771968","0.84414088876043436","0.46717931275968655","55.795090835732651","-186.59946602980429","132.77684639792648","0.003870926","0.000019246","94"
"95","yellowsaltcube","0.0","-0.51039999047723017","0.94719999999999938","-0.89939999591522035","0.94720000000000093","-0.74639999516736888","0.94719999999999827","SIDE","0.49963138392601164","0.56397942542946533","0.42739228828396825","-0.49963138392601203","29.422232037871645","195.61604055975755","72.755268015310179","0.007872281","0.000036798","95"
"96","yellowsaltcube","0.0","-0.55239999247212623","0.94719999999999815","1.098600033792116","1.570796326794897","-0.42339998960455338","0.94720000000000448","SIDE","0.3656424985000829","0.5457544346559694","0.65936577378157624","0.3656424985000829","-203.63643511153336","-19.530588743073562","106.20007480707238","0.000144937","0.000000133","96"
"97","yellowsaltcube","0.0","-0.51039999047723428","0.46999999999999881","-0.76639999611731524","0.46999999999999931","-0.60439999168235869","0.50200000151991653","SIDE","0.49963138392601153","0.56397942542946522","0.42739228828396825","-0.49963138392601203","29.422232037871648","195.61604055975755","72.755268015310179","0.008533755","0.000070025","97"
"98","yellowsaltcube","0.0","-0.54239999199715228","0.46999999999999958","-0.74639999516736721","0.46999999999999897","-0.65039999386724301","0.56400000446476151","SIDE","1.7231476352076391e-16","0.67501681846972983","-0.13770924713543906","0.72483684925395064","-186.8575793831437","31.802640864230014","64.188194857586851","0.008364139","0.000063148","98"
"99","yellowsaltcube","3.3306690738754701e-16","-0.37039999034684062","0.4700000000000023","1.098600033792112","1.570796326794897","-0.26739998871423232","0.46999999999999881","SIDE","0.62963632737971431","0.27723874207385257","0.36090839610748698","0.62963632737971387","-157.34977988975126","-20.883559750106667","-113.26146086178568","0.000459831","0.000000835","99"
"100","yellowsaltcube","0.0","1.0326000306572749","1.570796326794897","-0.55839999275710495","0.46999999999999931","-0.1103999845167648","0.46999999999999909","TOP","-0.038771936899127668","-0.174758294127009","0.98308342090180623","0.038771936899127876","25.918888101049365","13.514621089234074","350.32656863779471","0.000418922","0.000000651","100"
"101","yellowsaltcube","0.0","1.032600030657272","1.570796326794897","-0.80539999471009205","0.94719999999999949","0.073600017703512016","0.94719999999999949","TOP","-0.223650559092409","0.34964251696278814","0.88187922368498517","-0.22365055909240925","167.13139087165513","61.336430599386979","280.31370958462628","0.000002219","0.000000007","101"
"102","yellowsaltcube","0.0","-0.41339998912960951","0.46999999999999947","-0.30739998735450053","0.47000000000000169","-0.233399987099318","0.46999999999999859","TOP","0.027126840193982194","0.87400352077769461","0.4844028434581843","0.027126840193982087","-27.231884750182232","6.6486898713991067","338.84949331859502","0.006453304","0.000010642","102"
"103","yellowsaltcube","0.0","1.0326000306572769","1.570796326794897","-0.70839999336246362","0.94719999999999938","-0.13939998589418909","0.94719999999999949","SIDE","0.99523235788421582","0.027119577628365983","0.093686083969195907","6.9721345462066364e-18","-61.623835552943312","49.214099543535504","-190.32074360889607","0.000027562","0.000000019","103"
"104","yellowsaltcube","0.0","-0.51139999052473217","0.94719999999999827","-0.277399989189207","0.94719999999999949","-0.42939998988956263","0.94720000000000326","SIDE","1.6440132201382974e-16","-0.2630012350771968","0.84414088876043447","0.46717931275968655","55.795090835732644","-186.59946602980426","132.77684639792648","0.002722922","0.000016097","104"
"105","yellowsaltcube","0.0","-0.68039999529216522","0.52300000251736978","-0.037399984309079669","0.46999999999999942","-0.32139998801946479","0.46999999999999859","SIDE","0.30989738472341755","0.89878900469443768","0.010273603241047291","0.30989738472341744","-114.29739808655582","142.71614390343944","161.8630849932099","0.003837308","0.000088794","105"
"106","yellowsaltcube","0.0","-0.38739998789466779","0.46999999999999909","0.003600017638319694","0.4699999999999992","-0.24139998747930699","0.46999999999999942","SIDE","0.32180443633328837","0.70614637770335431","-0.54243995314583959","-0.32180443633328865","189.96667875773988","24.654289119731661","139.90730580323486","0.003701146","0.000016764","106"
"107","yellowsaltcube","0.0","-0.58239999389704322","0.4699999999999992","1.098600033792104","1.570796326794897","-0.0083999829316491834","0.46999999999999859","TOP","0.061515442226299927","0.88562897340213609","-0.45617214097978825","-0.06151544222630026","44.197429553306748","47.852611843803963","349.06218706627698","0.000430686","0.000000532","107"
"108","yellowsaltcube","0.0","-0.56139999289959752","0.94719999999999649","-0.1733999875091024","0.94719999999999949","-0.42139998950958618","0.94719999999999971","SIDE","0.32180443633328831","0.70614637770335431","-0.5424399531458397","-0.32180443633328865","189.96667875773988","24.654289119731661","139.90730580323486","0.003269547","0.000011295","108"
"109","yellowsaltcube","0.0","-0.87539999803490975","0.94719999999999849","-0.79839999437759646","0.94719999999999849","-0.54839999228213443","0.94720000000000026","SIDE","1.6030174604320622e-16","0.69258323881632433","0.51759004137484799","0.50242313479802414","-130.25763363789309","-115.79179402202432","182.13752109309033","0.000958985","0.000073880","109"
"110","yellowsaltcube","0.0","-0.4473999907445172","0.47000000000000169","-0.61339999210984253","0.46999999999999909","-0.54639999218713686","0.46999999999999947","SIDE","-0.47991635051052772","0.59348275917974425","0.43259543176241499","0.47991635051052789","-45.675879073910238","-244.42517067103827","94.589813643904179","0.009424527","0.000053638","110"
"111","yellowsaltcube","0.0","-0.37939999077431708","0.46999999999999931","1.098600033792112","1.5707963267948959","-0.24639998771678789","0.46999999999999847","SIDE","0.36564249850008296","0.5457544346559694","0.65936577378157635","0.36564249850008296","-203.63643511153339","-19.530588743073565","106.2000748070724","0.000624342","0.000001085","111"
"112","yellowsaltcube","0.0","-0.8673999976549327","0.94719999999999782","0.14560001786369711","1.4052000087153129","-0.51639999076221921","0.94719999999999949","SIDE","0.63025694217908945","0.43697557108704627","-0.12085000597135884","0.63025694217908934","-52.492373872166539","136.36471773950399","-75.349857464387597","0.006666651","0.000048371","112"
"113","yellowsaltcube","0.0","-0.53539999166466523","0.94719999999999815","1.098600033792092","1.5707963267948959","-0.44439999060202229","0.94719999999999971","SIDE","0.62963632737971431","0.27723874207385257","0.36090839610748687","0.62963632737971398","-157.34977988975129","-20.883559750106667","-113.26146086178566","0.000305601","0.000000345","113"
"114","yellowsaltcube","0.0","-0.16639998717662099","0.46999999999999981","-0.57539999356456106","0.46999999999999931","-0.0043999827416687379","0.46999999999999881","TOP","-0.068965766218553062","-0.48030453871675211","0.87166220307402564","0.06896576621855334","41.405726973734005","19.389838558547588","351.66788936920875","0.003511202","0.000008065","114"
"115","yellowsaltcube","0.0","-0.62739999277480196","0.9471999999999936","-0.79339999414011686","0.94719999999999993","-0.6833999954346569","0.94720000000000037","SIDE","-0.47991635051052778","0.59348275917974425","0.43259543176241494","0.479916350510528","-45.675879073910238","-244.4251706710383","94.589813643904179","0.000178229","0.000057309","115"
"116","yellowsaltcube","1.3856103764364739e-16","-0.57839999370705431","0.94719999999999827","-0.48439999250191951","0.94719999999999971","-0.41339998912960402","0.94719999999999938","TOP","0.027126840193982198","0.87400352077769461","0.4844028434581843","0.027126840193982083","-27.231884750182232","6.6486898713991058","338.84949331859502","0.006360038","0.000007986","116"
"117","yellowsaltcube","0.0","-0.44339999055453022","0.57200000158510789","1.0986000337921069","1.5707963267948959","-0.80039999447260901","0.46999999999999831","SIDE","-0.43912456869315714","-0.42848234222619902","0.65630946110843758","-0.43912456869315719","54.043882029133584","158.85165144311134","160.67196088489632","0.002107422","0.000061921","117"
"118","yellowsaltcube","0.0","-0.65739999419972406","0.7280000057350855","0.0096000179232971945","0.46999999999999931","-0.44939999083950888","0.46999999999999909","SIDE","9.1300680083088168e-17","-0.35295447964556254","-0.20897132391371082","0.91200554882077389","126.26230313316667","109.05347236783668","-59.955840314846213","0.010572289","0.000112824","118"
"119","yellowsaltcube","0.0","-0.27539998909421159","0.94719999999999915","-0.25239998800177182","0.94719999999999949","-0.67839999519717042","0.94719999999999938","TOP","0.059785823229947153","-0.54190340592504682","0.83617702033018637","-0.059785823229946911","-52.695727119314036","-23.168564515392731","341.52447601743586","0.005587215","0.000008901","119"
"120","yellowsaltcube","0.0","1.0326000306572749","1.570796326794897","-0.081399986398965035","0.46999999999999942","-0.51639999076221255","0.46999999999999831","SIDE","0.70373554911620584","0.08542250252136363","0.047069628033498172","0.70373554911620595","-62.556229833617529","49.484002372255581","-195.22561837674954","0.000811840","0.000000705","120"
"121","yellowsaltcube","0.0","-0.41939998941458562","1.295000013108371","1.0986000337921149","1.5707963267948959","-0.22739998681433321","0.46999999999999897","SIDE","0.50620998966409569","0.80106178926965188","0.31945493600252939","1.0966032351138151e-16","-58.579274427218657","140.90233101906293","84.870772651302829","0.001752647","0.000018789","121"
"122","yellowsaltcube","3.7209818559702522e-16","-0.1073999843742703","0.46999999999999997","-0.08539998332932594","0.46999999999999897","-0.48439999250192128","0.46999999999999909","TOP","0.048371369074356775","-0.61103552182136833","0.78864187840884592","-0.048371369074356588","-39.276342736292555","-29.009414430534953","343.84964911740786","0.006124395","0.000013562","122"
"123","yellowsaltcube","0.0","-0.47139999188445358","0.46999999999999992","-0.72939999435990532","0.46999999999999942","-0.64839999377224988","0.46999999999999947","SIDE","0.72753181992269844","0.1584359116274382","0.66752940976914932","-7.6300650653542524e-17","-186.61475727246125","49.441862025023212","59.708469959152573","0.007483893","0.000034330","123"
"124","yellowsaltcube","2.2204460492503141e-16","-0.86139999736994322","0.94719999999999882","0.16360001871865559","1.135200005669907","-0.54239999199714606","0.94720000000000149","SIDE","0.62209711972466231","-0.11886429444096941","-0.46028428907318569","-0.62209711972466297","56.978724645288864","-144.36442063185282","-70.076605049536496","0.000799773","0.000046883","124"
"125","yellowsaltcube","0.0","0.42660002143159609","0.94719999999999793","-0.35839998977687448","1.2822000061327561","-0.36439999006185753","0.94719999999999971","SIDE","1.5869539739805199e-16","-0.37824527935323421","-0.60621707659889223","0.69959371401327397","83.403089212498983","136.61778844588125","3.2681637848934741","0.010026713","0.000041928","125"
"126","yellowsaltcube","0.0","-0.37839999072681918","0.94719999999999938","1.098600033792116","1.570796326794897","-0.65439999405723526","0.94719999999999949","TOP","0.076449958329401047","-0.473137071875878","0.87432952538478637","-0.076449958329400755","-47.747669444979536","-18.934728027603761","338.44275864702985","0.000103217","0.000000195","126"
"127","yellowsaltcube","4.4235448637408581e-16","-0.36839999025184589","0.94719999999999904","-0.17739998769909121","0.94719999999999949","-0.66339999448471054","0.94719999999999938","TOP","-0.068965766218553118","0.87166220307402564","0.48030453871675211","-0.068965766218553312","39.018797814926444","20.080789742256357","339.11141101414574","0.005259998","0.000023922","127"
"128","yellowsaltcube","0.0","-0.080399986351467584","0.47000000000000008","-0.77839999668728455","0.46999999999999892","-0.53639999171216479","0.46999999999999831","SIDE","-9.3575508242321037e-17","-0.5914979407272275","0.59322308020499748","-0.54609208310278978","-151.1476731715735","115.45095193424439","132.37057139693763","0.005327294","0.000040002","128"
"129","yellowsaltcube","0.0","-0.25339998804927172","0.94719999999999815","-0.81739999528006102","0.94719999999999938","-0.70839999336246462","0.94719999999999949","SIDE","0.0","-0.5914979407272275","0.59322308020499759","-0.54609208310278978","-151.1476731715735","115.45095193424437","132.37057139693763","0.004349587","0.000057983","129"
"130","yellowsaltcube","0.0","-0.068399985781503886","0.94719999999999793","-0.26539998861923703","0.94719999999999949","-0.68239999538716023","0.94719999999999949","SIDE","0.7054503601628338","0.041897525910598608","-0.054075650849767787","-0.70545036016283436","34.792175495517611","-38.408037040875584","-198.03089751250224","0.006496555","0.000011559","130"
"131","yellowsaltcube","1.110223024625157e-16","-0.21639998629186091","0.47000000000000419","-0.40539998874961602","0.46999999999999942","-0.87739999812990532","0.46999999999999942","SIDE","0.50175798567422325","0.57500312744618265","0.40724593435834389","-0.50175798567422347","40.518426132358123","216.01735623138072","37.521613739585284","0.007823058","0.000034299","131"
"132","yellowsaltcube","0.0","1.0326000306572769","1.5707963267948959","-0.47939999226443519","1.513200010585412","-0.2983999869270228","0.94719999999999938","SIDE","0.7145408562938258","-0.59353590824160274","0.3703329452191661","7.7687861711900668e-17","-84.89397302853547","-133.11341149505785","-3.4534883403116763","0.002080545","0.000006064","132"
"133","yellowsaltcube","0.0","-0.13839998584669261","0.94719999999999938","1.0986000337921129","1.570796326794897","-0.7893999939501356","0.94719999999999949","SIDE","6.6116227076867944e-17","0.21249022567847059","-0.25034828332576958","0.94454943810631364","-132.01731639832693","121.62052511713118","-130.18284938016197","0.000025247","0.000000079","133"
"134","yellowsaltcube","0.0","-0.079399986303972644","0.47000000000000092","-0.76539999606982001","0.46999999999999947","-0.5463999921871362","0.46999999999999809","SIDE","0.53296350911508839","-0.57862161902181419","-0.61737097433577603","0.0","151.09068465959515","-110.51796549562765","139.89751294938114","0.004563313","0.000072870","134"
"135","yellowsaltcube","0.0","-0.25139998795427099","0.94719999999999793","-0.83039999589752356","0.94720000000000115","-0.71539999369495055","0.94719999999999882","SIDE","0.53296350911508827","-0.57862161902181419","-0.61737097433577626","1.0415563219970983e-16","151.09068465959518","-110.51796549562765","139.89751294938114","0.010156307","0.000098366","135"
"136","yellowsaltcube","0.0","1.032600030657276","1.5707963267948959","-0.081399986398964855","0.47000000000000031","-0.51939999090469846","0.46999999999999881","SIDE","0.70296187938709209","0.051455577449723226","-0.095086885564991758","-0.70296187938709254","64.228294483656072","-52.274264453873499","-192.35109479447758","0.000805924","0.000001048","136"
"137","yellowsaltcube","0.0","-0.4793999922644353","0.47000000000000008","-0.76539999606982345","0.46999999999999947","-0.61339999210983309","0.46999999999999831","SIDE","0.68607393989275378","-0.16800983163045136","-0.70786668623091831","0.0","186.07220218364543","-39.014162996417355","82.195246307818167","0.006627936","0.000032126","137"
"138","yellowsaltcube","0.0","-0.45039999088700672","0.46999999999999997","-0.35139998944438572","0.46999999999999909","-0.65339999400973658","1.258000014610575","SIDE","0.93742764809058121","0.1269828694074697","-0.32419863582749242","-1.5544321983553399e-16","131.08867425881797","61.956576191918302","-76.440509715320715","0.001038706","0.000083894","138"
"139","yellowsaltcube","0.0","0.05060001661106843","0.46999999999999847","-0.40439998870213251","0.46999999999999947","-0.67539999505467641","0.89300000705290805","SIDE","0.63797131015193109","-0.4224282467967862","0.086830819149944075","-0.6379713101519312","-110.55857630649069","-105.38110289062796","-65.447283963795101","0.006239365","0.000097291","139"
"140","yellowsaltcube","0.0","0.084600018225970422","0.46999999999999859","-0.46239999145697891","0.46999999999999931","-0.6613999943897112","0.7240000055450988","SIDE","0.62426928771306078","-0.066772878708950462","-0.46488395918269249","0.62426928771306078","108.28095523729742","115.83769282891443","-53.684354271281812","0.005508489","0.000129740","140"
"141","yellowsaltcube","0.0","-0.13839998584669491","0.94719999999999827","1.098600033792108","1.570796326794897","-0.79139999404512906","0.94720000000000149","SIDE","0.93224098608623729","-0.25802051522865022","-0.25367727052714395","2.9772962173818623e-17","144.80814948007591","-123.45254328432141","-116.1823800791196","0.000320720","0.000000272","141"
"142","yellowsaltcube","0.0","1.0326000306572709","1.570796326794897","-0.2793999892842029","0.46999999999999881","-0.28939998649954912","0.46999999999999897","SIDE","0.7145408562938258","-0.59353590824160274","0.37033294521916615","1.16531792567851e-16","-111.35577500760722","-175.52397710666588","-4.5103518716229685","0.000014617","0.000000048","142"
"143","yellowsaltcube","0.0","-0.33139998849444141","0.46999999999999598","-0.33539998868442977","0.46999999999999942","-0.23439998714682081","0.46999999999999859","SIDE","0.70704765069813147","-0.011162275671487138","-0.0065301520916535571","0.70704765069813136","6.1593760499565331","-2.7198752328122522","-188.02236670927709","0.006506110","0.000009571","143"
"144","yellowsaltcube","0.0","-0.21939998643435529","0.94719999999999815","1.09860003379211","1.570796326794897","-0.76539999606982068","0.94720000000000037","TOP","1.5740438696485853e-16","-0.62017572494633344","0.70533169121456607","0.34335007726180866","101.05978828763364","-147.1027116493764","270.5614621566591","0.000026267","0.000000025","144"
"145","yellowsaltcube","0.0","-0.01539998326413365","0.46999999999999958","-0.27839998923670628","0.46999999999999942","-0.65639999415222772","1.0340000104904301","SIDE","0.29003954809656485","0.22637160660665467","0.88346477960482539","0.29003954809656485","-146.83464310735772","-52.637152638489667","221.50435932852275","0.005371505","0.000088011","145"
"146","yellowsaltcube","0.0","-0.87039999779742128","0.46999999999999942","-0.33839998882692268","0.46999999999999942","-0.16439998708162401","0.46999999999999931","SIDE","0.62189256896648992","-0.052139510964471995","0.47305468682268098","-0.62189256896649003","-160.51702707478336","126.36521609801565","12.37306400935045","0.010645957","0.000074469","146"
"147","yellowsaltcube","0.0","-0.15839998679663869","0.94719999999999882","-0.25239998800176761","0.94719999999999938","-0.69839999288749177","0.94719999999999938","SIDE","0.70604301349782483","0.053985447958689994","0.0095967489557380343","0.70604301349782528","-23.587751796048774","48.076738217667447","-197.75783923577285","0.007090728","0.000010217","147"
"148","yellowsaltcube","0.0","-0.18839998496193661","0.46999999999999931","-0.0063999828366484591","0.46999999999999931","-0.49339998966976828","0.46999999999999897","TOP","-0.068965766218553132","0.87166220307402564","0.48030453871675199","-0.068965766218553312","39.018797814926444","20.080789742256357","339.11141101414574","0.004219262","0.000016921","148"
"149","yellowsaltcube","0.0","-0.19839998543690801","0.94719999999999582","-0.25539998814426268","0.94719999999999938","-0.68939999246002248","0.94719999999999938","SIDE","0.70457480464512601","0.045982542975914198","-0.07095276640155157","-0.70457480464512623","37.207884557649336","-42.366472164474636","-196.27487874704966","0.005062917","0.000007745","149"
"150","yellowsaltcube","0.0","-0.057399985259027807","0.46999999999999831","-0.48839998943229168","0.46999999999999942","-0.65439999405723714","1.3480000156257239","SIDE","0.41532591991667639","0.73783998350518765","0.53206817137133","3.7617337412067438e-17","-66.922018694893765","121.79320923833004","218.37283948836316","0.004372421","0.000066803","150"
"151","yellowsaltcube","0.0","-0.058399985306521983","0.94719999999999793","-0.66639999462719945","0.94719999999999949","-0.65439999405723248","1.3482000060079611","SIDE","0.41532591991667639","0.73783998350518754","0.53206817137133011","3.7617337412067438e-17","-66.922018694893779","121.79320923833002","218.37283948836307","0.000768493","0.000047161","151"
"152","yellowsaltcube","0.0","1.032600030657274","1.5707963267948959","-0.2443999876217918","0.46999999999999947","-0.30239998711701238","0.46999999999999847","SIDE","1.5869539739805199e-16","-0.37824527935323421","-0.60621707659889235","0.69959371401327397","109.86489119157075","179.02835405748928","4.3250273162049826","0.000429578","0.000000546","152"
"153","yellowsaltcube","0.0","-0.1043999842317678","0.4699999999999992","-0.073399986018984523","0.46999999999999942","-0.50639999028723781","0.46999999999999847","TOP","0.05978582322994714","-0.54190340592504682","0.83617702033018637","-0.059785823229946911","-52.695727119314029","-23.168564515392731","341.52447601743586","0.005509550","0.000008198","153"
"154","yellowsaltcube","0.0","-0.25039998790676521","0.46999999999999947","-0.33239998854192998","0.46999999999999942","-0.24039998743180041","0.46999999999999942","SIDE","0.70704765069813114","0.0065301520916534201","-0.01116227567148728","-0.70704765069813169","6.1468666596919963","-2.7166001005149982","-187.52253391737116","0.007724875","0.000009822","154"
"155","yellowsaltcube","0.0","-0.13839998584668711","0.47000000000000242","-0.52239999104718637","0.46999999999999897","-0.47939999226443281","0.46999999999999942","SIDE","7.3244832441134238e-17","-0.44678871690976435","0.757884882539274","-0.47538442050676977","-108.77542386818041","136.80329605849184","143.76053006304267","0.013494655","0.000162158","155"
"156","yellowsaltcube","0.0","-0.1973999853894263","0.46999999999999942","1.09860003379211","1.570796326794897","-0.48439999250192228","0.46999999999999992","TOP","0.076449958329401047","-0.47313707187587795","0.87432952538478637","-0.076449958329400755","-47.747669444979529","-18.934728027603768","338.44275864702985","0.000992810","0.000001510","156"
"157","yellowsaltcube","0.0","-0.50039999000225555","0.94719999999999882","1.098600033792116","1.570796326794897","-0.42339998960457759","0.94719999999999949","SIDE","0.8841625923603571","0.44603239685887969","0.13896622331680364","-1.8835161669664895e-16","-51.887070355559317","159.02216280011413","-114.1431496851615","0.000113678","0.000000164","157"
"158","yellowsaltcube","0.0","-0.87139999784492195","0.46999999999999909","-0.33139998849443808","0.47000000000000242","-0.16239998698662969","0.47000000000000253","SIDE","0.61374638750008792","-0.49288822539565164","-0.060761344023222544","0.61374638750008836","159.7065439307448","-126.887034706964","24.261106698533634","0.003364772","0.000043679","158"
"159","yellowsaltcube","0.0","-0.31739998782947682","0.46999999999999942","1.098600033792108","1.5707963267948959","-0.29939998697452241","0.46999999999999897","SIDE","4.6666403201572848e-16","-0.18751085006765014","0.47020020708484533","0.86241025409272343","62.768871129875727","-163.38898412202238","-98.040314443172946","0.000008871","0.000000037","159"
"160","yellowsaltcube","0.0","-0.36139998991936301","0.47000000000000008","-0.32939998839944362","0.46999999999999942","-0.22939998690933089","0.46999999999999847","SIDE","0.70658625414105669","0.018596906530504446","-0.033554224552436902","-0.70658625414105691","11.644097895714633","-4.5012204713908988","-187.09783468831321","0.005997666","0.000010873","160"
"161","yellowsaltcube","0.0","-0.80539999471009438","0.94719999999999815","0.091600018558463725","0.94719999999999882","-0.78539999376014291","0.94719999999999971","SIDE","0.62388243777012653","0.43718213025548552","-0.17439378621179152","0.62388243777012653","-46.043635568682951","162.38449901217234","-46.487765010333248","0.002478824","0.000034449","161"
"162","yellowsaltcube","0.0","-0.093399983709306258","0.94719999999999827","-0.6583999942472204","0.94720000000000115","-0.65339999400973625","1.3992000084303351","SIDE","2.9277313556814078e-16","-0.50780432274514076","0.75841864552955907","0.40857793370966339","57.620677341147832","-121.80907816388986","218.40312178122801","0.003064866","0.000049334","162"
"163","yellowsaltcube","0.0","-0.09339998370931335","0.4700000000000038","-0.48039999231193131","0.46999999999999909","-0.65339999400973714","1.399000014788476","SIDE","2.5617649362212318e-16","-0.50780432274514076","0.75841864552955907","0.40857793370966339","57.620677341147825","-121.80907816388988","218.40312178122801","0.008138419","0.000126233","163"
"164","yellowsaltcube","0.0","-0.62839999282230075","0.46999999999999931","0.1876000198585864","0.522000002469867","-0.63639999320228313","0.46999999999999748","SIDE","0.62388243777012664","0.43718213025548541","-0.17439378621179152","0.62388243777012653","-46.043635568682959","162.38449901217234","-46.487765010333248","0.006623867","0.000131663","164"
"165","yellowsaltcube","0.0","-0.3623999899668624","1.0802000030575309","0.034600015851111138","1.570796326794897","-0.38639998784716778","0.94719999999999949","SIDE","1.972815864165956e-16","-0.2630012350771968","0.84414088876043436","0.46717931275968644","43.508217209901275","-147.16295000145905","104.60249742498779","0.004312181","0.000024140","165"
"166","yellowsaltcube","1.254919380264259e-16","-0.36239998996685929","1.0800000094156741","0.034600015851109833","1.570796326794897","-0.24539998766928861","0.46999999999999909","SIDE","1.6440132201382974e-16","-0.26300123507719686","0.84414088876043447","0.46717931275968655","43.508217209901275","-147.16295000145908","104.60249742498779","0.006142228","0.000033089","166"
"167","yellowsaltcube","0.0","-0.57239999342207026","0.94719999999999849","-0.87839999817740233","0.94720000000000126","-0.77839999668728532","0.94720000000000026","SIDE","1.7231476352076391e-16","0.67501681846972983","-0.13770924713543906","0.72483684925395064","-186.8575793831437","31.802640864230021","64.188194857586865","0.004977598","0.000040606","167"
"168","yellowsaltcube","0.0","-0.1673999872241185","0.46999999999999942","-0.67839999519717298","0.46999999999999997","-0.49739998985975331","0.4699999999999972","SIDE","0.62727887022252105","0.032460119563946697","0.46042239148700109","0.62727887022252127","-142.66464544753467","-99.811418288148545","-33.702852120466524","0.002080299","0.000051357","168"
"169","yellowsaltcube","0.0","-0.54039999190215071","0.94719999999999815","-0.50239999009724146","0.94719999999999949","-0.40739998884461481","0.94720000000000004","SIDE","0.70658625414105669","0.018596906530504446","-0.033554224552436909","-0.70658625414105691","11.644097895714633","-4.5012204713908988","-187.09783468831321","0.007574942","0.000018237","169"
"170","yellowsaltcube","0.0","-0.2153999862443759","0.46999999999999931","-0.33839998882692218","0.46999999999999942","-0.241399987479299","0.46999999999999909","SIDE","0.7065862541410568","-0.033554224552436708","-0.018596906530504775","0.70658625414105691","11.710426590102019","-4.5202440161413726","-187.99518562865612","0.008132332","0.000007966","170"
"171","yellowsaltcube","0.0","-0.047399984784048492","0.46999999999999897","-0.4143999891770907","0.46999999999999958","-0.63739999324977448","1.2150000125681959","TOP","3.8542812026643144e-17","-0.61122510182628698","0.72012326439603214","0.32836924181939958","59.337238224935987","-103.82647652043131","243.71550376533077","0.002657627","0.000080797","171"
"172","yellowsaltcube","0.0","1.0326000306572729","1.5707963267948959","-0.39339998817965899","0.46999999999999942","-0.22139998652934231","0.46999999999999892","SIDE","0.60523182607213954","-0.32971004904048712","-0.39834677980433786","0.6052318260721401","182.1025932660136","16.834520115073801","-97.427706778162147","0.001007772","0.000001298","172"
"173","yellowsaltcube","0.0","-0.30139998706952159","0.46999999999999942","-0.32039998797197378","0.46999999999999842","-0.24539998766928989","0.46999999999999892","TOP","0.0091443776307195985","-0.50491448205227452","0.863072492047671","-0.009144377630719373","-6.7903440493610736","0.67054153911616521","329.40451135358558","0.008424313","0.000011429","173"
"174","yellowsaltcube","0.0","-0.73639999469240236","0.94719999999999527","-0.078399986256474333","0.94720000000000149","-0.69239999260250751","0.94720000000000326","SIDE","0.59831007761516575","0.53268399888252149","0.017258603153062504","0.59831007761516553","-105.95239804539688","130.39178059851088","-28.802549007922","0.002476768","0.000060404","174"
"175","yellowsaltcube","0.0","-0.55739999270960816","0.46999999999999909","0.019600015138647071","0.46999999999999897","-0.6523999939622378","0.83400000751018522","SIDE","0.59831007761516575","0.53268399888252149","0.017258603153062504","0.59831007761516553","-105.95239804539688","130.39178059851088","-28.802549007922003","0.008104009","0.000159483","175"
"176","yellowsaltcube","0.0","-0.60239999158736679","0.46999999999999958","0.058600016991048241","0.57400000168010568","-0.65939999429472285","0.87700000629294395","SIDE","0.59236113848414074","-0.00079519481432343967","-0.54609150413896002","-0.59236113848414129","98.734677421751798","-135.16019563050952","-23.72909676191259","0.006605280","0.000117661","176"
"177","yellowsaltcube","0.0","-0.37239999044183603","0.46999999999999947","-0.27539998909421048","0.46999999999999942","-0.17239998746160459","0.46999999999999842","TOP","0.012932102864824572","0.25325595760402442","0.96731286596093724","2.7796811997253359e-17","-6.9779848951880821","0.71966852146987326","336.90200290629349","0.007234658","0.000007770","177"
"178","yellowsaltcube","0.0","-0.34939998934939209","0.46999999999999942","1.098600033792116","1.570796326794897","-0.25239998800177282","0.46999999999999842","SIDE","0.8841625923603571","0.44603239685887969","0.13896622331680364","-1.8050363266762191e-16","-51.88707035555931","159.02216280011419","-114.14314968516149","0.000017146","0.000000070","178"
"179","yellowsaltcube","0.0","-0.50639999028723859","0.94719999999999938","-0.50739999033473804","0.94719999999999938","-0.41339998912960813","0.94719999999999949","SIDE","0.70704765069813147","-0.011162275671487138","-0.006530152091653558","0.70704765069813136","6.1593760499565331","-2.7198752328122522","-188.02236670927709","0.009602066","0.000014798","179"
"180","yellowsaltcube","0.0","-0.36639999015685171","0.47000000000000219","-0.30139998706951499","0.46999999999999942","-0.16139998693913249","0.46999999999999609","SIDE","0.99926386359268504","-0.010576421001672028","-0.036876418435296578","-5.5497795070110363e-17","12.012590642318075","-4.6069068311147543","-192.0831176902156","0.006687948","0.000006791","180"
"181","yellowsaltcube","0.0","-0.75339999549985293","0.94719999999999882","-0.79339999414012363","0.94720000000000149","-0.076399986161475725","0.94720000000000004","SIDE","-0.29003954809656485","0.88346477960482561","-0.22637160660665442","0.29003954809656474","-174.19584053908747","-68.836708051182043","249.70345930979178","0.003683533","0.000011486","181"
"182","yellowsaltcube","0.0","-0.81639999523256557","0.46999999999999958","-0.14139998598918219","0.46999999999999942","-0.40339998865462662","0.4699999999999992","SIDE","0.64539293150976718","0.079328016439357787","0.40080293626950253","-0.64539293150976729","-113.6728649150367","134.02217511021496","-56.574579208198209","0.000002948","0.000044359","182"
"183","yellowsaltcube","0.0","-0.73239999450240378","0.46999999999999842","-0.66739999467469679","0.8290000072726933","-0.2343999871468179","0.46999999999999942","SIDE","0.93920749807713433","0.25785110443595932","0.22672027588384289","-2.142528925985889e-16","-99.654991053387263","81.172096715002581","-89.616110389286519","0.002028440","0.000039574","183"
"184","yellowsaltcube","0.0","1.03260003065728","1.5707963267948959","-0.3983999884171332","0.46999999999999958","-0.21739998633936039","0.46999999999999942","SIDE","0.62963632737971398","-0.36090839610748721","0.27723874207385218","-0.62963632737971431","-166.35011408665034","-22.063624351804087","-119.82205841329939","0.000853506","0.000001665","184"
"185","yellowsaltcube","0.0","-0.62639999272730584","0.47000000000000253","-0.86839999770242726","0.46999999999999931","-0.17039998736660861","0.46999999999999909","TOP","0.0","-0.64406279762231311","0.66941263877759394","-0.37022943125005331","-95.612087044388389","124.91673436017305","223.02330279250702","0.000030530","0.000031997","185"
"186","yellowsaltcube","0.0","-0.60139999153987378","0.46999999999999881","-0.7583999957373373","0.4700000000000023","-0.00039998255165953718","0.46999999999999892","SIDE","0.48760012236524203","0.7830114870871373","0.38618535932760395","-2.1268328299153138e-16","-91.39673616470256","127.05840838951721","210.05670979173206","0.003770556","0.000078687","186"
"187","yellowsaltcube","0.0","-0.65639999415222816","1.22000001280568","1.098600033792104","1.5707963267948959","-0.05339998506903363","0.4699999999999992","SIDE","-0.30130747227324828","0.88526071717051669","-0.18638958377375661","0.301307472273248","-125.58532469805483","-48.476705872839922","244.11709071106375","0.000960647","0.000008184","187"
"188","yellowsaltcube","0.0","-0.66639999462720112","0.58800000234506944","-0.0083999829316441978","0.46999999999999942","-0.48339999245442522","0.4699999999999992","SIDE","0.89829876783338225","-0.24540661883295015","0.36446524545147829","1.544896676334808e-17","-131.62781899763277","-120.88264004427441","-48.950289239192216","0.000000153","0.000069313","188"
"189","yellowsaltcube","0.0","-0.31139998754448572","0.94719999999999405","-0.5363999917121608","1.0642000022975719","-0.24139998747930219","0.94720000000000426","SIDE","0.50427520688141436","0.59302534270302698","0.37381007792911408","0.50427520688141492","-166.14996988136932","30.67987604747313","119.98909541259063","0.010553453","0.000031251","189"
"190","yellowsaltcube","0.0","-0.3413999889694142","0.46999999999999859","-0.48039999231193292","0.96700001056771734","-0.06839998578149882","0.46999999999999859","SIDE","2.5722178088703676e-16","0.15281236199167822","0.69621036110935353","0.70138399975085541","-31.84184382335409","-167.6680757874376","124.6451975837366","0.009251536","0.000034483","190"
"191","yellowsaltcube","0.0","-0.39339998817965849","0.94719999999999815","-0.48039999231193292","0.96720000094994907","-0.23239998705182241","0.94719999999999938","SIDE","2.5722178088703681e-16","0.15281236199167825","0.69621036110935364","0.70138399975085541","-31.84184382335409","-167.6680757874376","124.6451975837366","0.009041786","0.000032768","191"
"192","yellowsaltcube","0.0","-0.57439999351706506","0.94720000000000004","-0.63739999324977459","0.94719999999999949","-0.15839998679663969","0.94719999999999949","SIDE","2.8329316878186612e-16","0.12764065703746208","0.60775705370727517","0.78379794994634766","-17.527943476851604","-181.93538936003796","78.873677548506379","0.005564864","0.000013226","192"
"193","yellowsaltcube","0.0","1.032600030657268","1.570796326794897","-0.80039999447260624","0.94719999999999949","-0.14739998627417469","0.94720000000000115","SIDE","0.66286144683660608","0.31903350189759516","-0.13945260579250024","-0.66286144683660675","169.44246481143125","76.979077334134274","-124.24135841634197","0.000007351","0.000000006","193"
"194","yellowsaltcube","0.0","-0.76839999621231225","0.94720000000000026","-0.73839999478738516","0.94719999999999938","-0.42939998988956463","1.132200005527386","TOP","0.34818013239609419","-0.34188410406203046","0.8728607304686935","1.7489120607360661e-16","-115.74927597927324","-34.725481460442502","231.19697130021265","0.004611726","0.000056420","194"
"195","yellowsaltcube","0.0","-0.550399992377126","0.46999999999999931","0.099600018938454701","0.4699999999999992","-0.63039999291729776","0.46999999999999881","SIDE","0.84567895288416073","0.24996801381507461","-0.4715327143667723","-1.8051255191504032e-16","175.83444939284877","60.648380416158389","-23.639124583157319","0.003169375","0.000083653","195"
"196","yellowsaltcube","0.0","-0.58439999399203879","0.46999999999999931","0.1146000196509127","0.46999999999999847","-0.64339999353476385","0.46999999999999931","SIDE","3.3479001406058964e-16","0.49322190367927132","0.26347236290127102","0.8290443098642053","-185.19928066503778","-64.758535293444325","-11.427901488866528","0.004985186","0.000063173","196"
"197","yellowsaltcube","0.0","-0.34339998906441088","0.46999999999999942","-0.24139998747930161","0.46999999999999892","-0.20239998562690009","0.46999999999999842","TOP","-8.339043599176009e-17","0.96731286596093735","-0.25325595760402436","0.012932102864824463","-6.9304492121804451","0.70722301873216153","335.00263829705455","0.007126539","0.000012797","197"
"198","yellowsaltcube","1.110223024625157e-16","-0.8283999958025271","0.9471999999999986","-0.61939999239481747","0.94719999999999949","-0.12839998537171299","0.94719999999999949","SIDE","0.59101249997123695","-0.51039873461039176","0.20224139404090255","-0.59101249997123739","-175.27904213385659","-42.848214019516774","40.792927369860827","0.006454727","0.000023285","198"
"199","yellowsaltcube","0.0","-0.3113999875444754","0.46999999999999981","-0.53639999171215402","1.0650000119628189","-0.10739998437428271","0.49700000128242833","SIDE","0.50427520688141436","0.59302534270302698","0.37381007792911408","0.50427520688141492","-166.14996988136934","30.67987604747313","119.98909541259061","0.013730108","0.000059637","199"
"200","yellowsaltcube","0.0","-0.5983999913973812","0.94719999999999738","-0.90839999634270296","0.94719999999999938","-0.75439999554734549","0.94720000000000204","SIDE","-2.9310673114527525e-16","0.71020824497558566","-0.14488860136357523","-0.68892056288341785","181.86162029153951","-43.419252875678723","83.320937058232175","0.005807324","0.000039255","200"
"201","yellowsaltcube","1.110223024625157e-16","-0.66039999434221763","0.94719999999999915","1.098600033792102","1.570796326794897","-0.41839998936710321","0.94719999999999938","SIDE","0.62100627222064531","-0.4757536578410258","0.048588854443373374","-0.62100627222064553","-159.95088166357573","-107.65482553454909","12.864091650861665","0.000007679","0.000000020","201"
"202","yellowsaltcube","1.110223024625157e-16","-0.48039999231193298","0.46999999999999958","1.098600033792114","1.570796326794897","-0.24239998752679939","0.46999999999999947","SIDE","0.62100627222064542","-0.47575365784102575","0.048588854443373464","-0.62100627222064553","-159.95088166357573","-107.65482553454908","12.864091650861665","0.000208644","0.000000758","202"
"203","yellowsaltcube","0.0","-0.36039998987186661","0.46999999999999942","-0.28939998649954612","0.46999999999999897","-0.17039998736660991","0.46999999999999942","SIDE","3.8857667130178197e-16","-0.012510435646969745","0.0032754059945945555","0.99991637686133217","6.2444398956028593","-2.7421461303120949","-191.42122936836702","0.006525300","0.000007806","203"
"204","yellowsaltcube","0.0","-0.83239999599252879","0.94719999999999582","-0.64439999358226308","0.94719999999999915","-0.1253999852292226","0.94720000000000448","SIDE","0.58743391594235639","-0.21833948810829562","-0.5120260313049172","0.58743391594235683","173.81843638950608","38.264650516008246","44.411566531364791","0.003130458","0.000014305","204"
"205","yellowsaltcube","0.0","-0.1983999854369127","0.94719999999999938","1.09860003379211","1.570796326794897","-0.77339999644979929","0.94720000000000026","TOP","0.37022943125005353","0.66941263877759405","0.64406279762231278","-1.2438774236312457e-16","-119.83870899870161","150.09689845438268","259.89700792154463","0.000040225","0.000000042","205"
"206","yellowsaltcube","0.0","1.032600030657272","1.570796326794897","-0.47939999226443369","1.5130000169435509","-0.23639998724181291","0.74000000630505403","SIDE","0.7145408562938258","-0.59353590824160274","0.37033294521916615","1.16531792567851e-16","-84.89397302853547","-133.11341149505785","-3.4534883403116705","0.006857423","0.000014421","206"
"207","yellowsaltcube","0.0","-0.40039998851213932","0.46999999999999997","-0.64339999353475985","0.46999999999999958","-0.5483999922821271","0.46999999999999897","SIDE","-2.7356628240225693e-16","0.71020824497558566","-0.14488860136357523","-0.68892056288341785","230.78932668084249","-53.400926556357305","85.859782861871679","0.008443198","0.000093247","207"
"208","yellowsaltcube","0.0","-0.58139999384954644","0.94720000000000126","-0.80639999475758017","0.94719999999999938","-0.72639999421742507","0.94720000000000093","SIDE","-2.7356628240225703e-16","0.71020824497558577","-0.14488860136357523","-0.68892056288341796","230.78932668084252","-53.400926556357305","85.859782861871679","0.001156388","0.000046062","208"
"209","yellowsaltcube","0.0","0.42360002128910168","0.46999999999999942","-0.35839998977687071","1.282000012490897","-0.25339998804927077","0.52400000256486134","SIDE","1.1902154804853899e-16","-0.37824527935323421","-0.60621707659889235","0.69959371401327397","83.403089212498983","136.61778844588125","3.2681637848934733","0.009997101","0.000039984","209"
"210","yellowsaltcube","0.0","-0.38839998794215103","0.94719999999999815","-0.51339999061972141","0.94719999999999949","-0.42039998946208312","0.94719999999999971","SIDE","0.7065862541410568","-0.033554224552436708","-0.018596906530504775","0.70658625414105691","11.710426590102021","-4.5202440161413726","-187.99518562865612","0.007988393","0.000011492","210"
"211","yellowsaltcube","0.0","-0.63039999291729487","0.94719999999999938","1.09860003379211","1.5707963267948959","-0.37239999044183553","0.9472000000000016","TOP","-0.33492976127838747","0.70331679828201532","0.62703072992026265","0.0","67.467611609263955","-108.1425799131716","299.57117114632752","0.000006530","0.000000008","211"
"212","yellowsaltcube","0.0","-0.53439999161716845","0.94719999999999849","-0.46739999169446478","0.94719999999999938","-0.35139998944439071","0.94719999999999938","SIDE","3.8856989447150411e-16","-0.012510435646969742","0.003275405994594555","0.99991637686133217","6.2444398956028593","-2.7421461303120953","-191.42122936836702","0.007191154","0.000007617","212"
"213","yellowsaltcube","0.0","-0.58139999384954621","0.94719999999999993","-0.49239998962227122","0.94719999999999949","-0.31539998773448202","0.9472000000000016","TOP","-1.1016544195335613e-16","0.96053835175815327","-0.27548928088749719","0.038363145306657027","-27.003419247287219","6.5831643283680314","335.75861785741455","0.006229080","0.000006990","213"
"214","yellowsaltcube","0.0","-0.15139998646415731","0.46999999999999892","-0.46239999145697419","0.47000000000000303","-0.47839999221693902","0.46999999999999909","SIDE","-0.45337884122456318","0.7754518087269503","0.4394566175084561","-1.4317111806700094e-16","100.00617773276407","-132.72959773752723","150.02035791730873","0.022730145","0.000189356","214"
"215","yellowsaltcube","0.0","-0.032399984071588388","0.46999999999999992","-0.45639999117198932","0.46999999999999897","-0.60739999182485704","0.99200000849551973","SIDE","-6.1825633323767848e-17","0.28452344962699894","-0.33597999164102915","0.89786627725360446","-117.28646342396765","102.21298037379567","-65.543377464547561","0.004116935","0.000081040","215"
"216","yellowsaltcube","0.0","-0.42839998984206201","0.94719999999999938","-0.50739999033473848","0.94719999999999971","-0.4173999893195941","0.94719999999999938","SIDE","0.70704765069813114","0.0065301520916534175","-0.011162275671487277","-0.70704765069813158","6.1468666596919954","-2.7166001005149987","-187.52253391737116","0.008873269","0.000010407","216"
"217","yellowsaltcube","3.3306690738754701e-16","-0.34739998925439719","0.94720000000000026","-0.76939999625981004","0.94719999999999949","-0.65539999410473271","0.94719999999999849","SIDE","0.62727887022252116","0.032460119563946697","0.46042239148700109","0.62727887022252116","-142.66464544753464","-99.811418288148545","-33.702852120466545","0.003467957","0.000067875","217"
"218","yellowsaltcube","0.0","-0.70439999317248048","0.47000000000000408","-0.1053999842792769","0.46999999999999897","-0.3953999882746505","0.46999999999999842","SIDE","-0.31131667813558683","0.074202728384438366","0.89479484069229631","0.31131667813558717","97.814235330412842","-151.78903972056054","192.24658806077093","0.007067282","0.000064001","218"
"219","yellowsaltcube","0.0","-0.36839999025184639","0.94719999999999616","-0.76439999602232522","0.94720000000000126","-0.68639999231752902","0.94719999999999793","SIDE","0.61137999379261898","0.49725134879756744","-0.071903424809071442","-0.61137999379261931","149.71890418294873","93.443803481523261","-17.058102496463345","0.002798962","0.000027793","219"
"220","yellowsaltcube","0.0","-0.58539999077991256","0.94719999999999793","-0.64939999381974289","0.94719999999999938","-0.15339998655915449","0.94719999999999971","SIDE","0.78137367692764559","0.60807348303653919","-0.14036315838703164","-1.2432529725940161e-16","13.957177890664639","183.24331449467456","79.655317376447599","0.003836826","0.000012944","220"
"221","yellowsaltcube","0.0","-0.34439998911190672","1.065200002345069","-0.29039998654704441","0.94719999999999949","-0.28939998649955079","0.94719999999999949","SIDE","2.9188961095083369e-16","0.13557029519623667","0.68775702018379814","0.71316966862613274","-39.301274711500689","-156.342085117956","119.10744043818288","0.005799601","0.000027582","221"
"222","yellowsaltcube","0.0","-0.18839998496193089","0.47000000000000453","-0.66839999472219069","0.46999999999999942","-0.52039999095220779","0.46999999999999859","SIDE","0.61137999379261909","0.49725134879756744","-0.071903424809071345","-0.6113799937926192","149.71890418294879","93.443803481523261","-17.058102496463334","0.012810807","0.000203656","222"
"223","yellowsaltcube","0.0","-0.84039999637249474","0.94719999999999793","-0.51239999057221242","0.97220000118743544","-0.023399983644122799","0.94719999999999971","SIDE","0.35745430989753163","0.83186858641989425","-0.22901416462552127","-0.35745430989753219","120.69196620008249","102.94710433532673","118.51076808705385","0.005334490","0.000011555","223"
"224","yellowsaltcube","0.0","-0.32539998820945509","0.61200000348500794","-0.49539998976476551","1.097000010223131","-0.073399986018985536","0.46999999999999909","SIDE","0.70099145768810334","0.69970531138485204","-0.13792553595377166","-1.5837896631247326e-16","23.524393532981414","162.37666016719766","124.70285285274518","0.010507513","0.000057474","224"
"225","yellowsaltcube","0.0","-0.51039999047722984","0.94719999999999938","-0.61139999201484063","0.94719999999999938","-0.26839998876173182","0.94719999999999949","SIDE","0.33815855728136995","0.87369075597682277","-0.0892302818297286","-0.33815855728137023","141.83372661401725","138.19928669774572","264.3026911707899","0.002784170","0.000008312","225"
"226","yellowsaltcube","0.0","-0.43539999017454523","0.94719999999999827","-0.4953999897647684","1.0972000038649881","-0.2253999867193375","0.94719999999999915","SIDE","0.70099145768810345","0.69970531138485204","-0.13792553595377166","-1.7817633710153239e-16","23.524393532981417","162.37666016719763","124.70285285274518","0.009186618","0.000031009","226"
"227","yellowsaltcube","0.0","-0.54539999213964019","0.94719999999999882","-0.45439999107699808","0.94719999999999949","-0.35339998953938562","0.94719999999999949","TOP","0.012932102864824574","0.25325595760402442","0.96731286596093724","2.7796811997253359e-17","-6.977984895188083","0.71966852146987392","336.90200290629355","0.006233226","0.000006315","227"
"228","yellowsaltcube","0.0","-0.32839998835194673","0.46999999999999981","-0.2593999883342531","0.46999999999999942","-0.2003999855319048","0.46999999999999842","SIDE","0.99991637686133217","-0.0032754059945946943","-0.012510435646970106","-1.1103158727233466e-16","6.1818929524353194","-2.7257704709504615","-188.92206573470594","0.007368094","0.000007419","228"
"229","yellowsaltcube","0.0","-0.087399983424324423","0.47000000000000242","-0.43039998993705431","0.46999999999999942","-0.63139999296478422","1.2720000120159221","SIDE","0.88896817326319733","-0.36951332086341809","-0.27054665518091786","-7.8055594256385429e-17","106.10203771785741","-114.87335838939306","-58.262984528062105","0.003032386","0.000084073","229"
"230","yellowsaltcube","0.0","-0.57439999351706461","0.46999999999999997","-0.61039999196733874","0.87800000634044395","0.018600015091150019","0.46999999999999942","SIDE","2.8329316878186612e-16","0.12764065703746208","0.60775705370727517","0.78379794994634766","-17.527943476851608","-181.93538936003796","78.873677548506379","0.006716745","0.000031255","230"
"231","yellowsaltcube","0.0","-0.54139999194964994","0.94719999999999915","-0.47939999226443358","0.94719999999999949","-0.34139998896941559","0.94720000000000149","SIDE","0.99926386359268504","-0.010576421001672028","-0.036876418435296571","-5.5443545026053559e-17","12.012590642318077","-4.6069068311147543","-192.08311769021557","0.009432807","0.000015880","231"
"232","yellowsaltcube","0.0","0.30160002201367397","0.46999999999999997","-0.63239999301228911","0.46999999999999942","-0.41439998917709853","1.5260000175610191","SIDE","0.89884771896198956","-0.30633509257259084","-0.31341919082176561","-1.543953165263728e-17","100.03223163583664","-66.769072333348944","-72.407947616135274","0.002779684","0.000052257","232"
"233","yellowsaltcube","0.0","1.032600030657274","1.570796326794897","-0.5603999928520994","0.94719999999999949","-0.27439998904671581","0.94720000000000026","SIDE","2.2213127391255459e-16","-0.067863284099270033","0.0086112347266233957","0.99765746692326451","33.397466623127812","-38.231061145369118","-187.82729651978491","0.000076730","0.000000041","233"
"234","yellowsaltcube","0.0","-0.048399984831550287","0.46999999999999859","-0.48139999235942971","0.46999999999999942","-0.63239999301229277","1.148000012645489","TOP","0.36183800776170544","0.66476515564292515","0.65357520147422787","-2.0876226273310919e-16","-78.058472574910283","103.22980996870281","231.63225982012062","0.005842894","0.000103931","234"
"235","yellowsaltcube","0.0","-0.66039999434221952","0.9471999999999986","1.098600033792104","1.570796326794897","-0.42739998979456728","0.94720000000000182","SIDE","0.6059620011549105","-0.08361557314917073","-0.50855534825582938","0.60596200115491072","165.75286072312022","103.64544898431438","27.583949674962021","0.000038058","0.000000155","235"
"236","yellowsaltcube","0.0","-0.58539999077991522","0.46999999999999931","-0.60639999177735793","0.83400000751018522","0.02460001537613447","0.46999999999999842","SIDE","0.78137367692764581","0.60807348303653919","-0.14036315838703162","-1.4208605401074471e-16","13.95717789066464","183.24331449467456","79.655317376447599","0.007883947","0.000047853","236"
"237","yellowsaltcube","0.0","-0.34439998911190628","1.0650000119628309","-0.2893999864995484","0.94400000947527762","-0.20939998595938061","0.69400000412017404","SIDE","2.9188961095083369e-16","0.13557029519623667","0.68775702018379814","0.71316966862613274","-39.301274711500689","-156.34208511795603","119.10744043818289","0.015342381","0.000101733","237"
"238","yellowsaltcube","0.0","-0.26739998871422921","0.94719999999999882","-0.4373999902695363","1.3822000076228771","-0.44939999083951337","1.4082000088578031","SIDE","-0.49568792170548803","-0.38028595438333163","0.60329889892933353","0.49568792170548848","145.29769549301963","-39.936157427617132","125.47445096509","0.016616411","0.000051215","238"
"239","yellowsaltcube","0.0","-0.26739998871422738","0.47000000000000242","-0.43739999026953807","1.382000013981014","-0.44939999083951521","1.408000015215944","SIDE","-0.49568792170548803","-0.38028595438333174","0.60329889892933353","0.49568792170548848","145.29769549301963","-39.936157427617132","125.47445096509","0.016627818","0.000051099","239"
"240","yellowsaltcube","0.0","-0.74639999516736832","0.94719999999999938","-0.58339999394454012","0.94719999999999938","-0.10439998423178121","0.94719999999999949","SIDE","0.87306707684427154","-0.43730488417578822","-0.21568105527977952","-1.5895442831238304e-17","47.609299130815131","-154.78376864262077","16.466621447495392","0.002088007","0.000012246","240"
"241","yellowsaltcube","0.0","0.30160002201367642","0.94719999999999815","-0.80839999485258274","0.94719999999999938","-0.41439998917710019","1.5262000112028831","SIDE","0.89884771896198956","-0.30633509257259089","-0.31341919082176561","-3.087906330527456e-17","100.03223163583665","-66.769072333348944","-72.40794761613526","0.003002959","0.000043189","241"
"242","yellowsaltcube","0.0","-0.41139998903460923","0.4699999999999992","-0.097399983899302725","0.46999999999999842","-0.54939999232963199","0.4699999999999982","SIDE","0.59236113848414085","-0.00079519481432353324","-0.54609150413896002","-0.59236113848414118","131.03591168202666","-167.55563839188929","-43.907440439158144","0.000590236","0.000045984","242"
"243","yellowsaltcube","0.0","-0.32339998811446108","0.9772000014249197","-0.27339998899921752","0.94719999999999949","-0.31739998782947831","0.9472000000000016","SIDE","0.71278361716126171","0.68507580138782731","-0.15036841908902962","-1.5575877417704134e-16","38.961361007940006","154.91004656353269","119.32044121760188","0.008693449","0.000037163","243"
"244","yellowsaltcube","0.0","-0.32339998811445841","0.97700000778306195","-0.20039998553190169","0.72600000564009004","-0.28239998942669381","0.84900000822264599","SIDE","0.71278361716126171","0.68507580138782731","-0.15036841908902962","-1.5575877417704134e-16","38.961361007940013","154.91004656353272","119.32044121760188","0.018165040","0.000090677","244"
"245","yellowsaltcube","0.0","-0.47739999216943663","0.94720000000000026","-0.49639998981226002","0.94719999999999793","-0.42339998960457792","0.94719999999999938","TOP","0.0091443776307195985","-0.50491448205227452","0.863072492047671","-0.009144377630719373","-6.7903440493610736","0.67054153911616499","329.40451135358558","0.008130143","0.000014814","245"
"246","yellowsaltcube","0.0","-0.40239998860712572","0.94719999999999938","1.098600033792112","1.570796326794897","-0.58739999087490768","0.94719999999999949","SIDE","0.6748198642526374","-0.28211867506701233","0.098210767223036122","-0.67481986425263751","-134.70659151836804","-75.621332139287901","-126.09798461220234","0.000002283","0.000000003","246"
"247","yellowsaltcube","0.0","-0.68239999538715923","0.46999999999999947","-0.78239999687727568","0.4699999999999997","0.039600016088595931","0.46999999999999847","SIDE","0.61010361114787637","-0.48738444757719351","0.13417737360865051","-0.61010361114787659","-157.50171003759439","-55.138497178934045","-60.819831975756571","0.002563019","0.000028502","247"
"248","yellowsaltcube","0.0","-0.68839999241253746","0.47000000000000042","-0.81739999528005503","0.46999999999999997","0.1566000183861567","0.4699999999999997","SIDE","0.39360055182967973","0.32586341636992106","0.76417945868131443","0.39360055182967957","-141.01220279686322","-88.33158062768976","183.94892955493611","0.000873968","0.000029257","248"
"249","yellowsaltcube","0.0","-0.60739999182485938","0.46999999999999997","-0.55739999270960783","0.46999999999999931","-0.42939998988956241","1.133000011933033","TOP","0.34818013239609419","-0.34188410406203046","0.87286073046869339","1.7489120607360658e-16","-115.74927597927326","-34.725481460442531","231.19697130021265","0.005257454","0.000071689","249"
"250","yellowsaltcube","0.0","-0.65639999415222705","1.22020000644756","1.098600033792106","1.5707963267948959","-0.20639998581689431","0.94719999999999949","SIDE","-0.30130747227324822","0.88526071717051658","-0.18638958377375661","0.30130747227324806","-125.58532469805483","-48.476705872839901","244.11709071106372","0.001243127","0.000008229","250"
"251","yellowsaltcube","0.0","1.032600030657276","1.570796326794897","-0.67239999491218416","0.94720000000000026","-0.64339999353476085","0.94719999999999949","SIDE","-9.0522201632666713e-17","0.61323244717929548","-0.5830057302801317","0.53296367998863015","-172.06093802823827","127.79539781588679","184.66471865082565","0.000200595","0.000001433","251"
"252","yellowsaltcube","0.0","-0.084399986541456126","0.47000000000000069","-0.7053999932199736","0.4699999999999992","-0.53939999185465515","0.46999999999999942","SIDE","0.85370028448114721","0.35215910196286371","0.38364018452388149","-9.7536252898748542e-17","-124.99203086391164","145.75022486142461","-13.387511286453","0.002397876","0.000124113","252"
"253","yellowsaltcube","0.0","-0.26539998861924052","0.94719999999999882","-0.84539999660998666","0.94720000000000149","-0.69039999250750761","0.94720000000000337","SIDE","0.85370028448114699","0.35215910196286387","0.3836401845238816","-6.5024168599165699e-17","-124.99203086391164","145.75022486142461","-13.387511286452989","0.000132948","0.000042987","253"
"254","yellowsaltcube","0.0","-0.55939999280460195","0.94719999999999815","-0.66339999448470677","0.94719999999999849","-0.25639998819176413","0.94719999999999971","TOP","-0.21123008973640994","0.31375537778873996","0.90128866701437083","-0.21123008973641025","126.72103520166553","50.791725953730271","292.30592217122637","0.002407048","0.000008016","254"
"255","yellowsaltcube","0.0","-0.50839999038223338","0.46999999999999881","-0.019399983454111529","0.46999999999999881","-0.69639999279250664","0.46999999999999942","SIDE","-0.36823621785262245","0.85291998687397108","0.036492077415469434","-0.36823621785262284","147.82691258725359","-104.68150257466881","177.20636881934729","0.002355907","0.000086878","255"
"256","yellowsaltcube","0.0","-0.61939999239483623","0.47000000000000192","0.091600018558463059","0.46999999999999942","-0.65039999386724168","0.46999999999999797","SIDE","0.61652079344377331","-0.13551793083783978","-0.47057317488818956","-0.61652079344377364","60.533971422687017","-161.28985837257528","-39.522169358421117","0.000620420","0.000044480","256"
"257","yellowsaltcube","0.0","-0.1443999861316807","0.94719999999999793","-0.66039999434221575","0.94719999999999915","-0.63239999301228877","1.1472000062398531","TOP","0.36183800776170549","0.66476515564292527","0.65357520147422765","-2.0876226273310911e-16","-78.058472574910269","103.2298099687028","231.63225982012068","0.000210316","0.000050783","257"
"258","yellowsaltcube","0.0","-0.0253999837391095","0.47000000000000308","-0.33939998887441758","0.46999999999999942","-0.66639999462720279","0.93900000923780125","SIDE","0.31069223011609659","0.88165568868303379","-0.17211601582600644","-0.31069223011609687","144.50023165294468","65.043596053074168","209.92348011979573","0.000757082","0.000039036","258"
"259","yellowsaltcube","3.3306690738754711e-16","-0.86939999774992649","0.46999999999999897","-0.65339999400973203","0.46999999999999947","-0.17239998746160451","0.46999999999999942","SIDE","0.59831000150965896","-0.53279361835252181","-0.01346270514608169","0.59831000150965963","127.31591430520339","-156.82493045679675","-13.14522289864529","0.000487905","0.000055120","259"
"260","yellowsaltcube","0.0","-0.064399985591509765","0.46999999999999931","-0.38039999082181603","0.46999999999999942","-0.65439999405722993","1.3220000143907951","SIDE","0.92894034697404648","-0.26679459163716385","-0.25669140545974078","-8.963624749223333e-17","106.49898568668092","-85.149282529086719","-84.596311417554404","0.007367264","0.000077190","260"
"261","yellowsaltcube","0.0","-0.61439999215733765","0.46999999999999859","-0.8603999973224441","0.46999999999999931","-0.061399985449015718","0.46999999999999947","SIDE","9.2361910881187336e-17","-0.57296806600321659","0.60101778646249926","0.55721200246966285","140.15381837889819","-117.29079560991008","206.89974727277661","0.000519804","0.000078534","261"
"262","yellowsaltcube","0.0","-0.60939999191984662","0.4699999999999997","-0.85639999713245907","0.46999999999999942","-0.062399985496512447","0.47000000000000219","SIDE","0.56421563776998895","0.60651163694134613","0.56018242417138864","0.0","-142.50665664190313","119.43464603790255","203.0714134235435","0.000375287","0.000036605","262"
"263","yellowsaltcube","0.0","-0.47939999226443342","0.46999999999999897","1.098600033792118","1.570796326794897","-0.25039998790677698","0.47000000000000097","SIDE","0.6059620011549105","-0.083615573149170619","-0.50855534825582938","0.60596200115491072","165.75286072312022","103.6454489843144","27.583949674962032","0.000161157","0.000001668","263"
"264","yellowsaltcube","0.0","-0.41139998903460429","0.46999999999999931","-0.31739998782947881","0.46999999999999909","-0.13539998570419581","0.46999999999999859","TOP","-1.0835945110166177e-16","0.96053835175815327","-0.27548928088749725","0.038363145306657034","-27.003419247287219","6.5831643283680314","335.75861785741461","0.002844014","0.000005704","264"
"265","yellowsaltcube","0.0","-0.50839999038223194","0.46999999999999847","-0.50039999000224333","0.47000000000000619","-0.06839998578149846","0.47000000000000031","SIDE","0.58743391594235661","-0.21833948810829548","-0.51202603130491731","0.58743391594235672","216.72258410332424","55.516794128965373","25.39584541149053","0.004912132","0.000010232","265"
"266","yellowsaltcube","0.0","-0.51739999080971488","0.94719999999999793","-0.42139998950958241","0.94720000000000126","-0.38239999091681143","0.94720000000000126","TOP","-8.3390435991760053e-17","0.96731286596093724","-0.25325595760402436","0.012932102864824465","-6.930449212180446","0.70722301873216187","335.00263829705455","0.008031976","0.000015498","266"
"267","yellowsaltcube","0.0","1.03260003065728","1.570796326794897","-0.57839999370705186","0.94719999999999971","-0.38739998789468438","0.94720000000000115","SIDE","0.62963632737971398","-0.36090839610748721","0.27723874207385218","-0.62963632737971431","-166.35011408665034","-22.063624351804091","-119.82205841329942","0.001643160","0.000003415","267"
"268","yellowsaltcube","0.0","0.0026000175908250322","1.454000017400835","-0.57339999346956616","0.46999999999999931","-0.42939998988956279","1.466000017970815","SIDE","1.8416080214673593e-16","0.26116386477441494","-0.33773654820142157","0.90428284277933746","-90.075365997348996","79.716535385114355","-78.950112043913393","0.004770401","0.000070003","268"
"269","yellowsaltcube","0.0","-0.66539999457970767","0.4700000000000002","-0.57039999332707603","0.65800000566988925","0.036600015946106262","0.46999999999999931","SIDE","0.58743391594235639","-0.21833948810829557","-0.5120260313049172","0.58743391594235683","173.8184363895061","38.264650516008253","44.411566531364798","0.007626776","0.000027973","269"
"270","yellowsaltcube","0.0","-0.50439999019224868","0.94719999999999882","-0.43639999022204301","0.94719999999999938","-0.38039999082181603","0.94719999999999949","SIDE","0.99991637686133217","-0.0032754059945946943","-0.012510435646970106","-1.110248104420568e-16","6.1818929524353203","-2.7257704709504615","-188.92206573470597","0.007183891","0.000007870","270"
"271","yellowsaltcube","0.0","-0.51639999076221332","0.46999999999999931","1.0986000337921189","1.5707963267948959","-0.2073999858643828","0.46999999999999831","SIDE","0.82562746689763467","-0.41447670259522668","-0.3828163383529799","6.7235107184412955e-17","116.91841730958386","-161.44586623216651","53.964297941312758","0.000009953","0.000000021","271"
"272","yellowsaltcube","0.0","-0.60439999168236191","0.94719999999999815","-0.533399991569669","0.94719999999999949","-0.30439998721201178","0.94719999999999915","SIDE","0.93058157763503135","0.16140795647511824","-0.32858088646910455","-1.6404329244719875e-16","132.65887290648993","78.288695051560225","-152.7593441167256","0.002633394","0.000009710","272"
"273","yellowsaltcube","0.0","-0.5393999918546537","0.94719999999999704","-0.87039999779742316","0.94719999999999938","-0.7873999938551437","0.94720000000000126","SIDE","0.72753181992269844","0.1584359116274382","0.66752940976914921","-7.6300650653542524e-17","-186.61475727246122","49.441862025023205","59.708469959152573","0.006999113","0.000038377","273"
"274","yellowsaltcube","0.0","1.032600030657272","1.570796326794897","-0.57339999346956871","0.94719999999999949","-0.39139998808466819","0.94720000000000482","SIDE","0.60523182607213966","-0.32971004904048712","-0.39834677980433786","0.6052318260721401","182.1025932660136","16.834520115073804","-97.427706778162147","0.000887157","0.000001447","274"
"275","yellowsaltcube","0.0","-0.30839998740199859","0.46999999999999897","1.098600033792108","1.5707963267948959","-0.1583999867966398","0.78700000527780545","SIDE","0.70478710821434221","-0.70941886690060207","5.8140614996121698e-05","-1.1102007205240618e-16","-2.1877950940886182","-164.23447162618677","146.0384998980393","0.000027865","0.000009857","275"
"276","yellowsaltcube","0.0","-0.65539999410473204","1.202000011950731","-0.14839998632166629","0.46999999999999942","-0.35439998958688262","0.46999999999999859","TOP","0.26179174143175155","0.92876738800033398","-0.017925044582901228","0.26179174143175127","-93.03681604856429","122.24010257947614","219.1036567309759","0.002782919","0.000106637","276"
"277","yellowsaltcube","0.0","-0.50839999038223394","0.46999999999999897","1.09860003379211","1.570796326794897","-0.1563999867016459","0.94000000928528771","SIDE","0.62100627222064542","-0.47575365784102575","0.048588854443373464","-0.62100627222064553","-127.38888277152016","-81.127623316365145","39.993849678338073","0.003075221","0.000008505","277"
