ipa320/cob_manipulation/cob_grasp_generation/common/files/database/yellowsaltcube/yellowsaltcube.csv
"id","object","sdh_knuckle_joint","sdh_finger_12_joint","sdh_finger_13_joint","sdh_finger_22_joint","sdh_finger_23_joint","sdh_thumb_2_joint","sdh_thumb_3_joint","direction","qw","qx","qy","qz","pos-x","pos-y","pos-z","eps_l1","vol_l1"
"0","yellowsaltcube","0.75500000000000023","-0.2207963050485168","0.78100001427810473","-0.093796302275964902","0.56900001072790007","-1.2857963197773781","-7.2617962123588527e-16","SIDE","0.72304185116127195","-0.15677139186023439","-0.67278021088873141","-2.1112977850560094e-16","155.83120805491092","-37.652397501737198","125.9965268828051","0.007739475","0.000065894","0"
"1","yellowsaltcube","0.0","-0.65079631243390157","1.326000020606442","-0.53279631008883521","1.1810000202385691","-1.239796320852139","0.51200000802054946","SIDE","0.50096827327526494","-0.41847575434210588","0.56827776779582373","0.50096827327526516","-21.776409250015668","-163.04438619886659","28.801733706234142","0.000994613","0.000077377","1"
"2","yellowsaltcube","0.75500000000000045","-0.1287963039383852","0.57000001077540152","-0.13879630441335719","0.7090000108582879","-1.3027963205848541","0.0","SIDE","0.72406137094919709","-0.15594522111424003","-0.67187515143127596","0.0","157.73007086646373","-32.492619161860873","125.5470973968181","0.006117899","0.000054616","2"
"3","yellowsaltcube","0.0","1.032203712090618","1.570796326794897","-1.396796321789969","1.5707963267948959","-0.86079631588911154","1.570796326794897","SIDE","-0.018534868514315066","0.75962092380128365","-0.64983764851045567","0.018534868514314705","-28.257553040892176","-6.159667153802471","249.46912237720466","0.000122650","0.000003910","3"
"4","yellowsaltcube","0.0","-0.8107963135142352","1.4670000240439569","-0.56579631165625","1.444000022951516","-1.2097963194272121","0.0","SIDE","-3.125185280946093e-16","0.67611705016432699","-0.19507592704966786","0.71050061024801492","-149.11479641871315","55.664746836280493","111.15739153991656","0.009259282","0.000100943","4"
"5","yellowsaltcube","0.0","-0.89679631433939944","1.361000022268855","-0.89379631419690575","1.520796327679653","-1.1707963175748","1.320000020321459","SIDE","0.71198572510915181","0.086702592273803614","0.69682062809147527","0.0","-159.67685009641565","10.539897873567806","47.482969294968981","0.015494591","0.000149884","5"
"6","yellowsaltcube","0.75500000000000012","-0.3657963086760142","1.3090000197989891","-0.044796303208222317","0.95100001583341243","-1.172796317669802","0.0","SIDE","0.75802032432427124","0.14962648208693263","0.63483628107537748","-2.1969523553636625e-16","-150.08903681144224","28.633619939519733","-9.8777363192685677","0.000148282","0.000086386","6"
"7","yellowsaltcube","1.110223024625157e-16","-0.71179631207162664","1.465000023948962","-0.51679630932887788","1.379000023123808","-1.21979631990218","0.48400000995024861","SIDE","2.1564296701971505e-16","-0.69165772068037956","0.1430873641722602","0.70790931879546337","152.5879389981171","-26.894389345441027","29.012565377831574","0.008432225","0.000131118","7"
"8","yellowsaltcube","0.0","-0.30679630587365808","0.9680000166408762","-0.091796302180972247","0.591000011772852","-1.2857963197773841","0.0","SIDE","0.72304185116127206","-0.15677139186023439","-0.67278021088873119","-2.3032339473338276e-16","155.83120805491092","-37.652397501737077","125.99652688280516","0.010065540","0.000055174","8"
"9","yellowsaltcube","0.0","-1.030796317444425","1.3730000228388211","-0.91879631538434359","1.4900000251364081","-1.045796318156879","1.2300000193063161","SIDE","0.68253524254250897","-0.21042301559678844","-0.69990556305446816","-1.626616408098532e-16","145.4697905857891","-58.771810470832612","101.5377711415863","0.010656388","0.000113893","9"
"10","yellowsaltcube","0.75500000000000067","0.0022036990241550468","4.9402120930806344e-16","0.016203699689139039","-8.4055738057314539e-16","-1.2927963201098711","0.0","SIDE","0.70454680182651475","0.2511628053650295","0.66372513078622986","-3.9394935217466718e-17","-145.47743614907429","66.426127571643789","10.267153043635588","0.001162439","0.000022318","10"
"11","yellowsaltcube","0.0","-0.69779631140666643","1.4240000220015681","-0.54579631070630275","1.407000021194112","-1.2257963201871671","0.57900001120288114","SIDE","0.72049336232067418","0.1308339286399649","0.68100792797770149","-1.1556904088427496e-16","-155.33285774163593","24.046323973111789","24.323982730437333","0.011785632","0.000123779","11"
"12","yellowsaltcube","0.0","-0.1867963034336157","0.53600000916048496","-0.028796302448265049","0.13500000315252161","-1.3007963204898461","2.6187465647488088e-16","TOP","0.50149207317341327","0.55740263222197783","0.43164071480859356","-0.50149207317341382","14.374822668241416","162.85625941461379","8.5238410867687726","0.005943514","0.000108976","12"
"13","yellowsaltcube","0.75500000000000045","-0.18679630343360509","0.66800001217052551","0.045203697806920823","0.04000000189989731","-1.3007963204898421","0.0","TOP","0.50149207317341349","0.55740263222197783","0.43164071480859356","-0.50149207317341382","14.374822668241409","162.85625941461379","8.5238410867687726","0.005786710","0.000125560","13"
"14","yellowsaltcube","0.0","-0.78979631251680515","1.513796327347172","-0.60379631020152225","1.409000021289103","-1.1577963202169661","0.4960000105202208","SIDE","0.68002758560218646","-0.15253129903278764","-0.71714481496796134","-1.836691524208199e-16","149.49744809439071","-33.219651248664498","122.36811336419453","0.011907422","0.000115707","14"
"15","yellowsaltcube","0.0","-0.79279631265929784","1.1940000208560331","-0.72679631278406809","1.2520000203512569","-1.16479632054945","1.212000018451364","SIDE","-1.3310788658067002e-16","0.7298178729314192","-0.12365817818169578","-0.67236487662477051","159.7485122356415","-23.4190503620007","62.497139612168631","0.009303836","0.000116260","15"
"16","yellowsaltcube","0.755","-0.53579631023132102","1.3770000230288071","-0.41579630779126131","1.2960000224411561","-1.225796320187166","0.57900001120288513","SIDE","0.7204933623206744","0.13083392863996487","0.68100792797770127","-1.1556904088427494e-16","-155.33285774163593","24.046323973111743","24.323982730437343","0.012539815","0.000169097","16"
"17","yellowsaltcube","0.0","-0.27779630449623832","0.91100001393350882","-0.090796302133483844","0.574000010965387","-1.3027963205848341","0.0","SIDE","0.72406137094919709","-0.15594522111424","-0.67187515143127596","0.0","157.73007086646373","-32.492619161860858","125.5470973968181","0.011765058","0.000080287","17"
"18","yellowsaltcube","0.75500000000000034","-0.56879631179874057","1.4740000243764431","-0.39779630693631041","1.346000021556393","-1.23179632047215","0.51700000825803927","SIDE","2.1564296701971505e-16","-0.69165772068037967","0.14308736417226026","0.70790931879546326","151.51075084995202","-26.671544998837387","29.015063705989828","0.005384346","0.000156901","18"
"19","yellowsaltcube","4.4408920985006271e-16","-1.285796319777375","0.0","-1.2577963217070789","0.0","-0.26379630709090579","1.1820000202860581","SIDE","-1.1733743744846622e-16","0.70963478202305974","-0.11673727960174433","-0.69483155058925505","154.83272299365592","-1.8544117285678585","116.93661114355356","0.003845296","0.000100459","19"
"20","yellowsaltcube","0.0","-0.95779631723673553","1.449000023189005","-0.896796314339386","1.5287963280596331","-1.1507963198844819","1.2730000213487089","SIDE","0.7178446785989252","0.12154815830810742","0.68551080415928733","5.7997732190064471e-17","-156.65483680834049","22.252422807048855","45.311432769213901","0.012533088","0.000119323","20"
"21","yellowsaltcube","0.0","-0.69179631112166418","1.4560000235214809","-0.51579630928136999","1.3760000229813101","-1.221796319997182","0.42600000719539632","SIDE","1.9603906092701367e-16","-0.69165772068037967","0.14308736417226023","0.70790931879546326","151.51334082730017","-32.088803081903919","29.012565377831258","0.008304162","0.000110803","21"
"22","yellowsaltcube","0.0","-0.57579630887158173","1.17400001990609","-0.37279630574885397","0.68300001288299295","-1.23879632080463","0.69300001335796368","TOP","0.50294591327648908","0.53693903619989236","0.45363783797395796","-0.50294591327648952","8.777234433854149","163.38517358643156","27.763388905715871","0.005055605","0.000105060","22"
"23","yellowsaltcube","0.755","0.01720369973662059","1.4075040610421411e-16","-0.13279630412836721","0.47500000952277599","-1.2657963220870601","-1.208353803292893e-16","SIDE","-0.49248538363581934","0.59269671057345685","0.40450822375517076","0.49248538363581973","-26.438024165306373","-160.91014444630008","136.31914109322017","0.008093810","0.000100923","23"
"24","yellowsaltcube","0.0","-0.66079631290887941","1.5317963282021281","-0.63779631181643748","1.500000025611371","-1.186796318334769","0.51800000830553417","SIDE","0.68002758560218646","-0.15253129903278759","-0.71714481496796123","-1.836691524208199e-16","148.45647483593447","-27.568845323280268","122.20283842947288","0.007575670","0.000110493","24"
"25","yellowsaltcube","0.0","-1.104796317699599","2.585073405054973e-16","-1.1117963180320809","1.4010000209091249","-0.89679631433939166","1.3960000239312711","SIDE","0.69412401612343422","-0.22670456005400316","-0.68322536010557688","3.1989183455301403e-16","142.36129888051138","-67.30719347457088","77.22034221518912","0.006604611","0.000114074","25"
"26","yellowsaltcube","0.0","-1.0377963177768981","1.055000017513515","-1.04879631829937","1.3230000204639489","-1.001796316066994","1.48800002504141","SIDE","0.70052989000326915","0.13179175720366895","0.70134784946214579","-1.78293734575333e-16","-160.03002259557283","18.8258055597211","74.876649641632426","0.011311330","0.000146589","26"
"27","yellowsaltcube","0.0","-0.61079631053400429","1.422000021906568","-0.58179630915656988","1.409000021289105","-1.196796318809731","0.48700001009273991","SIDE","1.3777285478036219e-16","0.69655045621283507","-0.13282506634880945","0.70510634921203608","-156.78482814685626","23.92491227100831","113.15195483636899","0.007169286","0.000117113","27"
"28","yellowsaltcube","2.2204460492503131e-16","-0.78379631223180213","1.2610000207787411","-0.72379631264158117","1.24400001997128","-1.1637963205019519","1.199000021093525","SIDE","-1.1409247421200289e-16","0.72981787293141942","-0.12365817818169578","-0.67236487662477051","158.77024553865527","-28.596835414282239","62.487554517034042","0.009983547","0.000094399","28"
"29","yellowsaltcube","0.0","-1.0967963173196149","0.0","-1.1087963178895921","1.3940000238362671","-0.94979631685675403","1.470000024186453","SIDE","0.69412401612343433","-0.22670456005400319","-0.68322536010557688","3.1989183455301408e-16","143.1206566905314","-65.018714563647649","77.22034221518912","0.006563959","0.000070941","29"
"30","yellowsaltcube","0.0","-0.5857963093465971","1.2430000199237761","1.098203715225442","1.570796326794897","-1.230796320424643","0.64100001088809311","SIDE","2.1506558913287107e-16","-0.70371273724406347","0.030958213057448766","0.70980981430574575","157.75411371657165","13.735477790449952","28.309958610703287","0.004412619","0.000046827","30"
"31","yellowsaltcube","0.0","-0.92479631566931986","1.462000023806463","-0.87979631353193266","1.4270000221440571","-1.163796320501951","1.3260000206064451","TOP","0.50034376376371337","0.57197558157670636","0.41491706424960573","-0.50034376376371315","18.320132334080469","161.9925382437568","49.128680626469503","0.007593943","0.000243073","31"
"32","yellowsaltcube","0.0","-1.003796316161977","1.516796327489667","-0.92379631562182229","1.481000024708929","-1.076796316369681","1.219000018783843","SIDE","0.68634711427368522","-0.13578770808751423","-0.71448536518288819","-2.2241758246117815e-16","151.45521595854294","-30.392455033281102","100.06830860831575","0.013735383","0.000176592","32"
"33","yellowsaltcube","0.0","-1.112796318079581","1.261000020778742","-1.1217963185070581","1.39800002402627","-0.94079631642926975","1.4070000211941089","SIDE","0.72483684925395098","0.13770924713543928","0.67501681846972938","-5.7438254506921279e-17","-157.8923763502074","25.893489871766104","65.691191617473493","0.008423624","0.000094141","33"
"34","yellowsaltcube","3.3306690738754691e-16","-0.32279630663362002","-1.0907908661758721e-15","-0.58279630920408065","1.411000021384095","-1.1977963188572269","0.48500000999775078","SIDE","1.574546911775568e-16","0.69655045621283507","-0.13282506634880942","0.70510634921203608","-157.97180618155227","18.767960855930021","113.15308485095986","0.005121176","0.000080771","34"
"35","yellowsaltcube","0.75499999999999967","-0.69679631135916231","1.4990000255638809","-0.34479630767856601","1.2300000193063221","-1.2097963194272101","0.0","SIDE","-3.5158334410643544e-16","0.67611705016432699","-0.19507592704966784","0.71050061024801481","-149.11479641871315","55.66474683628023","111.15739153991656","0.007221502","0.000127295","35"
"36","yellowsaltcube","0.0","1.032203712090612","1.5707963267948959","-1.230796320424651","0.77400001394562945","-0.62979631143645609","1.442000022856524","SIDE","0.69869564264367345","-0.054472354166850499","-0.71334224715928984","-8.938089967023575e-17","156.77185086135185","9.5589107238187303","52.384758070388777","0.002603798","0.000028171","36"
"37","yellowsaltcube","0.0","-0.1127963031784162","-5.265388888363902e-16","0.026203700164101049","0.38400000846014382","-1.292796320109874","0.0","SIDE","0.70454680182651486","0.25116280536502961","0.66372513078622986","-3.9394935217466724e-17","-145.47743614907424","66.426127571644003","10.267153043635592","0.002328404","0.000046246","37"
"38","yellowsaltcube","0.0","-1.2447963210896269","0.0","-1.2497963213271099","0.0","-0.30579630582616413","1.2730000213486989","SIDE","0.7051063492120363","0.13282506634880964","0.69655045621283485","0.0","-157.08775025778544","18.599380409698803","113.14799978529844","0.003699551","0.000080279","38"
"39","yellowsaltcube","0.755","-0.023796302210773689","0.0","-0.18279630324360349","0.55700001015793987","-1.272796319159923","-5.0354541713345943e-16","TOP","0.4396358213636023","0.7264676505278771","0.29272075752226245","-0.4396358213636028","74.308198076040384","160.69245391062952","62.909181845785021","0.001355944","0.000051548","39"
"40","yellowsaltcube","0.0","-0.89579631429189821","0.0","-1.051796318441869","1.361000022268849","-1.0387963178243991","1.492000025231401","SIDE","-9.8025433868823748e-17","0.70786668623091797","-0.16800983163045141","-0.686073939892754","150.94103169454831","-36.162928265930468","80.149928336404074","0.007056165","0.000076263","40"
"41","yellowsaltcube","0.0","-0.88179631362694133","1.345000021508894","1.098203715225428","1.5707963267948959","-1.1737963177172881","1.3500000217463859","SIDE","-3.3072819347564062e-16","0.71334224715928951","-0.054472354166850596","-0.69869564264367379","158.76548746496778","9.4066723283148512","52.432055669145996","0.007147152","0.000049981","41"
"42","yellowsaltcube","0.0","-1.198796318904733","0.0","-1.2087963193797","0.78700001456309399","-0.66479631309886789","1.44800002314151","SIDE","-7.7765458639324759e-17","0.66858344711947082","-0.20843693256238008","0.71382786397130193","-147.90787520505285","57.964555285504446","46.803981908779456","0.004348283","0.000064469","42"
"43","yellowsaltcube","0.75500000000000034","0.0042036991191553869","0.16700000467244419","-0.097796302465954041","0.34000000637024752","-1.269796322277051","0.0","TOP","-0.49158402796294987","-0.37865671599537498","0.61099048956186019","-0.49158402796294975","27.726210488635118","159.06032825006926","136.78357248783638","0.001579937","0.000159409","43"
"44","yellowsaltcube","0.0","-1.2257963201871691","0.0","-1.1947963187147439","0.9250000145984828","-0.72779631283157797","1.509796327157179","SIDE","0.71287757915747352","0.13513998063429591","0.68814441999390075","-2.5307464672238676e-16","-157.60530587127519","19.411890645052033","90.275305749868977","0.004979433","0.000056866","44"
"45","yellowsaltcube","0.0","-1.080796316559663","1.275000021443697","-1.130796318934536","1.36600002250634","-0.83279631455918179","1.25400002044625","TOP","0.51930751632597794","0.54846515970254828","0.39978165986841607","-0.51930751632597827","18.811967176324504","166.85378883679545","61.715846105081084","0.010876258","0.000115942","45"
"46","yellowsaltcube","0.0","-1.2297963203771589","0.0","-1.2367963207096371","0.8150000126333905","-0.52479630970885327","1.1530000189086349","SIDE","0.67236487662476985","-0.12365817818169555","-0.72981787293141975","-1.6512210307570014e-16","156.21858539805712","-28.164489679779688","62.238342074784178","0.007308746","0.000087578","46"
"47","yellowsaltcube","0.0","-1.159796320311961","0.0","-1.173796317717297","1.166000019526112","-0.80479631322925915","1.491000025183902","SIDE","7.7754522829102495e-17","0.66187682119712932","-0.2285290186980711","0.71392826052403879","-147.04807439792697","62.371342480557232","55.311949003348921","0.009876198","0.000120960","47"
"48","yellowsaltcube","0.0","-1.047796318251875","1.203000018023884","-1.052796318489359","1.3630000223638481","-1.0297963173969189","1.502796326824702","SIDE","-1.1763052064258855e-16","0.70786668623091809","-0.16800983163045147","-0.68607393989275423","152.07677928491404","-30.945461094604021","80.14406782623827","0.007767368","0.000112754","48"
"49","yellowsaltcube","0.0","-0.88279631367443556","1.4720000242814371","-0.90079631452938513","1.4710000242339381","-1.1227963185545611","1.2530000203987539","SIDE","0.50521459340121488","-0.4015618060790489","0.57294375389511198","0.50521459340121488","-24.87687757829217","-163.13255132898328","46.55925717302086","0.008340253","0.000134621","49"
"50","yellowsaltcube","0.75499999999999856","-0.72279631259408639","1.5687963299595391","-0.42479630821873948","1.363000022363839","-1.117796318317068","0.0","SIDE","0.66858571386296706","-0.17101655624596823","-0.72370330986400511","0.0","145.56405275350963","-46.967622026502852","126.40424525059271","0.004180636","0.000116456","50"
"51","yellowsaltcube","0.0","-1.224796320139665","0.0","-1.197796318857228","0.90600001369602878","-0.65179631248140557","1.3220000204164499","SIDE","0.72907889674779358","0.14876204638783028","0.668067224066205","-1.713121732469183e-16","-159.34989357359879","28.594177567912865","83.938103565514439","0.005578807","0.000083249","51"
"52","yellowsaltcube","0.755","-0.42479630821872771","1.3720000227913169","-0.46479631011863543","1.3940000238362731","-1.2327963205196451","0.45600000862031959","SIDE","1.9603906092701367e-16","-0.69165772068037967","0.14308736417226023","0.70790931879546326","150.53407887442205","-31.886217312263909","29.014836585247824","0.005297358","0.000182458","52"
"53","yellowsaltcube","0.0","-1.153796320026975","0.0","-1.2047963191897091","0.64800001122057627","-0.52379630966135882","1.1780000200960701","SIDE","0.6782154944232176","-0.25741362749346663","-0.68830368842897049","4.0924419810304393e-17","145.45372455165764","-73.128047754682598","60.250540882043303","0.003356255","0.000060445","53"
"54","yellowsaltcube","0.0","-1.064796319059331","1.167000019573611","1.0982037152254489","1.570796326794897","-0.99179631559201686","1.515796327442166","SIDE","-3.8631394462486912e-17","0.71847200966511893","-0.079802179379051957","-0.69096279458022847","159.10465022420038","4.7285196704602868","78.444870683750494","0.004589373","0.000033910","54"
"55","yellowsaltcube","0.0","-1.097796317367105","1.1700000197161029","-1.104796317699589","1.4100000213366","-0.95679631718923785","1.4490000231890099","SIDE","1.5644579900794502e-16","0.67292221218449388","-0.20872868518686491","0.70965345932285118","-149.05187565287753","58.567026887767071","71.461534809231779","0.003829848","0.000090397","55"
"56","yellowsaltcube","0.0","-1.1007963175096009","1.1670000195736061","-1.105796317747094","1.411000021384097","-0.95379631704674706","1.448000023141506","SIDE","1.5644579900794502e-16","0.672922212184494","-0.20872868518686485","0.70965345932285118","-148.84298514029152","59.240467880599333","71.461534809231807","0.011934212","0.000128430","56"
"57","yellowsaltcube","0.75500000000000034","-0.45179630950116417","1.208000018261375","-0.16579630569578241","0.27200000640005029","-1.238796320804634","0.69300001335796835","TOP","0.50294591327648908","0.53693903619989225","0.45363783797395796","-0.50294591327648941","8.7772344338541508","163.38517358643145","27.763388905715868","0.011838264","0.000129162","57"
"58","yellowsaltcube","0.75500000000000012","-0.065796304205665568","3.173858077061388e-16","-0.43479630869371472","1.1560000190511339","-1.199796318952226","0.0","SIDE","0.71629659850661653","0.25691496030167627","0.64877876517426114","-1.1624615699765549e-16","-142.90296065617309","67.272313757912613","25.909653162055964","0.003878538","0.000073531","58"
"59","yellowsaltcube","0.755","-0.35979630839103233","1.042000016896055","-0.26879630732839238","0.68300001288298373","-1.239796320852131","0.51200000802055123","SIDE","0.50096827327526505","-0.41847575434210599","0.56827776779582362","0.50096827327526505","-21.776409250015671","-163.04438619886653","28.801733706234142","0.010134077","0.000135818","59"
"60","yellowsaltcube","0.0","-1.1627963204544529","0.0","-1.2007963189997291","0.74500001256819814","-0.66379631305137055","1.4420000228565211","SIDE","7.7754522829102532e-17","0.66187682119712943","-0.2285290186980711","0.71392826052403879","-146.8726099466131","62.371342480557253","46.758642840991627","0.005175852","0.000076581","60"
"61","yellowsaltcube","0.0","-0.49279630818893788","-2.4686616963334298e-16","-0.81279631360922922","1.353000021888878","-1.154796320074474","1.2500000202562629","SIDE","1.9034685916324264e-16","0.66806722406620533","-0.14876204638783005","0.72907889674779358","-159.44730832261115","28.615869422996852","83.931792357582509","0.007589790","0.000089176","61"
"62","yellowsaltcube","0.755000000000001","-1.210796319474706","0.18400000547990081","-0.68779631093166782","1.3950000238837701","0.0062036992141484074","0.76000001328065914","SIDE","0.50729432298564237","-0.30852339503893261","0.62459447199501239","-0.50729432298564237","-147.64580076310716","64.676601988823975","108.53749842685126","0.004899616","0.000146504","62"
"63","yellowsaltcube","0.75499999999999989","-0.53979631042131493","1.2490000202087681","-0.099796302560955036","0.28500000701751832","-1.0657963191068289","-7.9793775313666727e-16","SIDE","-0.49169848920914139","0.61797309814569623","0.36684389239444226","0.49169848920914155","-54.901465758621541","-153.68392042654065","116.6982981817147","0.008011485","0.000069394","63"
"64","yellowsaltcube","3.7470027081099038e-16","-0.16979630588577341","8.0803970104481823e-16","-0.40479630726878391","1.2800000216811871","-1.5707963267948959","1.100000019650897","TOP","0.4396358213636023","0.7264676505278771","0.2927207575222624","-0.43963582136360285","64.807988818401356","138.36952017768201","57.257566712436571","0.005432599","0.000085017","64"
"65","yellowsaltcube","0.75499999999999978","-0.035796302780742369","0.0","-0.32979630696611623","1.162000019336116","-1.570796326794897","1.100000019650913","TOP","0.4396358213636023","0.7264676505278771","0.29272075752226245","-0.4396358213636028","64.807988818401341","138.36952017768206","57.257566712436571","0.006913661","0.000071161","65"
"66","yellowsaltcube","0.75500000000000056","-0.67579631036170085","1.4260000220965641","-0.2917963051612088","1.1140000170562401","-1.0397963178718901","0.0","SIDE","-3.868790728435307e-17","0.65981397142602971","-0.22349600185257915","0.71742251168117255","-147.3617815074131","64.580397345025204","108.54631546356222","0.006598701","0.000090980","66"
"67","yellowsaltcube","0.755","-0.44279630907368572","1.378000023076317","-0.54579631070630208","1.406000021146609","-1.1677963206919391","0.52600000868551355","SIDE","0.68002758560218646","-0.15253129903278764","-0.71714481496796134","-1.836691524208199e-16","148.61962717692558","-33.03294535319646","122.30050089089927","0.012580477","0.000182943","67"
"68","yellowsaltcube","0.0","-0.19479630381357671","1.2790674386499509e-15","-0.48379630776145421","1.303000019514001","-1.219796319902178","0.0","SIDE","0.71461399736023623","0.20179805254388825","0.66977935229918695","-1.1651986548608292e-16","-148.17403856672496","55.443752476663107","26.511680140565051","0.002472160","0.000047918","68"
"69","yellowsaltcube","0.75500000000000056","-0.26179630699590889","1.164000019431114","-0.5737963087765926","1.3870000235037809","-1.196796318809731","0.48700001009274091","SIDE","1.574546911775568e-16","0.69655045621283507","-0.13282506634880945","0.70510634921203608","-156.78482814685623","23.92491227100821","113.15195483636899","0.010588652","0.000193782","69"
"70","yellowsaltcube","0.75500000000000023","-0.79879631294426756","1.5247963278696479","-0.1247963037483981","0.87900001567322539","-1.02579631720693","0.0","SIDE","0.69882352539893766","-0.20393426176260865","-0.68560666364056011","-7.9435149524435598e-17","141.25519456226419","-63.156588270032387","115.47221102880202","0.007253009","0.000098059","70"
"71","yellowsaltcube","0.0","-0.20679630438354391","0.0","-0.46879631030862318","1.297000022488654","-1.1997963189522209","-1.0316116698392131e-15","SIDE","0.71629659850661642","0.25691496030167632","0.64877876517426125","-7.7497437998437e-17","-142.90296065617312","67.272313757912386","25.909653162055974","0.003495229","0.000065084","71"
"72","yellowsaltcube","0.75500000000000067","-1.205796319237201","0.2770000066375376","-0.69879631145413446","1.4520000233314969","0.0052036991666491164","0.78100001427810628","SIDE","0.5023997995435513","-0.3401474401839682","0.61602646191011323","-0.50239979954355174","-149.78733066811725","55.85878903969148","111.15065597546963","0.005928783","0.000169817","72"
"73","yellowsaltcube","0.75499999999999978","-0.57879630901409351","1.281000021728681","-0.040796303018233768","0.1240000026300557","-1.1957963187622409","-2.8765770406444039e-16","TOP","-0.49516823186898229","-0.36093778955008271","0.61590645098926466","-0.49516823186898268","50.777492399074688","153.59898627275902","114.92405172602408","0.004618626","0.000052856","73"
"74","yellowsaltcube","0.0","-1.129796318887037","0.0","-1.1967963188097339","0.60700000927318021","-0.61079631053400552","1.409000021289103","SIDE","0.69742718166825901","-0.2698169254304309","-0.66392330356867169","2.3878256837570097e-16","139.93767128902721","-75.411297946602787","52.89721560459477","0.005285905","0.000088073","74"
"75","yellowsaltcube","0.0","-0.97079631459458526","1.3160000201314701","-0.87179631315195782","1.486000024946412","-1.0407963179193891","1.219000018783841","SIDE","3.8506175224728773e-17","0.65440106556400246","-0.2284610604170304","0.72080842757408459","-147.48890828108017","64.521073688368517","87.24112503543148","0.011719763","0.000196542","75"
"76","yellowsaltcube","0.755","-0.72579631273658785","1.3980000240262731","0.01620369968912954","0.94700001564342073","-1.238796320804638","0.6630000119330377","SIDE","2.1506558913287107e-16","-0.70371273724406347","0.030958213057448766","0.70980981430574575","157.05481058264971","13.766242013215731","28.315320572516843","0.008011457","0.000095042","76"
"77","yellowsaltcube","0.75499999999999989","-0.071796301231028911","0.0","-0.50679630885389471","1.1200000173412259","-1.1977963188572309","0.60200000903569106","TOP","-0.49567581328510041","-0.39723828874077288","0.59229445228417488","-0.49567581328510057","23.234339647381081","161.08075763009339","114.67701992238892","0.007922662","0.000080627","77"
"78","yellowsaltcube","3.3306690738754701e-16","-0.017796301925781279","-1.634550077657673e-16","-0.1167963033684077","0.36600000760518059","-1.2657963220870601","-2.2387269793041201e-16","SIDE","-0.49248538363581934","0.59269671057345685","0.4045082237551707","0.49248538363581962","-26.438024165306373","-160.91014444630011","136.31914109322017","0.007410415","0.000098084","78"
"79","yellowsaltcube","0.75500000000000089","-1.2167963197596809","0.1960000060498707","-0.78279631218431034","1.454000023426482","0.072203699089351356","0.59500001196284036","SIDE","-0.49414285366227817","0.6290004204955375","0.34059382167831143","-0.4941428536622785","142.59672522999628","-63.555627662245357","115.50481893581275","0.015185774","0.000187689","79"
"80","yellowsaltcube","0.75500000000000023","-0.099796302560977601","0.089000004227264964","-0.62979631143645409","1.4170000216690819","-1.1977963188572349","0.48500000999774873","SIDE","1.3777285478036219e-16","0.69655045621283507","-0.13282506634880945","0.70510634921203608","-157.97180618155227","18.767960855930056","113.15308485095989","0.011053487","0.000135271","80"
"81","yellowsaltcube","0.0","-1.066796319154325","0.0","-1.1907963185247621","0.93200001493096418","-0.72379631264159183","1.355000021983876","TOP","0.49677943712690087","0.59742995313977365","0.3866494960389405","-0.49677943712690115","25.071526307064012","159.77656894262356","94.084638676941537","0.007186812","0.000061673","81"
"82","yellowsaltcube","0.0","-1.010796316494472","1.4320000223815399","-1.1237963186020561","1.4330000224290449","-0.99079631554453262","1.4710000242339489","SIDE","0.50036834451849399","-0.42676280946611977","0.56314877613666814","0.50036834451849432","-20.095049081047861","-163.78846023888423","72.220529550006532","0.007565245","0.000099893","82"
"83","yellowsaltcube","0.75500000000000012","-1.129796318887037","0.92300001450348867","-0.62679631129396851","1.279000021633699","0.1152037011317385","0.0","TOP","7.9270657810455429e-17","-0.18029006949370194","-0.69073318664839534","0.70027362916542069","50.954245743877905","154.27616944457216","114.93751530887452","0.004891957","0.000095085","83"
"84","yellowsaltcube","0.755","-0.27879630454371612","1.206000018166379","-0.60279631015401658","1.434000022476539","-1.170796317574812","0.47100000933278258","SIDE","0.68002758560218646","-0.15253129903278759","-0.71714481496796123","-1.6326146881850658e-16","149.8219740408806","-27.859276716230564","122.30801338793219","0.007887820","0.000130587","84"
"85","yellowsaltcube","0.755","-1.061796318916838","1.13400001800619","-0.081796301706002467","8.9145086291239416e-16","-0.66779631324135946","1.3890000235987789","SIDE","-0.4922560500678394","-0.27634320590415007","0.66257255821067151","0.4922560500678399","139.9354177488068","-75.963087163958264","49.172544504957102","0.008655445","0.000159061","85"
"86","yellowsaltcube","0.75500000000000012","-0.066796304253164393","0.27500000654254131","-0.51679630932887854","1.280000021681194","-1.2197963199021751","3.0310025670050542e-15","SIDE","0.71461399736023623","0.20179805254388816","0.66977935229918695","-1.1651986548608292e-16","-148.17403856672499","55.443752476663093","26.511680140565034","0.005275706","0.000088545","86"
"87","yellowsaltcube","0.755","0.089203699896806682","0.0","-0.71879631240409492","1.4150000215740841","-1.211796319522199","0.63300001050811383","SIDE","0.69483155058925483","-0.1167372796017442","-0.70963478202306007","5.9918642710072703e-17","155.32579966036874","-1.9355244786248067","116.95382026093236","0.008239362","0.000098659","87"
"88","yellowsaltcube","0.75499999999999978","-1.0527963184893601","1.1920000207610411","-0.081796301705996569","-7.0317429043831514e-16","-0.66679631319386445","1.390000023646276","SIDE","-0.49315548954144811","-0.27867529249041961","0.66025404779194508","0.49315548954144844","139.75245601408903","-75.33602687875819","52.891777473747652","0.009356048","0.000155526","88"
"89","yellowsaltcube","0.75500000000000034","-0.45979630988114789","1.0710000182734729","-0.49879630847391049","1.0330000164685751","-1.1647963205494449","1.212000018451362","SIDE","-1.3310788658067002e-16","0.72981787293141942","-0.12365817818169578","-0.67236487662477051","159.74851223564147","-23.419050362000831","62.497139612168624","0.011737509","0.000173641","89"
"90","yellowsaltcube","0.0","-0.69379631121666197","1.380000023171311","-0.94079631642927297","1.515796327442164","-1.093796317177131","1.2530000203987559","SIDE","0.68634711427368522","-0.13578770808751423","-0.71448536518288808","-2.224175824611781e-16","151.65779630100707","-25.048925284953857","100.02202438346298","0.009982879","0.000126063","90"
"91","yellowsaltcube","0.0","-1.123796318602049","0.0","-1.213796319617191","0.37900000822264662","-0.52179630956636314","1.3410000213189051","SIDE","0.69615518216614836","-0.27310539410922929","-0.66391370376853909","1.1960943332748737e-16","140.12029254649909","-76.03913666285834","49.178691690279621","0.005864281","0.000097792","91"
"92","yellowsaltcube","0.0","-0.1997963040510625","1.6842608935352869e-14","-0.59479630977404152","1.1990000210935301","-1.1977963188572329","0.60200000903569284","TOP","-0.4956758132851003","-0.39723828874077288","0.59229445228417488","-0.49567581328510069","23.234339647381091","161.08075763009342","114.67701992238891","0.005822358","0.000062849","92"
"93","yellowsaltcube","0.755","-1.0137963166369659","1.235000019543804","-0.084796301848481484","4.9892774824145018e-16","-0.61079631053400008","1.2340000194963039","SIDE","-0.47957077521244407","-0.30468528403337958","0.66872312717429583","0.4795707752124444","144.14663343628641","-72.639218374383859","60.13847439430225","0.008563064","0.000123861","93"
"94","yellowsaltcube","0.75499999999999878","-1.2307963204246519","0.40300000610295722","-0.7077963118816204","1.279000021633691","0.1792037009119509","0.0","SIDE","0.70700637200168714","-0.68920925191498306","0.15853263709344309","1.9628943044068263e-16","-60.877299579808238","-155.44509042507136","112.45185307492564","0.010467914","0.000162294","94"
"95","yellowsaltcube","0.75500000000000023","-0.63379631162644312","1.3730000228388239","-0.34879630786856231","1.0920000192709389","-1.170796317574802","1.320000020321459","SIDE","0.71198572510915181","0.086702592273803614","0.69682062809147527","1.9491665799460949e-17","-159.67685009641559","10.53989787356795","47.482969294968981","0.015610851","0.000169710","95"
"96","yellowsaltcube","0.75500000000000023","-1.5707963267948959","1.570796326794897","-0.1317963040808702","1.570796326794897","-1.146796319694491","1.570796326794897","SIDE","-0.49315548954144811","-0.27867529249041961","0.66025404779194508","0.49315548954144844","116.68389496002131","-65.961015963707737","52.214458318962606","0.000005320","0.000022618","96"
"97","yellowsaltcube","0.75499999999999967","-1.1777963179072899","0.63200001046061649","-0.60179631010652535","1.2480000201612711","0.088203699849311451","0.091000004322266126","SIDE","0.69536667203792879","-0.69637077223865995","0.17757516434070333","3.9915021429320064e-17","-55.024945617389925","-154.16815348315245","116.71476337415984","0.006907619","0.000117067","97"
"98","yellowsaltcube","0.0","-1.195796318762236","0.0","-1.240796320899622","0.0","-0.29879630549369662","1.2270000191638291","SIDE","0.7051063492120363","0.13282506634880964","0.69655045621283485","0.0","-156.78482814685424","23.924912271006814","113.15195483636664","0.002523323","0.000047659","98"
"99","yellowsaltcube","0.75499999999999989","0.002203699024158737","0.0","-0.52579630975634473","1.148000018671147","-1.2087963193797071","0.58800001163036419","SIDE","-0.49595338243957338","0.60034972488620797","0.38424041005930981","0.49595338243957354","-30.384193821222141","-161.19211725053097","114.53557498760023","0.008249241","0.000077422","99"
"100","yellowsaltcube","3.3306690738754701e-16","-0.98879631544951596","0.0","-1.190796318524755","0.94800001569092784","-0.71379631216661799","1.3240000205114479","SIDE","0.49991195073307437","-0.40014316331596456","0.5831479502493323","0.49991195073307448","-26.308460131255764","-162.7802479413123","92.460506053455092","0.006522666","0.000095759","100"
"101","yellowsaltcube","0.75500000000000023","0.078203699374335064","-3.745228429138129e-15","-0.38379630627135192","0.88100001576822551","-1.1877963183822819","6.4458469327905088e-16","SIDE","0.50171473056979854","-0.25107332520643699","0.65842755381919682","0.50171473056979865","-82.090897790986205","-144.73804163081172","28.412112314607683","0.004860310","0.000062409","101"
"102","yellowsaltcube","0.75499999999999989","-1.149796319836984","0.99400001787580328","-0.65679631271888417","1.4540000234264889","-0.037796302875741213","0.91200001398101427","SIDE","0.50946574229684505","0.57405888206542899","0.38903176576423631","0.50946574229684494","-155.74200375311872","18.738792257008573","24.346915554046117","0.006533624","0.000079575","102"
"103","yellowsaltcube","0.755","-1.1207963184595611","0.35800000722520031","-0.75079631392401658","1.5387963285346069","-0.0057963013558139601","0.74600001261570437","SIDE","-0.47276149207695289","0.63266248458868191","0.3908085513552923","-0.472761492076953","145.56405275351003","-46.96762202650185","126.40424525059207","0.006782760","0.000144743","103"
"104","yellowsaltcube","0.0","-0.083796301800995635","2.9775965197259151e-16","-0.25279630656843532","0.71700001123827106","-1.272796319159925","-4.2504079419927059e-16","TOP","0.4396358213636023","0.7264676505278771","0.29272075752226245","-0.4396358213636028","74.308198076040355","160.69245391062941","62.909181845785021","0.002049224","0.000042268","104"
"105","yellowsaltcube","0.75499999999999856","-0.34879630786855959","0.97400001692584803","-0.62979631143646053","1.1670000195736061","-1.163796320501951","1.199000021093513","SIDE","-1.3310788658067e-16","0.72981787293141931","-0.12365817818169578","-0.6723648766247704","158.77024553865527","-28.596835414282083","62.487554517034006","0.014115605","0.000168027","105"
"106","yellowsaltcube","0.0","1.032203712090616","1.570796326794897","-0.82879631436919055","1.4650000239489609","0.069203698946861583","0.70300001057330563","SIDE","-0.47038555499485285","0.66699704450526009","0.33554403872758132","-0.47038555499485302","142.70022897598534","-68.797793365818208","24.527392291020956","0.004873342","0.000005366","106"
"107","yellowsaltcube","0.755","-1.053796318536856","1.2690000211587149","-0.19279630371859849","1.0130000155186281","-0.57879630901409684","1.353000021888874","SIDE","0.50482351429726402","0.62961200739799983","0.3064231697593725","0.50482351429726413","-146.77810342718846","62.338711813562234","46.760581553347656","0.012462333","0.000164629","107"
"108","yellowsaltcube","0.75499999999999978","-0.53979631042131138","1.3770000230288171","-0.61279631062899975","1.425000022049058","-1.1617963204069559","1.2950000223936491","SIDE","0.7178446785989252","0.12154815830810743","0.68551080415928733","5.7997732190064471e-17","-156.06432843202754","22.147719562152698","45.32979394947079","0.014028303","0.000199296","108"
"109","yellowsaltcube","0.75500000000000023","-1.018796316874456","1.353000021888874","-0.2137963047160322","1.03700001665857","-0.5797963090615782","1.376000022981317","SIDE","0.50475252321401587","0.62014705771183776","0.32537272078267315","0.50475252321401598","-147.71697379556298","57.90504004565301","46.807801996771737","0.013570746","0.000121232","109"
"110","yellowsaltcube","0.0","-0.59679630986902987","0.0","-1.043796318061883","1.3280000207014411","-1.0057963162569921","1.449000023189003","SIDE","-1.9146084835640433e-17","0.67501681846972972","-0.13770924713543931","0.72483684925395075","-158.08808718797437","25.933416568977865","65.681036233625093","0.007057742","0.000070006","110"
"111","yellowsaltcube","0.0","-0.30979630601614122","-1.824318436717199e-15","-0.89679631433938811","1.483000024803919","-1.1307963189345429","1.262000020826233","SIDE","3.8934561034213352e-17","0.68814441999390086","-0.13513998063429594","0.71287757915747352","-158.39020628543207","19.56603187425889","90.2621946404646","0.005975722","0.000082724","111"
"112","yellowsaltcube","0.75500000000000078","-1.061796318916838","1.228000019211321","-0.55179631099128379","1.4320000223815399","-0.27679630444873571","1.18100002023856","SIDE","-0.48085211717322129","0.61495387764589438","0.39924204586733997","-0.48085211717322179","148.71716283442146","-33.053690452693893","122.30801338793262","0.007890504","0.000147167","112"
"113","yellowsaltcube","0.0","0.17520370072195879","-9.4850123710765461e-16","-1.2327963205196459","3.5458884258746519e-15","-0.35479630815354352","0.91600001417100874","SIDE","0.49169848920914166","-0.36684389239444187","0.61797309814569623","0.49169848920914155","-55.099033532652776","-154.45869331711938","116.72464248962686","0.001014052","0.000052670","113"
"114","yellowsaltcube","0.75499999999999978","-0.94179631647677686","1.181000020238566","-0.067796304300661803","0.0","-0.45079630945367011","1.128000017721204","SIDE","1.5622521916054069e-16","0.23092756500490511","0.66456098279432496","0.7106554438462751","-65.73598857746444","-152.08237803662064","47.990891784516172","0.011001031","0.000153760","114"
"115","yellowsaltcube","0.0","0.63520370627264533","-6.8354813470476789e-16","-1.136796319219517","1.4020000209566199","-0.944796316619268","1.455000023473991","SIDE","0.69096279458022802","-0.07980217937905186","-0.71847200966511926","-3.0127065994006495e-17","157.01961289807031","4.9601090997962691","78.350074928512413","0.007270249","0.000065247","115"
"116","yellowsaltcube","0.755","-0.92479631566932829","1.149000018718654","-0.1167963033684134","0.0","-0.35579630820104191","0.9470000156434305","TOP","0.6963243617584165","0.67471487205536285","-0.24472887988353376","-1.9930062152025107e-16","63.188944316870263","153.25937738434439","53.336289887576697","0.013331123","0.000105941","116"
"117","yellowsaltcube","0.755","-0.80379631318175826","1.5517963291520851","-0.1577963053158051","0.93200001493096751","-0.95379631704674639","1.164000019431112","SIDE","0.68253524254250908","-0.21042301559678844","-0.69990556305446827","-1.2199623060738991e-16","141.668036290461","-63.447303339234097","101.38070117542237","0.009314432","0.000140471","117"
"118","yellowsaltcube","0.75500000000000023","-1.1187963183645599","1.297000022488654","-0.57579630887159061","1.421000021859073","-0.12879630393837499","1.0130000155186289","SIDE","0.50946574229684505","0.57405888206542888","0.38903176576423626","0.50946574229684494","-154.35153429681185","23.857794007044618","24.362204103118611","0.006111169","0.000115081","118"
"119","yellowsaltcube","0.0","-1.409796322407443","1.570796326794897","1.098203715225446","1.570796326794897","-0.24079630599846219","0.56300001044294457","SIDE","0.018534868514314858","0.64983764851045589","0.75962092380128343","0.018534868514314885","-28.252328214702246","-6.1592601900652744","249.36925978751535","0.003988529","0.000017062","119"
"120","yellowsaltcube","0.755","-0.097796302465959689","1.2005628157157619e-15","-0.8817963136269269","1.480000024661418","-1.130796318934534","1.2620000208262241","SIDE","3.8934561034213358e-17","0.68814441999390097","-0.13513998063429594","0.71287757915747352","-158.3902062854321","19.566031874258876","90.262194640464585","0.010960663","0.000091507","120"
"121","yellowsaltcube","0.75500000000000023","-0.63079631148395587","1.373000022838829","-0.40779630741128309","0.84600001410580794","-1.040796317919386","1.219000018783843","SIDE","0.0","0.65440106556400224","-0.22846106041703032","0.7208084275740847","-147.48890828108014","64.52107368836846","87.24112503543148","0.009966782","0.000149605","121"
"122","yellowsaltcube","0.755","-0.43879630888369991","1.1350000180536881","-0.20479630428856019","0.49700001056770832","-1.163796320501951","1.3260000206064431","TOP","0.50034376376371348","0.57197558157670636","0.41491706424960573","-0.50034376376371326","18.320132334080476","161.9925382437566","49.128680626469503","0.015341788","0.000211786","122"
"123","yellowsaltcube","0.75499999999999923","-1.570796326794897","1.570796326794897","-0.64379631210141874","1.570796326794897","-0.35679630824853831","0.79900001513306562","SIDE","2.8014722750933517e-16","-0.036876418435296168","0.010576421001671837","0.99926386359268504","5.4969022653654536","-2.7381607241366352","-103.93334863620285","0.005425412","0.000060821","123"
"124","yellowsaltcube","0.0","1.032203712090612","1.5707963267948959","-0.95379631704674217","1.5037963268721981","0.17620370076946021","0.45200000843032889","SIDE","-0.49811390254733268","-0.38085470663238874","0.5989280195600214","0.49811390254733301","154.23084129811193","-9.4323252290683008","133.41556668453381","0.002510702","0.000003753","124"
"125","yellowsaltcube","0.0","-1.570796326794895","1.5707963267948959","-0.73379631311656268","1.5707963267948959","-0.35679630824853831","0.79900001513306784","SIDE","2.8003872742122153e-16","-0.036876418435296175","0.010576421001671837","0.99926386359268504","5.5182748442546075","-2.7442905328822085","-104.22249504471371","0.002328953","0.000024874","125"
"126","yellowsaltcube","0.75500000000000023","-1.1147963181745779","1.061000017798496","-0.12179630360589989","0.85900001472327037","-0.56479631160875099","1.33800002117641","SIDE","0.50649818214488618","0.64042217496214282","0.27708955372696681","0.5064981821448864","-144.20417120086503","67.787590264141457","25.873026872079294","0.000697104","0.000121050","126"
"127","yellowsaltcube","0.75499999999999978","0.0062036992141566751","-1.390089741112467e-15","-0.67579631036171184","1.2840000218711889","-1.147796319741988","0.70300001057330541","SIDE","2.3921886665497464e-16","-0.66391370376853887","0.27310539410922918","0.69615518216614858","138.45641936727529","-75.354691172757853","49.123367022390923","0.008150525","0.000078055","127"
"128","yellowsaltcube","0.75499999999999945","-0.59979631001153455","1.3550000219838689","-0.48979630804644869","1.0720000183209839","-1.080796316559675","1.2300000193063141","SIDE","0.0","0.65440106556400246","-0.22846106041703035","0.72080842757408459","-148.11339063169922","63.035461710542585","87.237212077335244","0.017565615","0.000200696","128"
"129","yellowsaltcube","0.0","-1.460796324829807","1.570796326794897","-1.570796326794897","1.4450000229990141","-1.29879632039485","1.570796326794897","SIDE","7.7754522829102532e-17","0.66187682119712943","-0.2285290186980711","0.71392826052403879","-123.33103742686613","54.243043839101936","47.241576058724135","0.003138209","0.000050101","129"
"130","yellowsaltcube","0.0","-1.570796326794897","1.5707963267948959","-1.2527963214695941","1.570796326794897","-1.4877963228526041","1.208000018261373","SIDE","0.68002758560218624","-0.15253129903278759","-0.71714481496796134","-1.836691524208199e-16","125.20131732816935","-28.052047286544855","120.49675047009906","0.004291386","0.000056912","130"
"131","yellowsaltcube","0.0","0.27120370202208283","-2.1252039709963529e-16","-0.54579631070629708","1.46300002385396","-0.30879630596866159","1.2420000198762799","SIDE","0.50567275565108138","-0.59474520707929435","-0.36724415181278319","0.50567275565108138","148.88512498126971","-35.320963293442688","6.3734304517708447","0.011514641","0.000029309","131"
"132","yellowsaltcube","1.6653345369377351e-16","-1.229796320377164","0.0","-1.322796321534802","0.0","0.091203699991814491","0.66600001207553372","SIDE","0.70594492023705102","0.14424080028810307","0.69342365197889777","-2.5555994006020647e-16","-157.24848600875242","20.823840721310244","132.84222886218234","0.002266119","0.000056803","132"
"133","yellowsaltcube","0.755","-1.570796326794897","1.570796326794897","-0.1707963026736396","1.3080000197514881","-0.74879631382902667","1.5707963267948959","TOP","0.69632436175841639","0.67471487205536307","-0.24472887988353378","-1.5944049721620087e-16","54.69908418502925","129.85292492417886","52.582394555469989","0.003501288","0.000026253","133"
"134","yellowsaltcube","0.0","-1.570796326794897","1.5707963267948959","1.09820371522545","1.5707963267948959","-0.17179630272113819","0.4740000094752751","SIDE","0.0099037977837811968","-0.53240910591544521","0.84637129766860131","-0.009903797783780947","14.920075238437152","0.12363976910138744","251.84218544230384","0.002176409","0.000019914","134"
"135","yellowsaltcube","0.755","-1.1207963184595551","1.2230000189738359","-0.58479630929907134","1.4590000236639751","-0.1367963043183586","1.053000017418519","SIDE","0.50056747978542127","0.38789781904481357","-0.59025391006144179","-0.5005674797854216","151.41282465466401","-26.651286421870697","29.01529082673115","0.004921530","0.000110212","135"
"136","yellowsaltcube","0.0","0.17420370067446689","2.977596519725916e-16","-0.68179631064668689","1.507796327062187","-0.13479630422336611","1.03700001665857","SIDE","0.49917844024381508","0.59231821455691158","0.38833091854192703","0.49917844024381469","-155.09104066398424","25.794237111236715","132.83861696885691","0.005773056","0.000016019","136"
"137","yellowsaltcube","0.75500000000000034","-1.089796316987137","1.392000023741282","-0.48879630799893731","1.4070000211941081","-0.27779630449623938","1.2760000214911971","SIDE","0.50056747978542115","0.38789781904481346","-0.59025391006144201","-0.50056747978542171","149.94652170269603","-31.764665850477243","29.016199309697793","0.005579473","0.000136054","137"
"138","yellowsaltcube","0.755","-1.570796326794897","1.5707963267948959","-0.41379630769626558","1.570796326794897","-1.1587963202644631","1.5707963267948959","SIDE","0.50482351429726391","0.62961200739799994","0.3064231697593725","0.50482351429726424","-123.49705122092932","54.239780770569773","55.795076092425894","0.000000472","0.000027541","138"
"139","yellowsaltcube","0.755","-0.69979631150164634","1.517796327537166","-0.45079630945367488","1.3250000205589501","-1.087796316892149","1.313000019988978","SIDE","0.68253524254250908","-0.2104230155967885","-0.69990556305446805","-1.2199623060738991e-16","143.1767814191771","-58.08242903267918","101.3738720464585","0.014774077","0.000138810","139"
"140","yellowsaltcube","0.0","-0.88479631376941703","1.518796327584659","-1.1257963186970379","1.397000023978767","-0.94879631680925636","1.4070000211941089","SIDE","0.68607393989275378","-0.16800983163045138","-0.70786668623091831","-2.4273397371689375e-16","151.03816147787728","-36.185981700793903","80.155788846569791","0.008590806","0.000173102","140"
"141","yellowsaltcube","0.0","0.27220370206957711","-1.311585118178278e-15","-0.42879630840872618","1.4060000211466099","-0.44879630935867432","1.3940000238362731","SIDE","0.50567275565108138","-0.59474520707929435","-0.36724415181278319","0.50567275565108138","149.33522955110678","-29.942483808646259","6.3916862474948797","0.010675996","0.000029825","141"
"142","yellowsaltcube","0.0","1.0322037120906129","1.570796326794897","-0.82579631422669497","1.5527963291995699","0.018203699784108501","0.94400001550093438","SIDE","-0.49249302033054504","0.64986149259126436","0.30427173759396148","-0.49249302033054521","139.2892110237529","-69.507975628667808","13.140650926935393","0.006160971","0.000007620","142"
"143","yellowsaltcube","0.0","0.47420370514480797","0.0","-0.66579631314636367","1.5707963267948959","-0.93279631604930235","1.5707963267948959","SIDE","0.52421682845398587","-0.38891950552388416","0.54693240144861222","-0.52421682845398587","-130.00628403088476","11.611181720985721","-1.0785735113057839","0.007017941","0.000008007","143"
"144","yellowsaltcube","0.0","0.31020370387448443","-1.453874747246495e-15","-0.63879631186393682","1.4290000222390551","-0.1657963056957833","0.95700001611840091","SIDE","0.51198870539340513","0.36481755234427871","-0.58535739903130846","-0.51198870539340602","150.72477540366424","-30.866658821475969","125.89651151497198","0.009697607","0.000018260","144"
"145","yellowsaltcube","0.755","-1.0317963174919109","1.459000023663972","-0.4587963098336475","1.2030000180238869","-0.37879630603385178","1.1260000176262071","SIDE","0.51553663191037158","-0.36720421264166414","0.57758551620970888","-0.51553663191037158","-158.27833133444761","28.355567161973806","84.007526852747816","0.015269148","0.000215482","145"
"146","yellowsaltcube","0.75500000000000045","-0.45779630978615421","1.3990000240737679","-0.81879631389420893","1.570796326794897","-1.1057963177470791","1.2790000216336841","SIDE","0.68634711427368522","-0.13578770808751423","-0.71448536518288808","-2.224175824611781e-16","149.49367596181017","-30.019665003619906","99.952598046183837","0.008570721","0.000102649","146"
"147","yellowsaltcube","0.75500000000000023","-1.1257963186970501","0.95100001583340843","-0.74579631368652644","1.400000024121254","-0.01979630202079085","0.73800001223571599","SIDE","0.50968852707404755","-0.30118506601805672","0.62427779613396028","-0.50968852707404766","-147.7719269805817","64.619879689163895","87.229386161142187","0.016170414","0.000215319","147"
"148","yellowsaltcube","0.75500000000000012","0.0082036993091486321","-2.1742693603302211e-16","-0.70479631173913582","1.2310000193538131","-1.164796320549448","0.92600001464598014","SIDE","-1.6129842732053386e-16","0.68830368842897038","-0.25741362749346663","-0.67821549442321782","142.18599706756052","-71.905974417749391","59.970374688782805","0.010176733","0.000136148","148"
"149","yellowsaltcube","0.0","0.30020370339951918","0.0","-0.5417963105163065","1.4000000241212489","-0.30279630568367771","1.2090000183088689","SIDE","0.51126779603780947","0.36487333508711195","-0.58658156364796277","-0.51126779603781036","148.63177383604346","-35.974783765735161","126.33381176324885","0.011251458","0.000015110","149"
"150","yellowsaltcube","0.0","1.032203712090614","1.570796326794897","-1.4657963250672941","1.570796326794897","-0.12979630398587719","1.570796326794897","SIDE","0.51738068111858537","-0.35441534418796095","0.58225786848669214","-0.51738068111858559","-124.144114575101","39.10375152734651","1.9102860761596732","0.000077332","0.000000397","150"
"151","yellowsaltcube","0.0","0.21420370257436261","-1.468594364046655e-15","-0.72779631283157398","1.5017963267772021","-0.07079630118353282","0.91800001426599953","SIDE","0.51738068111858526","-0.35441534418796106","0.58225786848669236","-0.51738068111858571","-148.28771482060168","44.976598910145661","0.14837495359667938","0.008134109","0.000012372","151"
"152","yellowsaltcube","0.0","0.18520370119693599","-4.480342659022017e-16","-0.31479630625364419","1.1720000198110929","-0.45379630959616613","1.276000021491184","SIDE","0.52421682845398587","-0.38891950552388427","0.54693240144861222","-0.52421682845398598","-154.44744388232806","15.737922735362002","-3.5499726527770319","0.008936344","0.000014075","152"
"153","yellowsaltcube","0.75499999999999967","-0.48279630771396231","1.1310000178636981","-0.1447963046983336","0.31300000508781511","-0.97579631483205742","1.182000020286065","SIDE","0.50185773553240642","-0.61361930058872993","-0.34604765642548196","-0.50185773553240665","-58.115267683408895","-154.85036268470023","91.43432665795234","0.011364634","0.000145890","153"
"154","yellowsaltcube","0.75499999999999978","-0.90579631476687095","1.479000024613929","-0.40579630731628341","1.313000019988976","-0.51079630904389395","1.3670000225538359","SIDE","0.5040805703780995","-0.39103318909744156","0.58214998252930017","-0.50408057037809928","-157.21285566419809","19.334820030443844","90.281861304570413","0.014759292","0.000167075","154"
"155","yellowsaltcube","0.0","1.0322037120906129","1.570796326794897","-1.403796322122451","1.570796326794897","-0.41279630764876452","1.0130000155186629","SIDE","0.70705746302972505","0.0068223891538847113","-0.0096406926188085176","-0.70705746302972527","20.27451645883993","-0.95720696497567337","-104.76586901092472","0.001721893","0.000014890","155"
"156","yellowsaltcube","0.75500000000000045","-0.37979630608135462","1.065000017988496","-0.29279630520870092","0.72900001180823848","-1.143796319552002","1.294000022346147","SIDE","0.50521459340121488","-0.4015618060790489","0.57294375389511198","0.50521459340121488","-24.669074378728343","-161.95094862265336","46.584417744441851","0.019856049","0.000187936","156"
"157","yellowsaltcube","0.75499999999999989","-1.0577963187268491","1.355000021983868","-0.19779630395607309","1.0160000156611131","-0.58379630925157666","1.360000022221356","SIDE","0.50482351429726413","0.62961200739799983","0.30642316975937245","0.50482351429726413","-146.95356787850147","62.33871181356136","55.313887715704922","0.011946368","0.000228684","157"
"158","yellowsaltcube","0.0","0.1012037004667779","0.0","-0.47979630757146657","1.570796326794897","-0.46579631016613099","1.570796326794897","SIDE","0.75133726051384575","-0.64683520030066088","0.1307537556460743","1.2929548387932105e-16","-22.547425588375166","-133.9387388337299","-4.0695531156591338","0.007501778","0.000014494","158"
"159","yellowsaltcube","0.0","0.30020370339950098","-1.056445093642164e-15","-0.45179630950116989","1.37200002279133","-0.42579630826623299","1.3700000226963389","SIDE","0.5112677960378097","0.36487333508711201","-0.58658156364796266","-0.51126779603781014","146.53982826020325","-40.110277480974872","126.38394870714478","0.012728730","0.000033824","159"
"160","yellowsaltcube","0.75500000000000045","-0.21379630471603531","0.87500001548322726","-0.77479631180432595","1.3450000215088891","-1.154796320074476","1.250000020256264","SIDE","2.0938154507956691e-16","0.66806722406620533","-0.14876204638783005","0.72907889674779358","-159.44730832261112","28.615869422996862","83.931792357582523","0.007947718","0.000131377","160"
"161","yellowsaltcube","0.75500000000000023","-1.5707963267948959","1.570796326794897","-0.65379631257639403","1.570796326794897","-0.19779630395607209","0.5040000076405734","SIDE","0.99998467654273293","0.00068236757653861808","-0.0054937286259995029","2.4109468218105123e-17","-1.0219225648844208","-5.589251069301084","-104.87242790851242","0.002378269","0.000029171","161"
"162","yellowsaltcube","0.75500000000000067","-0.92579631571681809","1.570796326794897","-0.24279630609345579","1.4690000241389489","-1.317796321297295","1.570796326794897","TOP","-0.47636562111905439","-0.3290592503737309","0.66171867117015293","-0.47636562111905462","52.178208159472561","129.97223126660069","102.41879712379902","0.009542380","0.000056442","162"
"163","yellowsaltcube","0.0","-1.570796326794897","1.570796326794897","-0.89579631429189388","1.570796326794897","-0.19779630395607381","0.50400000764057196","SIDE","0.99998467654273293","0.00068236757653861808","-0.0054937286259995029","2.4109468218105123e-17","-1.0208238359272714","-5.5891145978685319","-104.97242178541639","0.003013567","0.000025763","163"
"164","yellowsaltcube","0.755","-1.0847963167496559","1.563796329722043","-0.58779630944156525","1.2670000210637229","-0.2267963053334974","0.91200001398101083","SIDE","-0.47543376369303092","-0.42861963063949737","0.6034987033224003","0.47543376369303159","154.05948808532833","-27.798658627797803","62.027469981828368","0.011181349","0.000188204","164"
"165","yellowsaltcube","0.0","-0.55479631113377947","1.438000022666531","-0.38579630636634338","1.5037963268721939","-0.45779630978615232","-1.2199001014079321e-15","SIDE","7.6998556981192419e-17","0.90117194087184183","-0.20772560651293037","0.38044606107057138","-110.19807411323184","39.614257019623018","233.81562991852036","0.002713988","0.000089774","165"
"166","yellowsaltcube","0.75500000000000045","0.0072036992616484321","-1.944528640585175e-15","-0.7487963138290219","1.317000020178968","-1.1227963185545611","0.84500001405831826","SIDE","3.9797094729283472e-17","-0.66392330356867124","0.26981692543043095","0.69742718166825945","138.36334145205379","-74.77149386992383","52.850991492392211","0.009853582","0.000080321","166"
"167","yellowsaltcube","0.0","-1.1517963199319809","0.0","-1.272796319159907","0.0","-0.18379630329110419","1.0030000150436551","SIDE","0.69907325072318094","-0.2569649153164314","-0.66728226592630502","7.9406773430155391e-17","140.61673263170545","-72.869223408092765","32.272274712540799","0.001303123","0.000035904","167"
"168","yellowsaltcube","0.0","1.0322037120906109","1.570796326794897","-0.082796301753501195","1.120000017341227","-0.70779631188162728","1.5097963271571799","SIDE","-0.48357739522225435","0.55869016209009137","0.46922394274361839","-0.48357739522225468","155.3463582424699","8.3951271299677188","17.571874572601455","0.006333386","0.000007004","168"
"169","yellowsaltcube","0.0","1.0322037120906129","1.5707963267948959","-0.74279631354403919","1.539796328582105","-0.079796301611006329","1.1240000175312119","SIDE","0.49818982123482314","-0.29172561796742219","0.64692346367832076","-0.49818982123482319","-140.89470676487937","64.691959141112406","10.231737761871896","0.007131342","0.000011326","169"
"170","yellowsaltcube","0.755","-1.570796326794897","1.570796326794897","-0.90279631462437271","1.5707963267948959","-0.16679630574327969","0.43800000776536868","SIDE","0.012932102864824711","0.25325595760402148","0.96731286596093802","2.0623441159252476e-17","-4.798599048206726","0.14907500505640595","249.82113889928283","0.002704292","0.000028581","170"
"171","yellowsaltcube","0.755","-1.570796326794897","1.5707963267948959","-0.67579631036170928","1.5707963267948959","-0.34979630791605709","0.85900001472328169","SIDE","5.4248616962381503e-17","0.96731286596093802","-0.25325595760402142","0.012932102864824381","-4.8011009262630164","0.14973003150999686","249.92110545766425","0.002675935","0.000034450","171"
"172","yellowsaltcube","0.0","-1.570796326794897","1.5707963267948959","-0.67779631045670519","1.5707963267948959","-0.3497963079160572","0.85900001472327725","SIDE","5.4248616962381503e-17","0.96731286596093802","-0.25325595760402142","0.012932102864824381","-4.8033526163703515","0.15031955528703861","250.011075354593","0.004301665","0.000033641","172"
"173","yellowsaltcube","0.75500000000000023","-1.144796319599503","1.478000024566432","-0.65079631243390312","1.2810000217286841","-0.12779630389087809","0.81300001253839449","SIDE","-0.47543376369303103","-0.42861963063949737","0.6034987033224003","0.47543376369303159","155.52845871702647","-22.704016996421341","62.084980552634661","0.006529321","0.000128721","173"
"174","yellowsaltcube","0.75500000000000023","-0.87979631353193533","1.397000023978757","0.016203699689110229","0.75700001313816623","-1.1737963177173061","1.350000021746385","SIDE","-3.2100089366753354e-16","0.71334224715928951","-0.054472354166850596","-0.69869564264367379","158.76548746496775","9.4066723283148193","52.432055669145988","0.008975843","0.000159450","174"
"175","yellowsaltcube","0.75500000000000023","-0.98979631549702374","1.3400000212714089","-0.43979630893119709","1.345000021508898","-0.40479630726878563","1.314000020036473","SIDE","-0.48085211717322146","0.61495387764589438","0.39924204586734002","-0.48085211717322174","149.91950969837742","-27.880021815727567","122.31552588496534","0.006536365","0.000116281","175"
"176","yellowsaltcube","0.0","0.18220370105444239","0.0","-1.296796320299856","1.570796326794897","0.0442036977594229","1.335000021033919","SIDE","4.920291471171013e-16","0.13306935517044535","0.70513037129645828","0.69647950880829268","-21.449982283579725","-134.47866576665513","135.51634615663622","0.002943587","0.000008937","176"
"177","yellowsaltcube","0.0","-1.390796321504981","1.570796326794897","-0.88979631400690828","1.570796326794897","-0.16779630579077781","0.4410000079078582","SIDE","0.012932102864824713","0.25325595760402153","0.96731286596093802","2.0623441159252476e-17","-4.8086065604194577","0.15169511089550261","250.22100513280665","0.004213429","0.000025677","177"
"178","yellowsaltcube","0.0","0.17420370067446461","0.0","-0.77579631185182707","1.5367963284396171","-0.01179630164081168","0.82300001301337078","SIDE","0.49917844024381508","0.59231821455691158","0.38833091854192708","0.49917844024381469","-156.46525571238533","20.66091901473877","132.83960203067349","0.008190361","0.000021216","178"
"179","yellowsaltcube","1.110223024625157e-16","0.35820370289473741","1.369000022648825","-1.5117963239925509","1.5707963267948959","-1.563796326462414","1.570796326794897","SIDE","-1.1896851695748962e-16","0.69990556305446761","-0.21042301559678855","-0.68253524254250952","118.15513961285791","-56.378271621977333","99.700052643627231","0.004565304","0.000027606","179"
"180","yellowsaltcube","0.0","1.0322037120906149","1.570796326794897","-1.281796319587396","1.570796326794897","0.049203697996912453","1.330000020796434","SIDE","0.71222586833250101","-0.66312639375205562","0.23021228982703854","1.1691056243412635e-16","-56.741893546059373","-125.73489907534577","7.8027442959027473","0.002655716","0.000003367","180"
"181","yellowsaltcube","0.75500000000000034","-0.41679630783875399","0.99300001782831604","-1.1287963188395429","1.5707963267948959","-0.3147963062536418","0.80200001201594462","SIDE","0.70709594586600255","-0.0034021460248102996","-0.0043671595060751842","0.707095945866003","-1.017527649057155","-5.5887051835727704","-105.27240341612671","0.008595127","0.000148776","181"
"182","yellowsaltcube","0.0","-0.85579631565162484","-1.340157741654466e-16","-1.2377963207571381","0.82100001291837577","-0.52879630989884074","1.161000019288615","SIDE","0.67236487662476985","-0.12365817818169555","-0.72981787293141975","-1.4448184019123761e-16","157.39313334902613","-23.019961941657471","62.267097328942185","0.004825680","0.000047737","182"
"183","yellowsaltcube","0.0","-0.74279631354403486","0.0","-1.215796319712191","0.82600001315586147","-0.62679631129397739","1.3740000228863221","SIDE","1.0720416189703524e-16","0.69682062809147538","-0.086702592273803322","0.71198572510915159","-158.0892457088319","10.342358635554975","47.505125049181245","0.004860429","0.000072106","183"
"184","yellowsaltcube","0.75500000000000067","-1.1547963200744791","1.354000021936371","-0.30579630582617179","1.147000018623656","-0.28279630473373102","0.30500000470783428","SIDE","0.71028268917199289","-0.53524761835774781","0.45717446178123378","7.8153602892912354e-17","-115.80078768176978","-125.41483682649643","91.233762426532337","0.011282056","0.000169056","184"
"185","yellowsaltcube","0.75500000000000078","-0.82679631427420042","1.3380000211764149","-0.26979630737588739","0.71700001123827084","-0.26879630732839083","0.83300001348834685","SIDE","0.70698226071910408","-0.6952918142824932","0.1294039258301834","1.3740728735667432e-16","-26.162082074076348","-161.99375352628243","92.460224320592047","0.013516601","0.000119853","185"
"186","yellowsaltcube","0.0","0.032203697189453567","-2.9102502003382402e-16","-0.40879630745876899","1.3050000196089959","-0.3967963068888064","1.249000020208767","SIDE","0.536001311606918","-0.34309513916289125","0.55469893942040616","-0.53600131160691822","-149.60781797774339","28.520200017958597","-9.8031415025305861","0.009157578","0.000022411","186"
"187","yellowsaltcube","0.75500000000000045","-0.28979630506622001","1.223000018973837","-0.88679631386441982","1.549796329057082","-1.1047963176996081","1.276000021491192","SIDE","0.686347114273685","-0.13578770808751423","-0.71448536518288819","-2.2241758246117815e-16","150.87318030231333","-24.899809273089371","99.975740158610208","0.005484795","0.000149655","187"
"188","yellowsaltcube","0.75499999999999934","-0.72279631259409372","1.348000021651391","0.13320369872706619","0.12700000277254681","-0.76779631473147603","0.0","SIDE","-0.49992899998449147","0.59944403841375193","0.37524503295743256","0.49992899998449186","-60.451381931769369","-153.59344404509548","112.45131351308399","0.000608792","0.000040134","188"
"189","yellowsaltcube","0.75500000000000034","-1.037796317776899","0.95600001607089868","-0.033796302685750318","0.0","-0.19779630395607109","0.48500000999774612","TOP","0.62173894107744176","0.72067503463897586","-0.30670536936286641","-4.4641848502411515e-17","74.80399385305958","161.85744048885854","63.204127655970204","0.001107376","0.000071348","189"
"190","yellowsaltcube","0.75499999999999878","-1.570796326794897","1.570796326794897","-0.78779631242179338","1.5707963267948959","-0.10879630298842941","0.30900000489782598","SIDE","0.012932102864824711","0.25325595760402148","0.96731286596093802","2.1071776836627529e-17","-4.8011009262603466","-5.0446837049455686","249.95514157247703","0.004323687","0.000029965","190"
"191","yellowsaltcube","0.0","0.0092036993566420068","0.0","-0.2207963050485138","0.62800001027062557","-0.22179630509600959","0.73600001214072319","SIDE","0.75133726051384586","-0.64683520030066077","0.13075375564607433","1.1082470046798947e-16","-27.441750786483716","-158.15082975388938","-7.2833256852551695","0.008197708","0.000016651","191"
"192","yellowsaltcube","0.0","-1.570796326794897","1.570796326794897","-0.97479631478456585","1.5707963267948959","-0.1087963029884285","0.30900000489782792","SIDE","0.012932102864824713","0.25325595760402148","0.96731286596093802","2.1520112514002584e-17","-4.8061046823666675","-5.043373652026534","250.15507468923892","0.002225165","0.000019201","192"
"193","yellowsaltcube","0.0","-1.346796322674727","1.570796326794897","-0.84379631508165309","1.570796326794897","-0.29079630511370752","0.80400001211091843","SIDE","2.0559075215393261e-17","-0.0054937286259991152","-0.00068236757653871273","0.99998467654273293","-1.0164289200986734","-5.5885687121397538","-105.37239729302999","0.002816511","0.000024479","193"
"194","yellowsaltcube","0.0","1.032203712090612","1.570796326794897","-0.2257963052860035","0.55900001025293056","-0.2367963058084738","0.87400001543574191","TOP","2.3481315199285985e-16","-0.088927104618026623","-0.69935925757275719","0.70921689130444199","14.034252181663662","160.17787329525757","8.539979521895928","0.009024393","0.000011074","194"
"195","yellowsaltcube","0.75500000000000056","-1.0217963170169411","1.5707963267948959","-0.24779630633094599","1.5447963288195989","-1.570796326794897","1.570796326794897","SIDE","0.50185773553240642","-0.61361930058873004","-0.34604765642548191","-0.50185773553240653","-51.425293633684369","-130.85623932054332","91.619775302106831","0.002184973","0.000032679","195"
"196","yellowsaltcube","0.755","-1.1327963190295229","0.78600001451560231","-0.90879631490935231","1.4350000225240349","0.14320369920203879","0.6830000128829864","SIDE","-0.49405242689883405","-0.46589136925460878","0.5429269112917593","0.49405242689883438","156.57248720098968","9.574134563368716","52.380028310516472","0.008875088","0.000146965","196"
"197","yellowsaltcube","0.75499999999999956","-0.79479631275428897","1.347000021603892","-0.32079630653862817","0.88800001610070822","-0.24379630614095521","0.77400001394562989","TOP","9.8766949005850945e-17","-0.14904429055759924","-0.6958492517405912","0.70255221749293562","25.071526307062683","159.7765689426231","94.084638676940102","0.018733988","0.000154132","197"
"198","yellowsaltcube","0.0","1.0322037120906149","1.570796326794897","-0.6437963121014193","1.393000023788779","0.042203697664427421","0.17100000486243341","SIDE","0.71222586833250112","-0.66312639375205562","0.23021228982703848","7.7940374956084246e-17","-64.910537580559094","-149.26467441666992","7.4407677435574788","0.007832790","0.000008979","198"
"199","yellowsaltcube","0.75499999999999989","-0.98279631516454125","1.400000024121254","-0.600796310059031","1.4850000248989019","-0.39079630660382692","1.285000021918671","SIDE","-0.48532069875074091","0.60123385596982737","0.40920103758890619","-0.4853206987507413","151.16741130182422","-24.955727777543537","99.993096742928316","0.018172852","0.000241794","199"
"200","yellowsaltcube","0.0","0.1892037013869256","-8.0130506910605109e-16","-0.056796303778188957","0.91800001426600042","-0.76579631463648168","1.5637963297220461","SIDE","-0.49453908445407618","-0.39375918117594794","0.59650305542745918","0.4945390844540769","143.29509993582732","-52.162189475193991","135.27732809758896","0.008214525","0.000022588","200"
"201","yellowsaltcube","0.75500000000000067","-1.12479631864955","0.98300001735333065","-0.72279631259408794","1.3970000239787581","-0.038796302923239927","0.75900001323316679","SIDE","0.50968852707404755","-0.30118506601805661","0.62427779613396028","-0.50968852707404777","-148.2077301981999","63.068397044139438","87.233299119238609","0.015992850","0.000176754","201"
"202","yellowsaltcube","0.0","-0.16579630569578571","-2.9102502003382402e-16","-0.8657963161265968","1.512796327299669","-1.135796319172022","1.027000016183593","SIDE","0.71392826052403913","0.2285290186980711","0.66187682119712909","-1.9438630707275623e-16","-145.92754475236543","62.045035810598662","46.778029964552402","0.006077626","0.000087581","202"
"203","yellowsaltcube","0.0","0.15620369981950949","0.0","-0.18379630329110311","1.0970000195084211","-0.63179631153145599","1.4810000247089261","SIDE","0.5023997995435513","0.61602646191011368","0.34014744018396803","0.50239979954355152","-148.06610937531215","55.304382744236719","131.16990044532108","0.009017440","0.000026742","203"
"204","yellowsaltcube","0.75500000000000012","-1.570796326794897","1.5707963267948959","-0.09379630227596393","1.404000021051615","-0.92679631576431221","1.5707963267948959","SIDE","1.5622521916054067e-16","0.23092756500490508","0.66456098279432496","0.7106554438462751","-57.560031804836392","-128.55369332552402","48.241544169157137","0.001514639","0.000020633","204"
"205","yellowsaltcube","0.0","-0.15879630536329981","-2.5177270856672972e-16","-0.86379631603160101","1.5047963269196909","-1.140796319409507","1.086000018985944","SIDE","0.71382786397130216","0.20843693256238019","0.66858344711947071","-1.1664818795898714e-16","-147.6215230908191","57.875282425727271","46.80971204076581","0.005532942","0.000068443","205"
"206","yellowsaltcube","0.75500000000000045","-0.3657963086760152","0.90000001667067131","0.080203699469331785","0.0","-1.570796326794897","1.570796326794897","SIDE","0.009144377630719399","-0.50491448205227685","0.86307249204766956","-0.0091443776307193417","-4.8111084384752711","-25.042063599113597","250.48605606812058","0.001967870","0.000096217","206"
"207","yellowsaltcube","0.75499999999999923","-1.5707963267948959","1.5707963267948959","-0.035796302780743527","0.20000000623986491","-0.37679630593885832","1.1710000197635959","TOP","0.62173894107744176","0.72067503463897586","-0.30670536936286641","-4.4641848502411515e-17","65.303784595420055","139.53450675590986","57.552512522621747","0.004427724","0.000062883","207"
"208","yellowsaltcube","0.755000000000001","-1.443796324022353","1.570796326794897","-0.31079630606364927","0.74700001266319171","-0.0087963014983112511","0.12400000263005601","SIDE","-0.0013593137744085779","0.92734997909262484","-0.37419022008736896","0.0013593137744083435","-2.5483531242157977","19.303077429156879","250.52561302899034","0.011151157","0.000123860","208"
"209","yellowsaltcube","0.755","-1.122796318554558","1.3900000236462871","-0.76879631477897281","1.52179632772715","-0.1337963041758638","1.025000016088599","SIDE","0.50759284007597782","0.57067686517807426","0.39878181121727674","0.50759284007597771","-155.08014780484072","21.973214153993812","45.360395916567391","0.009317755","0.000199586","209"
"210","yellowsaltcube","0.75499999999999967","-1.065796319106828","1.335000021033921","-0.73579631321155414","1.5617963296270521","-0.26679630723339848","1.155000019003628","SIDE","-0.48532069875074096","0.60123385596982748","0.40920103758890619","-0.48532069875074146","149.98406096099436","-30.112862511039612","99.981525686715145","0.014966035","0.000232666","210"
"211","yellowsaltcube","0.0","0.1562036998195023","-3.744361819013996e-16","-0.092796302228472502","0.99700001801829574","-0.70879631192912096","1.520796327679653","SIDE","0.5023997995435513","0.61602646191011357","0.34014744018396803","0.50239979954355152","-146.80653209256599","58.948559351544752","131.17182489230618","0.006659095","0.000015612","211"
"212","yellowsaltcube","0.75500000000000023","0.06720369885185444","-1.340157741654465e-16","-0.92079631547931839","1.3680000226013449","-1.133796319077035","1.3230000204639529","SIDE","0.70190713843211061","-0.098360650547028125","-0.7054442227717308","-7.9086175637501281e-17","157.48355075958952","1.1111742979969998","94.361404248598632","0.010183337","0.000106334","212"
"213","yellowsaltcube","0.75500000000000023","-1.0217963170169351","1.3480000216513841","-0.184796303338611","1.0010000149486611","-0.55479631113377725","1.372000022791332","SIDE","0.50530840346424832","0.61629829329351149","0.33091275052546609","0.50530840346424843","-147.88685832862723","55.35722784347103","26.518084040094024","0.003842490","0.000097294","213"
"214","yellowsaltcube","0.0","-0.92979631590680201","1.5207963276796559","-1.112796318079579","1.37000002269633","-0.86379631603160256","1.3060000196564929","TOP","-0.48651280120831258","-0.32779460260565874","0.64742666536332882","-0.48651280120831275","59.625389256683597","155.43001498963704","79.566981598170358","0.007421701","0.000090384","214"
"215","yellowsaltcube","0.0","0.41520370560208852","1.217000018688845","-0.20179630414605371","1.5707963267948959","-1.4317963234523821","1.570796326794897","SIDE","0.50239979954355152","0.61602646191011357","0.34014744018396792","0.50239979954355152","-122.87392193933752","52.04342937260899","131.41151474935711","0.007325675","0.000017316","215"
"216","yellowsaltcube","0.75500000000000034","-0.019796302020785639","0.0","-0.71379631216661221","1.279000021633695","-1.144796319599503","1.166000019526104","TOP","0.49237567810477112","0.65014491191559531","0.30404601087992622","-0.49237567810477118","62.643630103361488","151.75595200204378","53.287866258245927","0.008470987","0.000084094","216"
"217","yellowsaltcube","0.75499999999999989","-1.022796317064443","1.180000020191071","-0.038796302923238823","0.69200001331046124","-0.649796312386408","1.369000022648837","SIDE","-0.4943194361324843","-0.29013818105473982","0.65354144934929115","0.4943194361324848","140.61673263170692","-72.869223408093291","32.272274712541936","0.004153212","0.000127217","217"
"218","yellowsaltcube","0.0","-0.77579631185181563","-1.536419298989938e-16","-1.2067963192847051","0.8240000130608679","-0.67579631036171584","1.448000023141502","SIDE","-3.8665154793376312e-17","0.68551080415928756","-0.12154815830810708","0.7178446785989252","-155.67065618115257","22.077917398889181","45.34203473630928","0.005158534","0.000075097","218"
"219","yellowsaltcube","0.0","-1.5707963267948959","1.570796326794897","-0.80679631332424684","1.570796326794895","-0.010796301593306259","0.13000000291504141","SIDE","-0.0013593137744085783","0.92734997909262484","-0.37419022008736896","0.0013593137744083435","-2.5532715047301413","19.300987097885276","251.91560283671015","0.004740215","0.000038529","219"
"220","yellowsaltcube","0.0","0.41320370550710411","1.248000020161282","-0.3877963064613324","1.570796326794897","-1.2317963204721449","1.5707963267948959","SIDE","0.50239979954355141","0.61602646191011379","0.34014744018396798","0.50239979954355152","-124.13349922208347","48.399252765301071","131.40959030237195","0.003151050","0.000019941","220"
"221","yellowsaltcube","0.755","-1.5707963267948959","1.5707963267948959","0.0042036991191499529","-8.8747615912365686e-16","-0.36579630867601493","0.9140000140760115","SIDE","1.3828391876544687e-16","-0.0072283293950069329","-0.0026441798963347789","0.99997037934472499","-0.65661964557462138","20.017226241819856","-105.14534988131855","0.001639552","0.000031673","221"
"222","yellowsaltcube","0.0","0.1852037011969144","-2.587285240858845e-15","-1.570796326794897","1.570796326794897","-1.3787963209350169","1.570796326794897","SIDE","0.50185773553240631","-0.34604765642548169","0.61361930058872993","0.50185773553240676","-51.720716030869546","-131.91579521566612","91.611586080055233","0.000367159","0.000023282","222"
"223","yellowsaltcube","0.75499999999999601","-0.51679630932887621","1.256000020541246","-1.5707963267948959","1.570796326794897","-0.4147963077437628","0.98400001740083798","SIDE","5.4248616962381503e-17","0.96731286596093802","-0.25325595760402142","0.012932102864824381","-4.7885915359971749","-5.0479588372519473","249.4553087805713","0.001041295","0.000091387","223"
"224","yellowsaltcube","0.0","0.11620370117923839","0.0","-0.59479630977404752","1.320000020321459","0.044203697759422581","0.11100000201258831","SIDE","4.7234798123241732e-16","0.13306935517044532","0.70513037129645828","0.69647950880829279","-26.067303825664258","-158.94570890513708","136.25947591425836","0.004925863","0.000007965","224"
"225","yellowsaltcube","0.0","-0.7687963147789727","1.445000022999011","-0.57079630863409991","1.419000021764077","-0.26179630699591222","1.120000017341225","SIDE","-0.48532069875074069","0.60123385596982737","0.40920103758890636","-0.48532069875074174","150.76867695968721","-30.261978522903732","100.02780991156837","0.012864273","0.000068644","225"
"226","yellowsaltcube","0.0","0.12620370165421249","0.0","-0.53479631018383122","1.202000017976389","0.01720369973662331","0.20200000307522681","TOP","0.69520479939119828","0.69978625003183825","-0.16428478678752148","-3.3935668013144717e-16","27.452102698150451","157.89274075424606","136.74351579677003","0.007754123","0.000016279","226"
"227","yellowsaltcube","0.0","-1.4977963233275831","1.570796326794897","-1.570796326794897","1.4530000233789859","-1.3057963207273251","1.570796326794897","SIDE","-3.8882729319662386e-17","0.66858344711947082","-0.20843693256238005","0.71382786397130193","-124.1311061367697","50.551932624579756","47.279773838382269","0.004079804","0.000047112","227"
"228","yellowsaltcube","0.75500000000000023","-0.99679631582950401","1.4260000220965601","-0.41279630764875658","1.3680000226013429","-0.40379630722128812","1.318000020226463","SIDE","0.49858548098552069","-0.39861404589988264","0.5864570561534751","-0.49858548098552047","-155.99900065906658","23.77506298547754","113.14743477800391","0.008458044","0.000201216","228"
"229","yellowsaltcube","0.0","0.1312036986320724","7.9296509688432558e-15","0.071203699041854113","0.13900000334251511","-0.61079631053400885","1.2720000213011979","SIDE","1.9867030999105018e-16","0.16192857729950108","0.69853355584131482","0.69701506957701298","-60.087513019095191","-152.42076225489518","136.10108749315182","0.008951287","0.000022067","229"
"230","yellowsaltcube","0.0","0.17320370062696619","4.2002980561151152e-15","-1.2107963194747029","1.570796326794897","0.023203700021609801","1.302000019466504","TOP","0.69520479939119817","0.69978625003183836","-0.16428478678752148","-3.3935668013144721e-16","21.762082169071824","133.65557183246383","135.91200570324042","0.003429831","0.000007122","230"
"231","yellowsaltcube","0.75500000000000034","-0.052796303588201567","0.0","-0.80379631318176303","1.449000023189003","-1.1237963186020481","1.2720000213012039","TOP","-0.49677943712690076","-0.38664949603894022","0.59742995313977387","-0.49677943712690098","25.343775955825272","161.04763215254863","94.101331670390621","0.008398857","0.000084352","231"
"232","yellowsaltcube","0.755","-0.99779631587699469","1.1910000207135421","-0.02379630221076965","0.081000003847288088","-0.66579631314636545","1.376000022981307","SIDE","-0.4943194361324843","-0.29013818105473987","0.65354144934929115","0.49431943613248475","140.22975901224586","-73.874122775783263","32.272274712541687","0.003557939","0.000102179","232"
"233","yellowsaltcube","0.75500000000000034","-1.09879631741461","1.3850000234087989","-0.78579631232679903","1.4450000229990101","-0.052796303588200873","0.92900001478847294","SIDE","0.50344993433270213","0.55403458233741065","0.43141860045089242","0.50344993433270213","-157.89079516038362","10.317666230794773","47.507894518454378","0.007445736","0.000128670","233"
"234","yellowsaltcube","0.0","-0.6867963108841949","1.436000022571533","-0.4577963097861531","1.361000022268863","-0.39079630660381881","1.2850000219186739","SIDE","-0.48532069875074091","0.60123385596982737","0.40920103758890619","-0.4853206987507413","151.16741130182425","-24.955727777543402","99.993096742928316","0.013647293","0.000114217","234"
"235","yellowsaltcube","0.0","-0.053796303635697047","-5.0261951153612977e-16","-0.77379631175683172","1.496000025421379","-1.147796319741988","0.70300001057330508","SIDE","1.5947924443664979e-16","-0.66391370376853887","0.27310539410922918","0.69615518216614847","138.45641936727526","-75.354691172757796","49.12336702239098","0.004671511","0.000070599","235"
"236","yellowsaltcube","0.75499999999999923","-0.46079630992864501","1.1340000180061931","-0.1867963034335989","0.11200000206008461","-0.85479631560412739","-1.1708347120740641e-15","TOP","-0.47636562111905445","-0.3290592503737309","0.66171867117015293","-0.47636562111905462","60.073059587822719","153.48590320876784","104.71806933917917","0.011176590","0.000059374","236"
"237","yellowsaltcube","0.75499999999999978","-0.052796303588200401","0.81200001249089582","-0.82779631432169443","1.4340000224765399","-1.140796319409509","1.0860000189859389","SIDE","0.71382786397130216","0.20843693256238013","0.66858344711947071","-1.1664818795898714e-16","-147.62152309081904","57.87528242572742","46.809712040765774","0.009997722","0.000118222","237"
"238","yellowsaltcube","0.75499999999999978","-0.042796303113224549","-3.3027733150091851e-16","-0.79279631265929296","1.421000021859073","-1.128796318839538","1.2750000214436989","SIDE","-0.4999119507330741","0.58314795024933241","0.40014316331596489","0.49991195073307437","-26.345054645550587","-162.9768715450696","92.460576486672323","0.011610984","0.000164763","238"
"239","yellowsaltcube","0.75499999999999978","-0.61379631067649165","1.2980000225361461","-0.37979630608135317","1.0840000188909229","-1.001796316067","1.4880000250413921","SIDE","0.70052989000326915","0.13179175720366895","0.70134784946214579","-1.78293734575333e-16","-160.0300225955728","18.825805559721012","74.876649641632397","0.011941777","0.000100533","239"
"240","yellowsaltcube","0.0","-0.69479631126417041","1.46300002385397","-0.18479630333860139","1.068000018130997","-0.59779630991654076","1.4100000213366","SIDE","0.5048235142972638","0.62961200739799994","0.30642316975937234","0.50482351429726402","-145.26599911639448","61.816621141629462","46.791600951042973","0.008604150","0.000070519","240"
"241","yellowsaltcube","0.0","-1.202796319094726","0.0","-1.3167963212498031","0.0","0.090203699944305507","0.62500001012813566","SIDE","0.70594492023705058","0.1442408002881031","0.69342365197889799","-2.5555994006020652e-16","-156.75540504376832","26.140445737703043","132.84419898581524","0.001058155","0.000032931","241"
"242","yellowsaltcube","0.75500000000000045","-0.051796303540698287","0.02400000113993989","-0.80879631341923097","1.4120000214315951","-1.135796319172016","1.027000016183593","SIDE","0.71392826052403913","0.2285290186980711","0.66187682119712909","-1.9438630707275623e-16","-145.92754475236535","62.045035810598733","46.778029964552388","0.011186570","0.000105825","242"
"243","yellowsaltcube","3.3306690738754701e-16","-0.89579631429189388","1.5557963293420649","-1.099796317462119","1.414000021526592","-0.87479631329444851","1.2830000218236739","SIDE","0.50137664572842089","-0.62680339189886924","-0.32304864361316837","-0.50137664572842056","-62.703898327309616","-153.1967390125553","71.691148507366208","0.009636248","0.000169742","243"
"244","yellowsaltcube","0.75499999999999967","-1.094796317224622","0.99500001792330039","-0.87379631324694707","1.5707963267948959","-0.00079630111832900395","0.85600001458078878","SIDE","-0.48262529840061347","0.64369951107221446","0.34611642857979119","-0.48262529840061336","142.31690298169616","-57.823910993370838","101.31240988578782","0.018500058","0.000157577","244"
"245","yellowsaltcube","0.0","-0.66279631300387043","1.413000021479091","-0.091796302180967404","0.9680000166408711","-0.68679631088419368","1.443000022904019","SIDE","-0.493155489541448","-0.27867529249041967","0.66025404779194508","0.4931554895414485","138.27073381458615","-74.733858336001703","52.8482724269683","0.007048093","0.000083261","245"
"246","yellowsaltcube","0.0","-0.93379631609679636","1.483000024803913","-0.61879631091398102","1.2740000213962079","0.071203699041855473","0.095000004512258096","SIDE","0.70973401597177921","-0.67858701298540802","0.18920172404106661","2.3464206300687619e-16","-58.061554520284567","-154.65771615831366","91.435815607415307","0.009703658","0.000074333","246"
"247","yellowsaltcube","0.75499999999999989","-1.570796326794897","1.5707963267948959","-1.330796321914764","1.5707963267948959","0.083203699611823362","1.1080000167712569","SIDE","0.70973401597177921","-0.67858701298540802","0.18920172404106661","2.3464206300687619e-16","-51.667002867745197","-131.72314868928007","91.61307502951864","0.001708041","0.000023350","247"
"248","yellowsaltcube","0.0","-0.66679631319386234","1.466000023996459","-0.19479630381358529","1.0650000179885","-0.59379630972655373","1.420000021811576","SIDE","0.50475252321401598","0.62014705771183765","0.32537272078267315","0.50475252321401587","-146.57156533862502","57.547948606547088","46.830722524718453","0.009188973","0.000070247","248"
"249","yellowsaltcube","0.75500000000000034","0.080203699469333853","2.3888118477194991e-16","-1.161796320406955","0.97100001678336789","0.092203700039291805","0.41700000676792209","SIDE","-2.9728724889375925e-16","0.7002211426552265","-0.14336156832727615","-0.6993838803585285","145.54782762374739","-52.623407445749045","135.32729416502173","0.000562123","0.000021173","249"
"250","yellowsaltcube","0.755","0.067203698851863461","-2.0761385816624861e-16","-0.26079630694841022","0.69400001340545936","-0.84979631536663858","1.570796326794897","SIDE","0.001359313774408613","0.37419022008736907","0.92734997909262473","0.0013593137744086379","-2.5483531242155792","19.303077429158822","250.52561302898991","0.003182771","0.000053128","250"
"251","yellowsaltcube","3.3306690738754701e-16","0.0122036994991357","0.0","-0.58779630944156247","1.211000018403865","-1.2087963193797051","0.58800001163036431","SIDE","-0.49595338243957338","0.60034972488620808","0.38424041005930987","0.49595338243957365","-30.384193821222144","-161.19211725053106","114.53557498760021","0.006387775","0.000070173","251"
"252","yellowsaltcube","0.75500000000000034","-1.1347963191245261","1.204000018071383","-0.6567963127188865","1.290000022156174","0.072203699089350926","0.041000001947392978","SIDE","0.7097340159717791","-0.67858701298540813","0.18920172404106661","1.9553505250573016e-16","-58.356976917469879","-155.71727205343689","91.427626385364135","0.012217547","0.000136803","252"
"253","yellowsaltcube","0.0","-0.8427963150341572","1.5187963275846581","-0.64879631233890822","1.462000023806465","-0.134796304223364","1.039000016753568","SIDE","0.50759284007597782","0.57067686517807426","0.39878181121727674","0.50759284007597771","-154.78489361668358","21.920862531546746","45.36957650669595","0.012657558","0.000076807","253"
"254","yellowsaltcube","0.75499999999999878","0.023203700021602821","0.0","-0.78979631251679472","1.3820000232663081","-1.12879631883954","1.1330000179586941","SIDE","0.50250928343083701","-0.30662513026799781","0.63320602462372921","0.50250928343083712","-65.374946706283069","-151.04337543536974","48.001960336920355","0.007172947","0.000079981","254"
"255","yellowsaltcube","0.0","-0.72679631278408341","1.134000018006194","-1.004796316209482","1.570796326794897","-1.5707963267948959","1.5707963267948959","SIDE","-0.23900922736496738","0.79945537810771061","0.49660877648654178","-0.23900922736496752","80.455180852264988","-20.36681769774102","223.18903645103248","0.000917623","0.000020747","255"
"256","yellowsaltcube","0.0","-0.60279631015402335","1.454000023426484","-0.31379630620614862","1.2530000203987579","-0.51979630947136801","1.3980000240262489","SIDE","0.5040805703780995","-0.39103318909744156","0.58214998252930006","-0.50408057037809939","-156.42795525004203","19.180678801238379","90.294972413973198","0.012421043","0.000100136","256"
"257","yellowsaltcube","0.0","-1.443796324022351","1.570796326794897","-1.375796320792531","1.570796326794897","0.10620370070426299","1.170000019716084","SIDE","0.66871625247729072","-0.72009925815351494","0.18513679288430387","4.1505759001380747e-17","-48.867411911491196","-129.08956394055633","143.54715438818249","0.001571774","0.000009361","257"
"258","yellowsaltcube","0.0","-0.52379630966135859","1.1200000173412279","-0.19079630362358951","0.55700001015793299","-0.27479630435374802","0.8630000149132715","SIDE","0.70698226071910408","-0.6952918142824932","0.1294039258301834","1.1777767487714942e-16","-26.015704016895615","-161.20725911125339","92.459942587728804","0.011660134","0.000087037","258"
"259","yellowsaltcube","0.0","-0.71579631226161333","1.4900000251363941","-0.39179630665131709","1.1960000209510351","-0.38679630641382828","1.1660000195261031","SIDE","0.51553663191037158","-0.36720421264166414","0.57758551620970888","-0.51553663191037158","-157.40159859332439","28.160340466206314","84.064327724121299","0.009901667","0.000072162","259"
"260","yellowsaltcube","0.0","-0.57079630863411146","1.116000017151235","-0.060796303968178922","0.31800000532530243","-0.46379631007113747","1.169000019668593","SIDE","1.5622521916054067e-16","0.23092756500490508","0.66456098279432496","0.7106554438462751","-65.342124717996413","-150.94892065343737","48.00296656895339","0.005090662","0.000065623","260"
"261","yellowsaltcube","0.0","-0.35679630824854092","-2.9838482843390432e-16","-1.1167963182695611","1.395000023883765","-0.92579631571681087","1.369000022648847","SIDE","-3.9574621404933775e-17","0.70134784946214601","-0.13179175720366901","0.70052989000326893","-159.44044440057701","18.715016674594828","74.865540193084442","0.008226014","0.000100606","261"
"262","yellowsaltcube","0.75500000000000034","-1.5067963237550701","1.570796326794897","-1.29079632001487","1.5707963267948959","-0.01479630178329917","1.345000021508896","SIDE","1.35965084866153e-16","0.12118533747369727","0.68907948976172295","0.71448132989680668","-20.251524963831411","-136.83204595446117","47.119289525966806","0.005124951","0.000058424","262"
"263","yellowsaltcube","0.75500000000000034","-1.1077963178420851","0.0","-0.95179631695175004","1.570796326794897","0.069203698946853631","0.74300001247320679","SIDE","-0.48262529840061347","0.64369951107221457","0.3461164285797913","-0.48262529840061347","141.094783998807","-63.274957979695301","101.33972640164224","0.008672036","0.000057924","263"
"264","yellowsaltcube","0.0","-1.001796316066994","1.4500000232364989","-0.72279631259408961","1.442000022856518","-0.040796303018229049","0.83200001344085295","SIDE","0.50968852707404744","-0.30118506601805672","0.62427779613396039","-0.50968852707404777","-147.07565540018891","62.673173040946843","87.280254616397087","0.009354358","0.000079590","264"
"265","yellowsaltcube","0.0","-0.49179630814144421","1.570796326794897","-1.570796326794897","1.570796326794897","-0.22779630538098949","1.3970000239787499","SIDE","0.50457786945869687","-0.69061070952354997","0.11772508312345213","-0.50457786945869676","-114.63636437332114","-86.66160324996207","7.369368197138809","0.000945457","0.000012181","265"
"266","yellowsaltcube","0.755","-1.058796318774349","1.4270000221440531","-0.64979631238640601","1.381000023218802","-0.0067963014033163727","0.26300000597256851","SIDE","1.1654150131384544e-16","0.12118533747369728","0.68907948976172295","0.71448132989680668","-24.565172778946646","-161.36014726949469","46.596998030150118","0.012491940","0.000165375","266"
"267","yellowsaltcube","0.0","-0.77779631194682541","1.442000022856518","-0.54279631056380384","1.2730000213487149","-0.0077963014508189623","0.30400000466033328","SIDE","1.1654150131384544e-16","0.12118533747369731","0.68907948976172295","0.7144813298968069","-24.409320379273666","-160.47394523974765","46.615868458715646","0.009773948","0.000069806","267"
"268","yellowsaltcube","1.5543122344752199e-15","-1.357796323197199","1.570796326794897","-0.36679630872351188","1.570796326794897","0.01020369940413801","1.300000022631137","SIDE","2.401201843473105e-16","0.13075375564607444","0.64683520030066077","0.75133726051384586","-22.60636969319436","-134.23033368437055","-4.1082577254951662","0.002787075","0.000021360","268"
"269","yellowsaltcube","0.75500000000000023","-0.0027963012133275849","1.240000019781293","-1.2887963199198691","1.570796326794897","-1.5707963267948959","1.5707963267948959","TOP","0.49237567810477112","0.65014491191559542","0.30404601087992628","-0.49237567810477112","54.153769971519857","128.34949954187871","52.533970926139212","0.003270841","0.000019915","269"
"270","yellowsaltcube","0.0","-0.63979631191143127","1.437000022619028","-0.087796301990990339","0.76400001347065361","-0.64179631200642673","1.3260000206064431","SIDE","-0.47957077521244401","-0.30468528403337958","0.66872312717429583","0.4795707752124444","141.43908785877653","-71.626643343292713","59.906336695787893","0.008326395","0.000076761","270"
"271","yellowsaltcube","0.755","-1.0877963168921381","0.82800001325085937","-0.54979631089628889","1.3100000198464821","0.1442036992495381","0.74200001242571001","SIDE","0.50191133304835678","0.47570928612628433","-0.51949081089896443","-0.50191133304835711","155.45640341939881","13.836560236682708","28.327576485229994","0.002283358","0.000078733","271"
"272","yellowsaltcube","0.0","-0.16879630583827149","2.5850734050549711e-16","-0.98179631511704002","1.5147963273946701","-1.0997963174621279","1.241000019828786","SIDE","0.71392826052403913","0.22852901869807116","0.66187682119712909","-1.9438630707275623e-16","-146.19751572310329","62.077666477594846","55.329397414553689","0.005913915","0.000063305","272"
"273","yellowsaltcube","0.0","-0.99379631568702054","1.4410000228090241","-0.79979631299176834","1.5657963298170381","-0.001796301165833973","0.92400001455098235","SIDE","-0.48262529840061347","0.64369951107221457","0.34611642857979125","-0.48262529840061336","141.26594044699917","-57.50794450088371","101.23728946718798","0.010858156","0.000085915","273"
"274","yellowsaltcube","0.0","-1.01679631677945","1.436000022571535","-0.74879631382902156","1.452000023331492","-0.017796301925792238","0.81000001239590336","SIDE","0.50968852707404755","-0.30118506601805661","0.62427779613396028","-0.50968852707404777","-146.54551261606974","64.191720352372045","87.280254616397102","0.012894617","0.000085599","274"
"275","yellowsaltcube","0.0","-0.50679630885390536","1.1310000178636981","-0.22279630514351159","0.70400001062080375","-0.25179630652093871","0.82100001291837621","TOP","7.9013559204680753e-17","-0.14904429055759924","-0.6958492517405912","0.70255221749293562","24.82021893897522","158.60327982576803","94.069229759908637","0.012479048","0.000088162","275"
"276","yellowsaltcube","0.0","0.20520370214688041","0.0","-0.033796302685746418","1.401000020909122","-1.058796318774347","1.570796326794897","TOP","0.7031912211261826","0.69024385549195255","-0.17054479319719168","-1.9735439509026791e-16","42.815717674449189","128.04391424418347","133.56475191663404","0.002972273","0.000016602","276"
"277","yellowsaltcube","0.0","0.1552036997720109","0.0","-0.020796302068280891","0.26600000611506303","-0.46779631026112778","1.1430000184336611","TOP","0.70319122112618249","0.69024385549195244","-0.17054479319719168","-1.9735439509026789e-16","48.790411135452885","152.22521800956321","133.83986326401191","0.007626582","0.000011299","277"
"278","yellowsaltcube","0.0","-0.02679630235326572","-6.5962875740450726e-16","-0.76979631482647137","1.396000023931262","-1.1647963205494489","0.92600001464597925","SIDE","-1.2097382049040041e-16","0.68830368842897027","-0.25741362749346663","-0.67821549442321782","142.18599706756055","-71.90597441774942","59.970374688782826","0.006613262","0.000089585","278"
