ipa320/cob_manipulation/cob_grasp_generation/common/files/database/yellowsaltcube/yellowsaltcube.csv
"id","object","sdh_knuckle_joint","sdh_finger_12_joint","sdh_finger_13_joint","sdh_finger_22_joint","sdh_finger_23_joint","sdh_thumb_2_joint","sdh_thumb_3_joint","direction","qw","qx","qy","qz","pos-x","pos-y","pos-z","eps_l1","vol_l1"
"0","yellowsaltcube","0.0","-0.98539999999999994","1.245200007634985","-0.85839999722744842","1.3582000064829389","-0.87639999808240665","0.94719999999999949","SIDE","0.68253524254250897","-0.21042301559678844","-0.69990556305446816","-1.2199623060738991e-16","148.14578773154304","-65.394806065988661","101.84371615814001","0.011613299","0.000200481","0"
"1","yellowsaltcube","0.0","-0.97639999957252344","0.94720000000000026","1.098600033792102","1.5707963267948959","-0.74339999502487419","0.94719999999999938","SIDE","-2.8973545846865178e-17","0.71847200966511893","-0.079802179379051957","-0.69096279458022836","188.19588432740943","1.4972958356665658","79.767497129382363","0.000215391","0.000001205","1"
"2","yellowsaltcube","0.0","-0.98540000000000016","1.570796326794897","-0.92239999700765996","1.5707963267948959","-0.8723999978924194","1.570796326794897","SIDE","0.70709594586600277","0.0043671595060749292","-0.0034021460248104371","-0.707095945866003","-0.99555306991349746","-5.5859757549189037","-107.27228095419655","0.004297311","0.000010006","2"
"3","yellowsaltcube","1.6653345369377351e-16","-0.8983999958677279","1.5707963267948959","-0.61339999210983953","1.570796326794897","-0.92439999710265985","0.94720000000000126","SIDE","7.6998556981192419e-17","0.90117194087184183","-0.20772560651293034","0.38044606107057133","-93.179133384121783","35.691287800517422","216.18048407378743","0.009090994","0.000144381","3"
"4","yellowsaltcube","0.0","-0.66239999443721165","0.94719999999999915","-0.63939999334477249","0.94719999999999827","-0.90639999624770407","0.94719999999999949","SIDE","-1.1409247421200289e-16","0.7298178729314192","-0.1236581781816958","-0.67236487662477051","236.88716748183759","-36.489195570717555","70.031024066416364","0.000019008","0.000064650","4"
"5","yellowsaltcube","0.0","-0.98539999999999994","0.94719999999999915","-0.89639999577272211","0.94719999999999815","-0.75439999554735182","0.94719999999999971","SIDE","0.70052989000326915","0.13179175720366895","0.70134784946214601","-1.7829373457533303e-16","-200.70109030004562","26.468391880092046","75.643016406678171","0.006821546","0.000047132","5"
"6","yellowsaltcube","1.110223024625157e-16","-0.91439999662767779","0.9471999999999986","-0.8593999972749552","0.94719999999999915","-0.74139999492987985","0.94719999999999949","SIDE","0.70052989000326904","0.13179175720366898","0.7013478494621459","-1.981041495281478e-16","-225.17841016820174","31.067976807221129","76.104243650100486","0.003251331","0.000049992","6"
"7","yellowsaltcube","2.2204460492503141e-16","-0.73739999473989204","0.94719999999999949","-0.66839999472219624","0.94719999999999904","-0.9213999969601534","0.94720000000000459","SIDE","0.71784467859892542","0.12154815830810743","0.68551080415928745","5.7997732190064471e-17","-227.02374867330647","34.729558962213751","43.123392214539749","0.007554418","0.000069874","7"
"8","yellowsaltcube","0.0","-0.72539999416992307","0.94719999999999938","-0.65139999391473702","0.94719999999999949","-0.98540000000000016","0.94719999999999993","SIDE","-1.1409247421200289e-16","0.72981787293141942","-0.12365817818169578","-0.67236487662477051","212.44029897996904","-32.346990599707482","67.643377017431092","0.006022885","0.000037745","8"
"9","yellowsaltcube","0.0","-0.71539999369494855","0.94719999999999938","1.0986000337921169","1.5707963267948959","-0.95839999871756709","0.94719999999999915","SIDE","-3.2100089366753354e-16","0.71334224715928951","-0.054472354166850596","-0.69869564264367379","213.59049137215004","5.2201166575638691","53.732739571014761","0.000699672","0.000004208","9"
"10","yellowsaltcube","0.0","-0.98539999999999994","0.94719999999999949","-0.88139999831989502","0.94719999999999971","-0.72539999416992729","0.94719999999999938","SIDE","0.69412401612343433","-0.22670456005400316","-0.68322536010557677","3.1989183455301403e-16","200.21004633248069","-83.961841851152315","79.410277206517662","0.007775082","0.000078489","10"
"11","yellowsaltcube","0.0","-0.73639999469239026","0.94719999999999949","-0.67239999491218472","0.94719999999999949","-0.95239999843258216","0.94720000000000004","SIDE","0.71198572510915181","0.0867025922738036","0.69682062809147527","9.7458328997304744e-18","-218.21975920870247","17.824156942055925","46.665975895803456","0.007425662","0.000049120","11"
"12","yellowsaltcube","0.0","-0.98540000000000016","0.94719999999999949","-0.879399998224899","0.94719999999999915","-0.70039999298248501","0.94719999999999949","SIDE","0.69412401612343444","-0.22670456005400319","-0.68322536010557677","3.1989183455301403e-16","201.06311526804683","-86.785348466433703","79.472129501195411","0.005042200","0.000050388","12"
"13","yellowsaltcube","0.0","-0.73339999454990712","0.94719999999999938","-0.67139999486469082","0.94719999999999882","-0.98540000000000028","0.94720000000000037","SIDE","0.71198572510915181","0.086702592273803586","0.69682062809147527","9.7458328997304744e-18","-193.50274494179575","14.748718122054941","47.010913272666933","0.006588439","0.000039896","13"
"14","yellowsaltcube","0.0","-0.83539999613501281","0.94719999999999949","-0.70239999307748857","0.94719999999999949","-0.92839999729265266","0.94719999999999949","SIDE","0.68253524254250908","-0.2104230155967885","-0.69990556305446805","-1.2199623060738991e-16","172.50818940782509","-66.900766314834542","103.47041457150775","0.007186747","0.000147202","14"
"15","yellowsaltcube","0.0","-0.71539999369495311","0.94719999999999938","1.0986000337920929","1.570796326794897","-0.98539999999999994","0.94720000000000026","SIDE","-3.3072819347564062e-16","0.71334224715928951","-0.054472354166850596","-0.69869564264367379","188.7597490235226","7.1162457552399667","53.143648015288711","0.000301135","0.000001783","15"
"16","yellowsaltcube","0.0","-0.89139999553524407","0.9471999999999986","-0.83339999604002846","0.94719999999999815","-0.72839999431241065","0.94719999999999915","SIDE","1.5644579900794502e-16","0.672922212184494","-0.20872868518686485","0.70965345932285118","-222.11573809677461","81.230157434579212","70.909505852657887","0.000890867","0.000058834","16"
"17","yellowsaltcube","0.0","-0.98539999999999994","0.94719999999999915","-0.87639999808240476","0.94719999999999971","-0.74139999492988795","0.94719999999999949","SIDE","1.9555724875993126e-16","0.67292221218449388","-0.20872868518686485","0.70965345932285118","-201.554025841043","75.590509566074871","71.063280188895661","0.006459525","0.000060089","17"
"18","yellowsaltcube","0.0","-0.9853999999999995","0.94719999999999938","-0.87939999822489867","0.94719999999999949","-0.74339999502488352","0.9471999999999986","SIDE","1.5644579900794502e-16","0.67292221218449388","-0.20872868518686491","0.70965345932285118","-198.3246167938112","73.850568265471523","71.089258023283278","0.007414827","0.000077203","18"
"19","yellowsaltcube","0.0","-0.82039999542255393","0.94719999999999849","-0.66739999467469802","0.94719999999999949","-0.89939999591522235","0.94719999999999815","SIDE","7.7012350449457545e-17","0.65440106556400246","-0.2284610604170304","0.72080842757408459","-174.56436294434832","73.973514109309406","86.11810609999273","0.004482151","0.000036025","19"
"20","yellowsaltcube","0.0","-0.70439999317247115","0.94719999999999793","-0.6603999943422123","0.94719999999999971","-0.93139999743513968","0.94719999999999949","SIDE","0.50521459340121488","-0.40156180607904901","0.57294375389511187","0.50521459340121488","-36.167517563783228","-227.33296205914735","45.192199522630382","0.005538228","0.000040030","20"
"21","yellowsaltcube","0.0","-0.63339999305979267","0.94719999999999915","-0.53339999156967188","0.94719999999999971","-0.98540000000000028","0.94719999999999993","SIDE","0.66858571386296706","-0.1710165562459682","-0.72370330986400511","0.0","208.35910614990763","-61.80656726105174","133.28169558145822","0.001243509","0.000068161","21"
"22","yellowsaltcube","0.0","-0.85239999694246904","0.94719999999999882","-0.70139999302998157","0.9472000000000016","-0.84939999679997691","0.94719999999999827","SIDE","0.68253524254250908","-0.21042301559678842","-0.69990556305446816","-1.2199623060738994e-16","171.85932271658899","-72.524158660697481","103.53870586114431","0.004946938","0.000045716","22"
"23","yellowsaltcube","0.0","-0.72339999407492761","0.9471999999999986","-0.66839999472219624","0.94719999999999949","-0.96039999881256966","0.94719999999999915","TOP","0.50034376376371337","0.57197558157670636","0.41491706424960567","-0.50034376376371348","26.807123456990219","215.32138195713958","49.054402126657287","0.006026562","0.000057150","23"
"24","yellowsaltcube","0.0","-0.98539999999999994","1.570796326794897","-0.98039999976251258","1.483200009160486","-0.86539999755993602","0.94719999999999949","TOP","-0.47636562111905445","-0.3290592503737309","0.66171867117015293","-0.47636562111905462","59.781479529189433","152.61747421984521","104.63315046090952","0.014117858","0.000241866","24"
"25","yellowsaltcube","0.0","-0.96739999914504704","0.94719999999999938","-0.98540000000000028","0.94719999999999971","-0.58839999092239859","0.94719999999999938","SIDE","-2.7192863391914254e-16","0.71448536518288774","-0.13578770808751428","-0.68634711427368555","220.00765435324055","-38.038793272869135","104.05395873611297","0.000944572","0.000029511","25"
"26","yellowsaltcube","0.0","-0.98540000000000016","1.2812000060852651","-0.86839999770242704","1.3802000075278831","-0.98540000000000016","1.099200003959977","SIDE","0.68253524254250908","-0.2104230155967885","-0.69990556305446805","-2.0332705101231649e-16","148.794654422778","-59.771413720125842","101.77542486850319","0.013377851","0.000252154","26"
"27","yellowsaltcube","0.0","-0.97939999971501635","0.94719999999999938","-0.9853999999999995","0.94719999999999938","-0.57139999337457215","0.94719999999999949","SIDE","0.71287757915747374","0.13513998063429591","0.68814441999390075","-2.5307464672238676e-16","-229.80632958320368","33.590956350901727","89.069247626048337","0.000495609","0.000057158","27"
"28","yellowsaltcube","0.0","-0.71639999374245122","0.94719999999999949","-0.65239999396224124","0.94719999999999971","-0.98539999999999994","0.94719999999999949","SIDE","-1.1409247421200289e-16","0.72981787293141942","-0.12365817818169578","-0.67236487662477051","213.71927038265497","-37.907235388150802","67.854249110387556","0.007148404","0.000073594","28"
"29","yellowsaltcube","0.0","-0.93639999767263449","0.94719999999999815","-0.91039999643769254","0.94719999999999949","-0.7233999940749295","0.94720000000000149","TOP","0.51930751632597794","0.54846515970254828","0.39978165986841607","-0.51930751632597827","24.201397001029083","201.22552272978962","58.968476617463658","0.005894628","0.000057576","29"
"30","yellowsaltcube","1.6653345369377351e-16","-0.81639999523256124","0.94719999999999949","-0.66739999467469713","0.94719999999999949","-0.91639999672269556","0.94719999999999949","SIDE","3.8506175224728773e-17","0.65440106556400246","-0.22846106041703043","0.72080842757408459","-178.3963905560002","73.607703473858891","85.981152566613872","0.004892792","0.000034476","30"
"31","yellowsaltcube","0.0","-0.63639999320228313","0.94719999999999693","-0.62239999253731015","0.94719999999999938","-0.88239999836739225","0.94719999999999949","SIDE","-1.3310788658067002e-16","0.72981787293141942","-0.12365817818169578","-0.67236487662477051","238.16613888452267","-42.049440359161046","70.2418961593728","0.000002387","0.000035936","31"
"32","yellowsaltcube","3.3306690738754701e-16","-0.88739999534523961","0.94719999999999427","-0.89239999558273619","0.94719999999999949","-0.74639999516736732","0.94719999999999938","SIDE","0.50036834451849388","-0.42676280946611977","0.56314877613666814","0.50036834451849432","-24.790182756723393","-197.86650605963104","72.169826673768995","0.006783720","0.000053972","32"
"33","yellowsaltcube","0.0","-0.71639999374246144","0.94719999999999793","-0.67039999481718915","0.94719999999999949","-0.98540000000000016","0.94720000000000004","TOP","0.50034376376371315","0.57197558157670636","0.41491706424960584","-0.50034376376371337","22.89210595740505","190.72098431951841","49.088666522883798","0.004840830","0.000038717","33"
"34","yellowsaltcube","3.3306690738754691e-16","-0.75339999549984948","0.94719999999999649","-0.70839999336247139","0.94719999999999915","-0.96939999924004172","0.94719999999999904","SIDE","0.686347114273685","-0.13578770808751423","-0.71448536518288819","-2.0219780223743469e-16","181.66293094915619","-36.13342130777793","101.85025120858623","0.005197718","0.000035775","34"
"35","yellowsaltcube","0.0","-0.94339999800511121","0.95520000037997577","-0.98540000000000016","1.078200002962536","-0.71139999350496319","0.9592000005699689","TOP","0.51930751632597816","0.54846515970254828","0.39978165986841585","-0.51930751632597816","20.354672292776257","176.69257539915168","60.92942136198473","0.010972239","0.000254248","35"
"36","yellowsaltcube","0.0","-0.98540000000000016","0.94719999999999938","-0.98139999981001191","1.2162000062575571","-0.94639999814760289","1.3352000086501179","SIDE","-1.1763052064258855e-16","0.70786668623091809","-0.16800983163045147","-0.68607393989275423","157.50633473292169","-32.234148236394439","80.471670378284031","0.012570487","0.000176618","36"
"37","yellowsaltcube","0.0","-0.74539999511987065","0.94719999999999882","-0.67039999481719115","0.94719999999999971","-0.98540000000000028","0.94719999999999949","SIDE","0.71784467859892542","0.12154815830810743","0.68551080415928745","5.7997732190064471e-17","-202.5078107798351","30.382629516219147","43.885687167312874","0.006008195","0.000043591","37"
"38","yellowsaltcube","0.0","-0.6993999929350011","0.94719999999999793","-0.66539999457970145","0.94720000000000026","-0.98539999999999994","0.94719999999999938","SIDE","0.50521459340121477","-0.4015618060790489","0.57294375389511198","0.505214593401215","-31.853869748667968","-202.80486074411328","45.714491018447049","0.005185375","0.000064403","38"
"39","yellowsaltcube","0.0","-0.98540000000000016","0.94719999999999993","-0.98339999990500504","1.122200005052423","-0.8183999953275598","1.1292000053848941","SIDE","0.72483684925395109","0.13770924713543928","0.67501681846972927","-7.6584339342561694e-17","-167.37456668525604","27.827938401793393","65.199163257308385","0.012663095","0.000165077","39"
"40","yellowsaltcube","0.0","-0.94739999819509757","0.94719999999999793","-0.98540000000000016","1.1602000035976989","-0.85939999727495442","1.2032000056400911","SIDE","0.50036834451849366","-0.42676280946612005","0.56314877613666825","0.50036834451849443","-21.390305518463187","-173.18964267007945","72.206542040516155","0.012855059","0.000168799","40"
"41","yellowsaltcube","0.0","-0.93739999772012372","0.94719999999999949","-0.87339999793991474","0.94719999999999949","-0.77739999663978832","0.94719999999999971","SIDE","-9.8025433868823785e-17","0.70786668623091786","-0.16800983163045147","-0.68607393989275423","181.70136225044422","-37.976758502682742","81.931523369465836","0.005921769","0.000045944","41"
"42","yellowsaltcube","0.0","-0.88239999836739169","0.94720000000000004","-0.98539999999999983","1.226200006732532","-0.96139999886006278","1.3372000087451219","SIDE","-9.8025433868823785e-17","0.70786668623091786","-0.16800983163045147","-0.68607393989275423","156.06948480878148","-37.380149758348288","80.459363306607116","0.010218747","0.000222034","42"
"43","yellowsaltcube","0.0","-0.9743999994775292","0.94719999999999915","-0.90039999596271758","0.94719999999999849","-0.74839999526236667","0.94719999999999938","SIDE","0.72483684925395109","0.13770924713543928","0.67501681846972927","-5.7438254506921267e-17","-191.75035000840657","32.800808229506984","63.934310277935182","0.005666537","0.000043758","43"
"44","yellowsaltcube","0.0","-0.89739999582021568","0.94719999999999793","-0.98539999999999983","1.1172000048149351","-0.75539999559484683","1.061200002155078","TOP","-0.48651280120831264","-0.32779460260565862","0.64742666536332882","-0.48651280120831275","62.480462967218834","164.14105786848921","80.055552046932391","0.010488686","0.000218891","44"
"45","yellowsaltcube","0.0","1.0326000306572769","1.570796326794897","-0.98539999999999994","1.102200004102474","-0.80939999490008652","1.1522000032177171","SIDE","0.69096279458022802","-0.07980217937905186","-0.71847200966511926","-1.0042355331335498e-17","166.8292173232046","3.8705359481079653","78.79606639755346","0.007517069","0.000116344","45"
"46","yellowsaltcube","0.0","1.0326000306572709","1.5707963267948959","-0.91139999648518444","0.94719999999999949","-0.73339999454989668","0.94719999999999938","SIDE","0.69096279458022802","-0.079802179379051888","-0.71847200966511926","-2.0084710662670996e-17","191.47237123055328","1.1333696255167314","79.916461872905472","0.000866290","0.000004436","46"
"47","yellowsaltcube","5.5511151231257837e-16","-0.91539999667517302","1.3342000086026291","-0.83839999627750594","1.290200006512743","-0.98539999999999983","1.008200002897343","SIDE","0.686347114273685","-0.1357877080875142","-0.71448536518288819","-2.0219780223743469e-16","157.23195181429816","-31.490321778080656","100.40907624714809","0.012509993","0.000267296","47"
"48","yellowsaltcube","0.0","-0.63639999320228258","0.94719999999999882","-0.84039999637249874","1.2952000067502381","-0.98539999999999994","1.0072000028498449","SIDE","0.68634711427368511","-0.13578770808751423","-0.71448536518288819","-2.224175824611782e-16","158.31722515529222","-26.314547543101209","100.41486177525493","0.009105120","0.000184723","48"
"49","yellowsaltcube","3.3306690738754701e-16","-0.70839999336246173","0.94719999999999649","-0.90139999601022747","0.94719999999999971","-0.75539999559484949","0.94719999999999849","SIDE","0.68607393989275378","-0.16800983163045136","-0.70786668623091831","-2.6296180485996827e-16","184.83932480994935","-44.208576732879159","82.195246307818152","0.002344730","0.000035543","49"
"50","yellowsaltcube","0.0","-0.70739999331497672","0.94719999999999427","-0.72339999407492062","0.94719999999999938","-0.85039999684747147","0.94719999999999938","TOP","-0.47636562111905445","-0.3290592503737309","0.66171867117015293","-0.47636562111905462","67.647806805450003","176.04619110481497","106.924115390084","0.000118213","0.000034934","50"
"51","yellowsaltcube","0.0","-0.94539999810010233","0.94719999999999793","-0.98540000000000016","0.94719999999999949","-0.62239999253731326","0.94719999999999949","SIDE","7.7754522829102495e-17","0.66187682119712932","-0.2285290186980711","0.71392826052403879","-206.19970289821691","82.794876260021198","54.098508980946896","0.006150828","0.000053391","51"
"52","yellowsaltcube","0.0","-0.98540000000000016","0.96820000099744419","1.098600033792112","1.570796326794897","-0.92439999710264797","1.379200007480383","SIDE","-3.8631394462486912e-17","0.71847200966511893","-0.079802179379051971","-0.69096279458022847","163.55273042006075","4.2344621582578181","78.647101654030337","0.006521718","0.000088024","52"
"53","yellowsaltcube","0.0","-0.79939999442511045","0.94719999999999782","-0.98539999999999961","1.1172000048149431","-0.82639999570753364","1.132200005527392","SIDE","0.68607393989275378","-0.16800983163045136","-0.70786668623091831","-2.6296180485996827e-16","160.64429729242681","-38.465966466591233","80.735393316636447","0.010424109","0.000263932","53"
"54","yellowsaltcube","8.8817841970012504e-16","-0.69239999260251028","0.94719999999999815","-0.88239999836739169","0.94719999999999949","-0.72239999402743282","0.94720000000000271","SIDE","0.50137664572842067","-0.62680339189886947","-0.32304864361316832","-0.50137664572842056","-72.785863196009444","-184.72340618908899","71.508629688609901","0.007437915","0.000079658","54"
"55","yellowsaltcube","0.0","-0.92539999715014643","1.218200006352554","-0.81639999523254903","1.3602000065779301","-0.98540000000000016","1.1012000040549701","SIDE","3.8506175224728773e-17","0.65440106556400246","-0.2284610604170304","0.72080842757408459","-151.06437839530105","65.769323021644382","87.092823901016615","0.005279248","0.000309164","55"
"56","yellowsaltcube","0.0","-0.65339999400973858","1.0122000030873299","-0.42239998955709118","0.95820000052246901","-0.98540000000000028","0.94720000000000037","SIDE","-3.868790728435307e-17","0.65981397142602971","-0.22349600185257923","0.71742251168117266","-158.42906540819018","68.329171712212002","108.20274492572224","0.005582878","0.000125737","56"
"57","yellowsaltcube","0.0","-0.91339999658018345","0.94719999999999938","-0.9854000000000005","0.94719999999999938","-0.5763999936120604","0.94719999999999938","SIDE","0.72907889674779358","0.14876204638783022","0.668067224066205","-1.9034685916324257e-16","-231.2322337579881","44.600596742154217","79.281063435334687","0.001565224","0.000072830","57"
"58","yellowsaltcube","0.0","-0.94439999805261232","0.94719999999999815","-0.98539999999999994","0.94719999999999949","-0.55339999251961747","0.94719999999999915","SIDE","-7.7765458639324771e-17","0.66858344711947082","-0.20843693256238005","0.71382786397130193","-218.1405007008604","79.860211074203093","45.398571597993389","0.002293684","0.000095646","58"
"59","yellowsaltcube","0.0","-0.61639999225232167","0.94719999999999938","-0.70939999340994608","0.94719999999999949","-0.96939999924004361","0.94719999999999938","SIDE","0.68634711427368522","-0.13578770808751423","-0.71448536518288808","-2.224175824611781e-16","182.74820429015026","-30.957647072798562","101.8560367366931","0.006504832","0.000078410","59"
"60","yellowsaltcube","0.0","-0.79539999423510677","0.94719999999999793","-0.87339999793991374","0.94719999999999938","-0.78939999395014282","0.94720000000000326","SIDE","-7.8420347095059023e-17","0.70786668623091786","-0.16800983163045147","-0.68607393989275423","180.17709552676121","-43.102011934553367","81.913941838968796","0.004159847","0.000038097","60"
"61","yellowsaltcube","0.0","1.03260003065727","1.570796326794897","-0.65939999429472118","1.008200002897345","-0.16939998731911279","0.94719999999999971","SIDE","-0.47038555499485279","0.66699704450525998","0.33554403872758137","-0.47038555499485291","156.94197073379132","-73.506296779875839","26.263133075381955","0.006354433","0.000010413","61"
"62","yellowsaltcube","3.3306690738754691e-16","-0.96139999886006278","1.4732000086855159","-0.90839999634269553","1.476200008828003","-0.98540000000000028","1.202200005592591","SIDE","0.50185773553240631","-0.61361930058873004","-0.34604765642548196","-0.50185773553240653","-57.951442690695806","-154.26279133448639","91.43886794952725","0.003217742","0.000338297","62"
"63","yellowsaltcube","0.0","0.36060002155639642","0.94719999999999949","-0.76939999625980893","1.14420000609738","-0.98540000000000016","1.0062000028023499","SIDE","0.70190713843211061","-0.098360650547028125","-0.7054442227717308","-7.9086175637501281e-17","167.37677521284863","-0.26824587700762997","94.507785114385797","0.008019996","0.000163926","63"
"64","yellowsaltcube","1.046999999999999","-0.78500000000000103","1.0469999999999999","-0.44599999367724519","1.0469999999999999","-0.54499999511987629","1.046999999999999","SIDE","0.50475252321401587","0.62014705771183776","0.32537272078267315","0.50475252321401598","-231.99039765355587","84.178041630074972","45.121424220359991","0.000018712","0.000027720","64"
"65","yellowsaltcube","4.9960036108132044e-16","-0.90639999624768874","0.94719999999999671","-0.98539999999999994","0.94719999999999993","-0.55339999251961569","0.94719999999999971","SIDE","7.7754522829102495e-17","0.66187682119712932","-0.2285290186980711","0.71392826052403879","-215.85291545489397","86.188465278101091","45.343576754335096","0.001996998","0.000051015","65"
"66","yellowsaltcube","1.0469999999999999","-0.46499999457970148","1.046999999999999","-0.40099999153986099","1.0469999999999999","-0.78500000000000025","1.0469999999999999","TOP","0.50034376376371303","0.57197558157670625","0.41491706424960573","-0.50034376376371337","32.086346320431126","248.49389821588539","49.008198148263965","0.000167697","0.000025903","66"
"67","yellowsaltcube","1.0469999999999999","-0.49999999298249598","1.0469999999999999","-0.51499999369494986","1.0469999999999999","-0.78500000000000025","1.0469999999999999","SIDE","0.71784467859892542","0.12154815830810743","0.68551080415928745","5.7997732190064471e-17","-242.16044622718087","37.413452052413277","42.65273397592324","0.000133312","0.000052671","67"
"68","yellowsaltcube","0.0","1.0326000306572749","1.570796326794897","-0.98539999999999994","1.567796329912045","0.050600016611068221","0.94719999999999938","SIDE","-0.49811390254733268","-0.38085470663238874","0.5989280195600214","0.49811390254733301","152.36651596641838","-9.0173764954476834","133.4011840816957","0.007935976","0.000021339","68"
"69","yellowsaltcube","0.0","1.0326000306572749","1.570796326794897","-0.72039999393242571","0.94719999999999949","-0.15339998655915399","0.94719999999999938","SIDE","-0.49811390254733268","-0.3808547066323888","0.59892801956002151","0.49811390254733312","176.68083802449596","-14.42909137982827","133.58876037617026","0.000763387","0.000001058","69"
"70","yellowsaltcube","0.0","1.0326000306572769","1.570796326794897","-0.98539999999999961","1.570796326794897","0.069600017513516257","1.1602000035976969","SIDE","-0.47038555499485285","0.66699704450526009","0.33554403872758132","-0.47038555499485307","133.44781309360212","-65.738825403097778","23.399735584838343","0.000713009","0.000008996","70"
"71","yellowsaltcube","1.110223024625157e-16","0.26460002025626289","0.94720000000000115","-0.69939999293498423","0.94719999999999938","-0.95739999867006931","0.94719999999999971","SIDE","0.70190713843211061","-0.098360650547028125","-0.7054442227717308","-7.9086175637501281e-17","192.04546385887647","-3.7078208073001142","94.872784818864858","0.001829312","0.000040078","71"
"72","yellowsaltcube","0.0","1.0326000306572749","1.570796326794897","-0.6453999936297562","1.0742000027725489","-0.18439998803157401","0.94719999999999949","SIDE","-0.49249302033054515","0.64986149259126424","0.30427173759396159","-0.49249302033054515","153.95021506977977","-74.818232766760644","13.605569941594654","0.006171574","0.000019582","72"
"73","yellowsaltcube","0.0","1.0326000306572729","1.570796326794897","-0.9853999999999995","1.5707963267948959","0.03060001566111965","0.94719999999999938","SIDE","0.71222586833250112","-0.66312639375205562","0.23021228982703848","7.7940374956084246e-17","-59.824400814341779","-134.61405982765169","7.6661493667026974","0.000008486","0.000000013","73"
"74","yellowsaltcube","0.0","0.27460002073123851","0.94719999999999949","-0.53639999171215524","1.1072000043399699","-0.24139998747929811","0.94719999999999949","SIDE","0.51198870539340513","0.3648175523442786","-0.58535739903130846","-0.51198870539340591","159.18950748728736","-32.831360914776461","125.47430278557114","0.008034177","0.000034739","74"
"75","yellowsaltcube","0.0","-0.58639999082741523","0.94719999999999904","-0.98539999999999928","1.208200005877573","-0.94039999786262107","1.3152000077001771","SIDE","-1.9146084835640426e-17","0.6750168184697295","-0.13770924713543925","0.72483684925395087","-162.48179605999323","26.829771036515083","65.453047836961403","0.010548999","0.000204324","75"
"76","yellowsaltcube","0.0","1.0326000306572769","1.570796326794897","-0.53139999147467254","1.090200003532505","-0.22439998667184391","0.94719999999999938","SIDE","0.71222586833250101","-0.66312639375205562","0.23021228982703848","7.7940374956084234e-17","-67.993044848841507","-158.14383516897587","7.3041728143574396","0.007786422","0.000008264","76"
"77","yellowsaltcube","1.046999999999999","-0.49699999284000262","1.046999999999999","-0.39499999125487922","1.0469999999999999","-0.78500000000000048","1.0469999999999999","SIDE","-0.49169848920914155","0.61797309814569634","0.36684389239444226","0.49169848920914155","-76.014051141337916","-236.47808503566586","119.51351667022332","0.000677411","0.000001363","77"
"78","yellowsaltcube","0.0","1.0326000306572729","1.570796326794897","-0.59739999134987698","1.140200005907382","-0.20239998562690489","0.94720000000000326","SIDE","0.49818982123482319","-0.29172561796742219","0.64692346367832076","-0.49818982123482319","-152.30476737576646","69.009684505857763","10.319914583497381","0.009587876","0.000022651","78"
"79","yellowsaltcube","1.3877787807814449e-16","0.27960002096873321","0.94719999999999882","-0.47439999202694688","1.1632000037401911","-0.26539998861924052","0.94719999999999993","SIDE","0.51126779603780959","0.36487333508711201","-0.58658156364796255","-0.51126779603781014","154.46915287242447","-37.335011105271427","126.06033753867239","0.008022232","0.000026076","79"
"80","yellowsaltcube","0.0","0.2396000190688303","0.94719999999999849","-0.57239999342206982","1.0442000046072459","-0.22839998686183299","0.94719999999999949","SIDE","0.51738068111858537","-0.35441534418796095","0.58225786848669225","-0.51738068111858559","-160.59697754163159","47.970784558529942","-0.74990975449139186","0.008761962","0.000022364","80"
"81","yellowsaltcube","0.0","0.19460002019106479","0.9471999999999986","-0.5873999908749018","1.0132000031348369","-0.21939998643435371","0.9472000000000016","SIDE","0.49917844024381508","0.59231821455691158","0.38833091854192703","0.49917844024381469","-170.95501587611926","23.674970519960844","132.88819841254406","0.010025965","0.000037727","81"
"82","yellowsaltcube","0.0","-0.51639999076221621","0.94719999999999949","-0.67439999500718273","0.94719999999999949","-0.98540000000000016","0.94719999999999949","SIDE","2.0938154507956683e-16","0.66806722406620511","-0.14876204638783005","0.72907889674779347","-205.5147413792557","38.873947302684343","80.947222240792186","0.004094325","0.000046563","82"
"83","yellowsaltcube","1.0469999999999999","-0.53599999469239601","1.0469999999999959","-0.46699999467469638","1.0469999999999999","-0.7850000000000007","1.0469999999999999","SIDE","3.8506175224728773e-17","0.65440106556400246","-0.22846106041703043","0.72080842757408459","-229.27187515881013","93.072713225864248","83.848981799340834","0.003379195","0.000059896","83"
"84","yellowsaltcube","0.0","1.0326000306572709","1.570796326794897","-0.183399987984076","0.94720000000000093","-0.58739999087489869","1.1632000037401899","SIDE","-0.4835773952222544","0.55869016209009137","0.46922394274361839","-0.48357739522225457","165.78495510164993","7.4865864339296673","18.25029651273557","0.007659551","0.000012738","84"
"85","yellowsaltcube","0.0","-0.75739999568983973","0.94719999999999849","-0.89939999591522679","0.94719999999999949","-0.71439999364744977","0.94719999999999971","TOP","-0.48651280120831275","-0.32779460260565868","0.64742666536332893","-0.48651280120831275","70.199735645155329","187.69313466524926","81.376501661109032","0.005946379","0.000036752","85"
"86","yellowsaltcube","1.0469999999999999","-0.78500000000000025","1.0469999999999999","-0.35899999280460448","1.0469999999999999","-0.51899999388493845","1.0469999999999999","SIDE","1.9339373399506651e-16","0.21383044435477533","0.66282550962201148","0.71759242252225608","-89.332559906687351","-234.66098498276807","22.827859892186854","0.000071974","0.000017885","86"
"87","yellowsaltcube","1.0469999999999999","-0.59899999442510254","1.046999999999997","-0.39699999134988828","1.0469999999999999","-0.78500000000000048","1.0469999999999999","SIDE","0.69882352539893788","-0.2039342617626087","-0.68560666364056","-7.9435149524435598e-17","223.64433890516437","-87.663306509327583","117.47480226442694","0.009153288","0.000090211","87"
"88","yellowsaltcube","1.0469999999999999","-0.51399999364745808","1.0469999999999919","-0.48299999543465649","1.0469999999999999","-0.78500000000000059","1.0469999999999999","SIDE","3.8506175224728773e-17","0.65440106556400246","-0.22846106041703035","0.72080842757408459","-230.83975317443912","91.916454584031001","83.805939260278521","0.000221389","0.000038050","88"
"89","yellowsaltcube","0.0","1.0326000306572769","1.5707963267948959","-0.98540000000000028","1.570796326794897","0.014600018160794211","1.3632000067204251","SIDE","-0.49249302033054504","0.64986149259126424","0.30427173759396148","-0.49249302033054515","130.53959996533675","-66.338841752667022","12.863189673998122","0.002640652","0.000007807","89"
"90","yellowsaltcube","0.0","0.27560002077873008","0.94719999999999815","-0.98540000000000016","1.5707963267948959","-0.2073999858643811","1.5707963267948959","SIDE","0.49917844024381508","0.59231821455691158","0.38833091854192697","0.49917844024381469","-141.96214402369594","23.063262254971253","132.79458470969868","0.002502247","0.000008814","90"
"91","yellowsaltcube","0.0","0.41560002090912102","0.94719999999999827","-0.98539999999999994","1.570796326794897","-0.5783999937070563","1.570796326794897","SIDE","0.5056727556510815","-0.59474520707929412","-0.36724415181278325","0.50567275565108138","130.68209862679169","-31.016125961918263","6.8003878387947472","0.002832793","0.000009596","91"
"92","yellowsaltcube","1.0469999999999999","-0.35799999275710509","1.0469999999999979","-0.51999999393243856","1.0469999999999999","-0.78500000000000025","1.0469999999999999","TOP","-0.4956758132851003","-0.39723828874077299","0.59229445228417488","-0.49567581328510057","40.152215267273746","246.90625286365685","116.18376857969182","0.000025018","0.000036246","92"
"93","yellowsaltcube","1.046999999999999","-0.32899999137967462","1.046999999999999","-0.53199999450240543","1.0469999999999999","-0.7850000000000007","1.0469999999999999","SIDE","-0.49595338243957338","0.60034972488620808","0.38424041005930981","0.49595338243957365","-49.181448186050666","-246.83206861725182","115.94922285966237","0.000028145","0.000025724","93"
"94","yellowsaltcube","1.0469999999999999","-0.78500000000000103","1.0469999999999999","-0.54199999497737128","1.046999999999999","-0.46999999481719229","1.0469999999999999","SIDE","0.51553663191037136","-0.36720421264166414","0.57758551620970899","-0.51553663191037158","-244.57805373779007","47.572380747409746","78.41642799001302","0.000011434","0.000045579","94"
"95","yellowsaltcube","0.0","0.1886000199060868","0.94719999999999949","-0.53739999175965958","1.0742000027725469","-0.24039998743180169","0.94719999999999938","SIDE","0.49917844024381519","0.59231821455691158","0.38833091854192697","0.49917844024381458","-166.3499758551894","28.136236576841419","132.87637767074753","0.010698015","0.000039963","95"
"96","yellowsaltcube","1.046999999999999","-0.78500000000000036","1.0469999999999999","-0.45699999419972298","1.0469999999999999","-0.42999999291729429","1.0469999999999999","TOP","3.9594741578118308e-17","-0.13792553595377122","-0.69970531138485204","0.70099145768810345","39.610781347486736","244.15952299365637","116.13554710969152","0.001673653","0.000052794","96"
"97","yellowsaltcube","3.3306690738754691e-16","-0.50539999023974147","0.94719999999999793","-0.67339999495968739","0.94719999999999971","-0.91739999677017603","0.94719999999999949","SIDE","2.0938154507956691e-16","0.66806722406620533","-0.14876204638783005","0.72907889674779358","-229.78075384439123","44.277388067244978","79.37510044342612","0.006537266","0.000074096","97"
"98","yellowsaltcube","0.0","0.29160002153869757","0.9471999999999986","-0.47339999197944471","1.2202000064475489","-0.26739998871423792","0.95420000033248131","SIDE","0.50567275565108138","-0.59474520707929435","-0.3672441518127833","0.5056727556510815","154.91712780188749","-36.747472843030167","6.2319480349097924","0.014483671","0.000061618","98"
"99","yellowsaltcube","1.0469999999999999","-0.78500000000000103","1.0469999999999999","-0.55499999559484514","1.0469999999999999","-0.29399998971727243","1.0469999999999999","SIDE","0.69536667203792879","-0.69637077223865995","0.17757516434070333","5.9872532143980097e-17","-76.582058491675582","-238.70555709607893","119.5892565554752","0.000228030","0.000026936","99"
"100","yellowsaltcube","1.0469999999999999","-0.61799999532756411","1.0469999999999999","-0.41099999201484261","1.0469999999999999","-0.78500000000000048","1.0469999999999999","SIDE","0.68253524254250908","-0.21042301559678844","-0.69990556305446827","-1.2199623060738991e-16","219.42970628890163","-86.825950349130736","106.93892899842926","0.007919258","0.000073519","100"
"101","yellowsaltcube","0.0","-0.80339999461509337","0.94719999999999915","-0.98539999999999961","0.94719999999999971","-0.58839999092241024","0.94719999999999938","SIDE","-2.9135210777050988e-16","0.71448536518288774","-0.13578770808751425","-0.68634711427368555","218.92238101224737","-43.214567507848493","104.04817320800628","0.001034503","0.000031413","101"
"102","yellowsaltcube","1.0469999999999999","-0.55199999545235368","1.046999999999999","-0.44499999362974979","1.046999999999999","-0.78500000000000048","1.0469999999999999","SIDE","-3.125185280946093e-16","0.67611705016432699","-0.19507592704966786","0.71050061024801492","-232.78766129331061","79.806367995439047","110.31939113409416","0.000170475","0.000044908","102"
"103","yellowsaltcube","0.0","0.1306000171512367","0.94719999999999949","-0.48939998947978208","1.0132000031348309","-0.23739998728931011","0.94719999999999949","SIDE","5.1171031300178538e-16","0.13306935517044532","0.70513037129645839","0.69647950880829257","-27.698473259653031","-167.58922496608974","136.52200269197377","0.007137024","0.000028816","103"
"104","yellowsaltcube","1.0469999999999999","-0.78500000000000059","1.046999999999999","-0.56199999592732508","1.0469999999999999","-0.26399999155197301","1.0469999999999999","TOP","5.9452993357841578e-17","-0.18029006949370194","-0.69073318664839534","0.70027362916542069","73.071138385106721","239.01112892257854","116.62219412995159","0.000042176","0.000037769","104"
"105","yellowsaltcube","0.0","0.27060002054125187","0.94719999999999571","-0.42839998984206601","1.4062000087628139","-0.44939999083951032","1.3952000082403451","SIDE","0.50567275565108138","-0.59474520707929435","-0.3672441518127833","0.5056727556510815","149.33522955110678","-29.942483808646191","6.3916862474948841","0.015004725","0.000065060","105"
"106","yellowsaltcube","1.0469999999999999","-0.78500000000000103","1.046999999999999","-0.46899999476968329","1.0469999999999999","-0.53199999450241142","1.046999999999999","SIDE","0.49858548098552069","-0.39861404589988264","0.5864570561534751","-0.49858548098552047","-241.94729263655333","34.781229472115527","113.63610956792584","0.000270739","0.000034136","106"
"107","yellowsaltcube","1.0469999999999999","-0.57299999644980004","1.046999999999999","-0.46999999481719279","1.0469999999999999","-0.78500000000000092","1.0469999999999999","SIDE","0.68253524254250897","-0.21042301559678844","-0.69990556305446816","-1.2199623060738991e-16","223.80471287588153","-82.322802840267514","107.13697373837536","0.000209007","0.000043498","107"
"108","yellowsaltcube","0.0","0.13060001715123651","0.94719999999999815","-0.48439999250192223","1.0452000046547489","-0.2223999865768489","0.94719999999999949","TOP","0.69520479939119828","0.69978625003183825","-0.16428478678752148","-3.3935668013144717e-16","28.365795333097353","161.78469907365744","136.87703810032815","0.008182547","0.000029273","108"
"109","yellowsaltcube","0.0","0.47360002366397241","0.94719999999999427","-0.66639999462720001","1.570796326794897","-0.93239999748264646","1.570796326794897","SIDE","0.52421682845398609","-0.38891950552388416","0.5469324014486121","-0.52421682845398587","-130.0062840308847","11.611181720985714","-1.0785735113058021","0.010434832","0.000023292","109"
"110","yellowsaltcube","0.0","0.45060002257153858","0.94719999999999938","-0.98539999999999994","1.570796326794897","-0.27539998909421398","1.5707963267948959","SIDE","0.51198870539340524","0.36481755234427865","-0.58535739903130835","-0.51198870539340591","134.95313151647156","-27.205989889035621","126.68317855421057","0.000141541","0.000014457","110"
"111","yellowsaltcube","0.0","1.032600030657286","1.570796326794897","-0.1073999843742498","1.570796326794897","-0.98540000000000016","1.570796326794897","SIDE","-0.48357739522225429","0.55869016209009137","0.46922394274361828","-0.48357739522225457","141.02062751982388","9.6419910080915034","16.640821274748387","0.000009069","0.000000009","111"
"112","yellowsaltcube","1.046999999999999","-0.44499999362975401","1.0469999999999979","-0.42599999272729899","1.0469999999999999","-0.78500000000000081","1.0469999999999999","SIDE","0.50096827327526505","-0.41847575434210599","0.56827776779582373","0.50096827327526527","-34.983014482740622","-250.03697013301451","28.460610255437675","0.000054463","0.000043742","112"
"113","yellowsaltcube","0.0","0.1076000193184275","0.94719999999999827","-0.9853999999999995","1.570796326794897","0.01560001494865886","0.94719999999999938","SIDE","5.3139147888646946e-16","0.13306935517044535","0.70513037129645839","0.69647950880829268","-23.081151717568513","-143.12218182760756","135.77887293435188","0.005572132","0.000016326","113"
"114","yellowsaltcube","0.0","-0.102399984136781","0.94719999999999827","-0.98540000000000028","0.94720000000000026","-0.59939999144487777","0.94719999999999971","SIDE","0.50185773553240642","-0.34604765642548163","0.61361930058872993","0.50185773553240676","-77.959594941620495","-226.02361878004191","90.884234302311015","0.000334632","0.000044283","114"
"115","yellowsaltcube","1.0469999999999999","-0.69799999586773076","1.570796326794897","-0.7379999977676196","1.5707963267948959","-0.30699999033473441","1.0469999999999999","SIDE","0.70708583622033905","0.0069809182672347994","-0.0032414831964845334","-0.7070858362203396","-0.65661964557584251","20.017226241823302","-105.14534988131901","0.000948587","0.000037065","115"
"116","yellowsaltcube","1.0469999999999999","-0.55999999583233151","1.046999999999997","-0.4339999931072836","1.0469999999999999","-0.78500000000000036","1.0469999999999999","SIDE","-3.868790728435307e-17","0.65981397142602971","-0.22349600185257923","0.71742251168117255","-228.48714490895918","92.059649307357347","106.02787598136322","0.001387367","0.000035460","116"
"117","yellowsaltcube","1.0469999999999999","-0.78500000000000103","1.0469999999999999","-0.49499999274498691","1.046999999999997","-0.49099999255501459","1.046999999999999","SIDE","0.49858548098552069","-0.39861404589988259","0.5864570561534751","-0.49858548098552047","-241.64437052562042","40.106761333423322","113.64006461899383","0.000004640","0.000041946","117"
"118","yellowsaltcube","1.0469999999999999","-0.55599999564234892","1.046999999999999","-0.46899999476969217","1.0469999999999999","-0.78500000000000092","1.0469999999999999","SIDE","0.66858571386296717","-0.17101655624596818","-0.72370330986400522","-4.1513862830335137e-17","223.84255197378158","-65.465422412783226","134.97747612220047","0.000927287","0.000033210","118"
"119","yellowsaltcube","0.0","0.27260002063625738","0.94719999999999815","-0.98539999999999983","1.5707963267948959","-0.091399983614306499","1.50620001025293","SIDE","0.51738068111858537","-0.35441534418796111","0.58225786848669225","-0.51738068111858571","-136.45337729613135","42.09793717573077","1.0120013680716629","0.008357096","0.000024445","119"
"120","yellowsaltcube","0.0","0.1856000197635988","0.94719999999999849","-0.31439998768697508","1.1712000041201709","-0.45339999102950612","1.275200005800273","SIDE","0.52421682845398598","-0.38891950552388405","0.54693240144861222","-0.52421682845398587","-154.44744388232803","15.737922735361961","-3.5499726527769888","0.013797852","0.000044112","120"
"121","yellowsaltcube","0.0","0.54360002372917127","0.94719999999999815","-0.92939999734014078","1.570796326794897","-0.98139999981001103","1.5707963267948959","SIDE","0.50567275565108127","-0.59474520707929435","-0.36724415181278325","0.50567275565108138","125.10020037601099","-24.211136927534309","6.9601260513798211","0.004453154","0.000017108","121"
"122","yellowsaltcube","0.0","0.40160002350378082","0.94719999999999793","-0.9854000000000005","1.570796326794897","-0.57339999346956716","1.570796326794897","SIDE","0.5112677960378097","0.36487333508711178","-0.58658156364796255","-0.51126779603781025","130.32186178681948","-31.708204056140477","127.19160923853728","0.000118317","0.000016261","122"
"123","yellowsaltcube","1.0469999999999999","-0.78500000000000092","1.0469999999999999","-0.50599999326747114","1.046999999999999","-0.49199999260250271","1.0469999999999999","SIDE","-0.48085211717322146","0.61495387764589449","0.39924204586734008","-0.48085211717322174","231.93724065223213","-45.324575251801221","128.63278437528894","0.000007038","0.000053408","123"
"124","yellowsaltcube","0.0","0.09960001893843988","0.94719999999999849","-0.4793999922644348","1.570796326794897","-0.46639999164696871","1.570796326794897","SIDE","0.75133726051384586","-0.64683520030066077","0.13075375564607433","1.2929548387932105e-16","-22.547425588375155","-133.93873883372996","-4.0695531156591409","0.011643418","0.000025187","124"
"125","yellowsaltcube","0.0","0.29860002187117701","0.94719999999999793","-0.44739999074451542","1.35620000638794","-0.42139998950957608","1.3532000062454479","SIDE","0.5112677960378097","0.36487333508711201","-0.58658156364796266","-0.51126779603781014","146.92898688377133","-40.200959308537008","126.36571709118272","0.015959741","0.000061017","125"
"126","yellowsaltcube","1.0469999999999999","-0.37999999380204952","1.046999999999997","-0.66099999736994763","1.0469999999999999","-0.78500000000000092","1.0469999999999999","SIDE","3.8934561034213358e-17","0.68814441999390097","-0.13513998063429594","0.7128775791574733","-243.64019906286859","36.307695452838956","88.838164328165774","0.000001625","0.000052685","126"
"127","yellowsaltcube","0.0","0.31560001941900517","1.570796326794897","-0.89739999582022034","1.570796326794897","-0.83339999604001891","1.570796326794897","SIDE","0.536001311606918","-0.34309513916289125","0.55469893942040616","-0.53600131160691822","-125.63349717872573","22.869619878613026","-6.0868279642729117","0.005734074","0.000022300","127"
"128","yellowsaltcube","0.0","-0.5553999926146107","1.439200010330234","-0.38539998779967521","1.5032000101104319","-0.79739999433010944","0.94719999999999971","SIDE","9.2398268377430916e-17","0.90117194087184183","-0.20772560651293037","0.38044606107057133","-110.19807411323173","39.614257019623089","233.81562991852033","0.009045288","0.000164713","128"
"129","yellowsaltcube","1.0469999999999999","-0.43199999301228598","1.0469999999999999","-0.63199999599252332","1.0469999999999999","-0.7850000000000007","1.0469999999999999","SIDE","0.68634711427368522","-0.13578770808751423","-0.71448536518288819","-2.4263736268492163e-16","235.01343500855819","-40.890636939011017","104.9391445175722","0.000057555","0.000056686","129"
"130","yellowsaltcube","1.0469999999999999","-0.78500000000000092","1.0469999999999999","-0.44099999343974661","1.0469999999999999","-0.53599999469239024","1.0469999999999999","SIDE","0.50530840346424855","0.61629829329351149","0.33091275052546609","0.50530840346424832","-232.30827228371152","80.792584831790847","24.635551115731243","0.000061192","0.000051660","130"
"131","yellowsaltcube","0.0","1.0326000306572749","1.570796326794897","-0.98540000000000016","1.570796326794897","-0.1003999840417758","1.5707963267948959","SIDE","0.49818982123482319","-0.29172561796742214","0.64692346367832076","-0.49818982123482314","-129.00766904167401","60.19373901419889","10.139874866422282","0.000036906","0.000000033","131"
"132","yellowsaltcube","0.0","0.025600015423632511","0.9471999999999986","-0.2283999868618303","0.94719999999999949","-0.45039999088701121","1.084200003247515","TOP","0.7031912211261826","0.69024385549195244","-0.17054479319719168","-1.9735439509026789e-16","49.150187962055931","153.68133835928009","133.85642958463873","0.007289023","0.000033345","132"
"133","yellowsaltcube","1.0469999999999999","-0.78500000000000114","1.046999999999999","-0.53299999454990077","1.0469999999999999","-0.44999999386724598","1.0469999999999999","SIDE","-0.48085211717322135","0.61495387764589438","0.39924204586734002","-0.48085211717322174","231.5151790482432","-50.664204684739161","128.68537185451862","0.000038935","0.000044032","133"
"134","yellowsaltcube","0.0","0.22860001854635709","0.94719999999999915","-0.98540000000000016","1.570796326794897","-0.01439998321662816","1.3682000069579121","SIDE","0.49917844024381508","0.59231821455691147","0.38833091854192686","0.49917844024381458","-146.56718404462697","18.601996198090646","132.80640545149518","0.006380549","0.000016923","134"
"135","yellowsaltcube","1.0469999999999999","-0.78500000000000036","1.046999999999999","-0.49999999298249098","1.0469999999999999","-0.33699999175966078","1.0469999999999999","SIDE","2.7423511121101073e-16","0.105926019548522","0.69774010686344012","0.70847612638451074","-34.62279339140035","-247.66417538591227","28.469914679971733","0.000097784","0.000029861","135"
"136","yellowsaltcube","1.0469999999999999","-0.58399999697227167","1.0469999999999979","-0.35099999242461871","1.046999999999999","-0.60499999471008792","1.0469999999999999","SIDE","-0.49632329734859026","0.5683758766744883","0.42927291066703999","-0.49632329734859054","176.20046077244879","-1.498539391143743","94.6383410052063","0.007833941","0.000029673","136"
"137","yellowsaltcube","5.5511151231257827e-16","-0.1243999851817323","0.94719999999999849","-0.98539999999999994","0.94719999999999938","-0.61139999201484452","0.94719999999999915","SIDE","-1.1896851695748962e-16","0.69990556305446761","-0.21042301559678855","-0.68253524254250952","207.86911871865181","-83.350319025404318","106.11260441609683","0.003659805","0.000029137","137"
"138","yellowsaltcube","1.0469999999999999","-0.30799999038224468","1.046999999999999","-0.107999987401996","1.0469999999999999","-0.78500000000000092","1.570796326794897","SIDE","1.9867030999105018e-16","0.16192857729950111","0.69853355584131493","0.69701506957701298","-58.098802574653256","-143.84178872556865","135.8514122303184","0.000001885","0.000000005","138"
"139","yellowsaltcube","1.0469999999999999","-0.78500000000000081","1.0469999999999999","-0.57799999668728508","1.0469999999999999","-0.34199999199714498","1.0469999999999999","SIDE","0.50239979954355152","-0.34014744018396814","0.61602646191011323","-0.50239979954355174","-233.74842450674313","80.083571143165472","110.30976889916857","0.000037597","0.000041192","139"
"140","yellowsaltcube","1.0469999999999999","-0.46999999481718652","1.0469999999999999","-0.53099999445491675","1.0469999999999999","-0.78500000000000036","1.046999999999999","SIDE","0.68002758560218624","-0.15253129903278759","-0.71714481496796134","-1.836691524208199e-16","231.51517904823544","-50.664204684738529","128.68537185451834","0.000002823","0.000050687","140"
"141","yellowsaltcube","1.0469999999999999","-0.7850000000000007","1.046999999999999","-0.50499999321997646","1.046999999999999","-0.31599999076220991","1.0469999999999999","TOP","0.71127293169573358","0.70044362501490287","-0.05890284214652311","-2.536455887214386e-16","15.722752991107546","245.97786382964981","26.783764468279951","0.000023072","0.000028536","141"
"142","yellowsaltcube","1.0469999999999999","-0.7850000000000007","1.0469999999999999","-0.59099999404512904","1.046999999999997","-0.49199999260252048","1.0469999999999999","SIDE","-0.48532069875074102","0.60123385596982737","0.40920103758890619","-0.4853206987507413","235.3076660080682","-40.946555443457498","104.95650110189055","0.000378054","0.000033789","142"
"143","yellowsaltcube","0.0","0.06860001746602909","0.94719999999999938","-0.2303999869568247","0.94719999999999949","-0.57639999361206185","1.028200003847292","SIDE","-0.49453908445407629","-0.39375918117594788","0.59650305542745918","0.4945390844540769","157.69296756357122","-55.109973764960387","135.59667642745495","0.008481641","0.000028771","143"
"144","yellowsaltcube","1.0469999999999999","-0.78500000000000103","1.0469999999999999","-0.62699999575503229","1.046999999999999","-0.28299999245442481","1.0469999999999999","SIDE","0.7097340159717791","-0.67858701298540813","0.18920172404106661","1.9553505250573016e-16","-81.826942599050341","-239.89416836584607","90.777029943337311","0.000083279","0.000045683","144"
"145","yellowsaltcube","0.0","0.49160002451893292","0.94719999999999815","-0.9853999999999995","1.5707963267948959","-0.92439999710265497","1.570796326794897","SIDE","0.51126779603780959","0.36487333508711184","-0.58658156364796255","-0.51126779603781025","122.69413511332735","-34.553748849477756","127.50109090438313","0.005182976","0.000011898","145"
"146","yellowsaltcube","0.0","0.2376000189738304","0.94719999999999815","-0.075399986113980341","1.3772000073853861","-0.98539999999999994","1.5707963267948959","SIDE","-0.49453908445407618","-0.39375918117594788","0.59650305542745918","0.4945390844540769","133.29494877898088","-50.114782926000828","135.05552222654364","0.009956520","0.000037858","146"
"147","yellowsaltcube","0.0","0.031600015708615287","0.94719999999999904","-0.4083999888921081","1.3052000072251979","-0.39739998836964868","1.2502000046128401","SIDE","0.53600131160691811","-0.34309513916289136","0.55469893942040616","-0.53600131160691811","-149.60781797774339","28.520200017958594","-9.8031415025305755","0.013524102","0.000055726","147"
"148","yellowsaltcube","1.0469999999999999","-0.56999999630730513","1.046999999999997","-0.35899999280460498","1.046999999999999","-0.1739999905368321","1.046999999999999","SIDE","0.66522563141811619","-0.23437266803006068","-0.70890359837204919","-1.6689420434062393e-16","160.43166919597726","-74.660036076839248","26.688447060775335","0.002794873","0.000010197","148"
"149","yellowsaltcube","1.046999999999999","-0.49799999288749047","1.046999999999995","-0.40499999172985818","1.0469999999999999","-0.7850000000000007","1.0469999999999999","SIDE","0.50185773553240609","-0.61361930058873004","-0.34604765642548202","-0.50185773553240653","-79.866412145001533","-232.86257015275925","90.831376598771101","0.007039715","0.000019758","149"
"150","yellowsaltcube","0.0","-0.07239998597148746","0.94719999999999827","-0.32639998825694888","0.94720000000000126","-0.29539998678453189","0.94719999999999971","SIDE","0.75133726051384586","-0.64683520030066077","0.1307537556460743","1.1082470046798947e-16","-27.441750786483706","-158.15082975388955","-7.2833256852551651","0.004468247","0.000009837","150"
"151","yellowsaltcube","0.0","-0.064399985591509251","0.94719999999999815","-0.2173999863393615","0.94719999999999938","-0.50139999004975488","0.94719999999999949","SIDE","1.7880327899194516e-16","0.16192857729950105","0.69853355584131493","0.69701506957701298","-62.27712625845718","-161.86639777839102","136.37598536104889","0.006121015","0.000006502","151"
"152","yellowsaltcube","1.0469999999999999","-0.25899999131448692","1.0469999999999979","-0.27399999202694753","1.0469999999999999","-0.5529999954998539","1.0469999999999999","SIDE","1.7880327899194516e-16","0.16192857729950103","0.69853355584131482","0.69701506957701298","-63.721819504756184","-168.09856956219423","136.5573612707451","0.002265976","0.000006080","152"
"153","yellowsaltcube","1.0469999999999999","-0.78500000000000036","1.0469999999999999","-0.64599999665747898","1.0469999999999999","-0.44999999386724171","1.0469999999999999","SIDE","-0.48532069875074091","0.60123385596982737","0.40920103758890619","-0.4853206987507413","234.61470066642124","-46.196887684369493","104.97385768621078","0.000245235","0.000093982","153"
"154","yellowsaltcube","0.0","0.12760001700874499","0.94719999999999938","-0.01139998307414531","0.94719999999999949","-0.98540000000000016","1.570796326794897","SIDE","1.9867030999105018e-16","0.16192857729950111","0.69853355584131493","0.69701506957701298","-56.654109328355354","-137.60961694176518","135.67003632062193","0.006839542","0.000025912","154"
"155","yellowsaltcube","0.0","-0.57239999342206493","0.94719999999999949","-0.87839999817740089","0.94719999999999938","-0.77839999668728765","0.94719999999999938","SIDE","-3.8292169671280853e-17","0.6750168184697295","-0.13770924713543928","0.72483684925395087","-186.85757938314353","31.802640864228792","64.188194857588229","0.003953355","0.000040719","155"
"156","yellowsaltcube","1.0469999999999999","-0.33199999152216669","1.046999999999999","-0.28499998928977949","1.047000000000001","-0.42799999282229639","1.0469999999999999","TOP","0.79701247962844823","0.56085443487220088","-0.2240834893531797","-2.7859614573230301e-16","96.694205903842274","225.38195606561277","-50.409030298202921","0.000096392","0.000004390","156"
"157","yellowsaltcube","1.0469999999999999","-0.42699999277479778","1.0469999999999959","-0.5609999958798273","1.0469999999999999","-0.7850000000000007","1.0469999999999999","SIDE","0.68002758560218624","-0.15253129903278762","-0.71714481496796134","-1.836691524208199e-16","232.71752591219135","-45.490536047772331","128.6928843515513","0.000303502","0.000046612","157"
"158","yellowsaltcube","1.0469999999999999","-0.42399999263230809","1.046999999999997","-0.43099999296478869","1.046999999999999","-0.78500000000000125","1.570796326794897","SIDE","0.0091443776307193973","-0.50491448205227696","0.86307249204766945","-0.0091443776307193452","-4.8886666581220792","-5.0217577788582171","253.45397111581059","0.008571528","0.000055541","158"
"159","yellowsaltcube","0.0","0.28760002134870871","0.94719999999999793","-0.32039998797196723","1.570796326794897","-0.98539999999999983","1.5707963267948959","SIDE","0.50239979954355118","0.61602646191011368","0.34014744018396803","0.50239979954355163","-132.87644415114144","50.921801319231427","131.32202796768166","0.004160673","0.000011183","159"
"160","yellowsaltcube","1.0469999999999999","-0.78500000000000025","1.046999999999999","-0.62199999551753782","1.046999999999999","-0.33799999180715767","1.0469999999999999","SIDE","1.1654150131384544e-16","0.12118533747369731","0.68907948976172295","0.7144813298968069","-39.404052311348011","-245.73642372325043","44.800323633120129","0.000103648","0.000023950","160"
"161","yellowsaltcube","1.0469999999999999","-0.38099999384954569","1.046999999999999","-0.58499999376013923","1.046999999999999","-0.7850000000000007","1.0469999999999999","SIDE","1.3777285478036219e-16","0.69655045621283507","-0.13282506634880945","0.70510634921203608","-243.32249074017838","35.043465721800004","113.64401967006272","0.000205811","0.000049045","161"
"162","yellowsaltcube","0.0","0.052600016706061237","0.94719999999999882","-0.25339998804927122","0.94719999999999938","-0.52539999118968383","1.147200006239852","SIDE","0.50239979954355141","0.61602646191011357","0.34014744018396803","0.50239979954355152","-156.80905430437011","57.826931298167999","131.08233811063096","0.009098615","0.000028861","162"
"163","yellowsaltcube","1.4224732503009821e-16","-0.33039998844693591","1.3622000066729241","-0.47939999226443603","1.1842000047376411","-0.253399988049268","0.94719999999999971","TOP","-3.8513302503302541e-17","0.30670536936286624","0.72067503463897586","-0.62173894107744188","68.854444777451391","147.87760213436161","59.664778081617101","0.011037337","0.000062574","163"
"164","yellowsaltcube","0.0","-0.22839998686183699","0.94719999999999727","-0.39539998827464962","0.99320000218487592","-0.85039999684747514","1.570796326794897","SIDE","0.001359313774408613","0.37419022008736907","0.92734997909262473","0.0013593137744086379","-2.5483531242156268","19.303077429158822","250.52561302898991","0.004535159","0.000119874","164"
"165","yellowsaltcube","0.0","-0.50239999009726688","0.94719999999999904","-0.98540000000000028","1.117200004814944","-0.82439999561254484","1.1282000053374071","SIDE","0.68607393989275389","-0.16800983163045136","-0.7078666862309182","-2.6296180485996822e-16","161.8771746661229","-33.271552730128228","80.735393316636646","0.011089643","0.000228314","165"
"166","yellowsaltcube","1.0469999999999999","-0.42399999263230082","1.0469999999999979","-0.55399999554734902","1.0469999999999999","-0.78500000000000059","1.0469999999999999","SIDE","1.574546911775568e-16","0.69655045621283507","-0.13282506634880945","0.70510634921203608","-242.23374114145616","40.219148297570854","113.64345466276754","0.000454453","0.000061140","166"
"167","yellowsaltcube","0.0","0.24560001935381401","0.94719999999999815","-0.12539998522922291","1.5707963267948959","-0.98539999999999983","1.5707963267948959","SIDE","0.50239979954355152","0.61602646191011357","0.34014744018396792","0.50239979954355152","-134.3070038660035","55.342146740169049","131.29701015687374","0.004877074","0.000015246","167"
"168","yellowsaltcube","1.047000000000001","-0.39699999134987118","1.046999999999999","-0.46899999476969029","1.0820000016624141","-0.78500000000000092","1.5707963267948959","SIDE","0.70709594586600277","0.0043671595060749292","-0.0034021460248104371","-0.707095945866003","-0.97687467764151037","-5.5836557405651241","-108.97217686155651","0.009248984","0.000093732","168"
"169","yellowsaltcube","0.0","0.030600015661124271","0.94719999999999882","-0.23539998719430161","0.94719999999999949","-0.56339999299459531","1.09820000391248","SIDE","0.50239979954355163","0.61602646191011357","0.34014744018396792","0.50239979954355141","-158.23961401923208","62.247276719104718","131.05732029982309","0.010295523","0.000033067","169"
"170","yellowsaltcube","1.0469999999999999","-0.78500000000000092","1.0469999999999999","-0.71799999681767612","1.0469999999999999","-0.34899999232962359","1.046999999999999","SIDE","-0.48262529840061347","0.64369951107221457","0.34611642857979119","-0.48262529840061336","223.90025492447973","-82.351527066856249","107.14380286734131","0.000147145","0.000059233","170"
"171","yellowsaltcube","1.0469999999999999","-0.78500000000000048","1.046999999999999","-0.53999999488238548","1.0469999999999999","-0.4049999917298629","1.0469999999999999","SIDE","0.5094657422968446","0.57405888206542899","0.38903176576423626","0.50946574229684505","-239.91312199547585","40.295721084534904","21.029682753630698","0.000021496","0.000045501","171"
"172","yellowsaltcube","1.0469999999999999","-0.78500000000000048","1.0469999999999999","-0.59399999418760352","1.046999999999999","-0.36499999308958542","1.0469999999999999","SIDE","-0.47276149207695284","0.63266248458868191","0.39080855135529224","-0.47276149207695289","224.80059026234653","-65.691814093777623","135.08240255172285","0.000550191","0.000068059","172"
"173","yellowsaltcube","1.0469999999999999","-0.33899999185465118","1.0469999999999999","-0.55099999540485511","1.0469999999999999","-0.78500000000000081","1.0469999999999999","SIDE","0.71461399736023623","0.2017980525438883","0.66977935229918695","-1.5535982064811055e-16","-231.82963855354944","80.648377109806106","24.646224281623709","0.000044905","0.000030873","173"
"174","yellowsaltcube","1.0469999999999999","-0.51499999369494698","1.0469999999999999","-0.47199999491218619","1.0469999999999999","-0.78500000000000092","1.0469999999999999","SIDE","2.1564296701971505e-16","-0.69165772068037967","0.14308736417226023","0.70790931879546326","236.01126131542162","-44.15267034768835","28.819081226006414","0.000006310","0.000039422","174"
"175","yellowsaltcube","1.046999999999999","-0.24799999079200821","1.046999999999997","-0.34199999199714348","1.046999999999999","-0.61399999513757908","1.0469999999999999","SIDE","-0.49453908445407629","-0.39375918117594794","0.59650305542745918","0.4945390844540769","166.70387799598728","-56.954845581811362","135.7965406901065","0.005576534","0.000020491","175"
"176","yellowsaltcube","0.0","-0.6013999915398599","0.96420000080745549","-0.45539999112449409","0.94719999999999949","-0.31339998763948701","0.94719999999999949","SIDE","-0.48532069875074096","0.60123385596982748","0.40920103758890619","-0.48532069875074146","164.20522529792422","-32.815590104565686","100.82042722446126","0.010990911","0.000079981","176"
"177","yellowsaltcube","0.0","-0.1293999854192158","0.94719999999999793","-0.24139998747929919","0.94719999999999949","-0.42239998955707858","1.0532000017750991","SIDE","3.0835277555263716e-16","0.18513679288430404","0.72009925815351494","0.66871625247729083","-54.639153543145611","-151.53905548924868","146.00955628225921","0.010564426","0.000038930","177"
"178","yellowsaltcube","1.046999999999999","-0.41499999220483008","1.0469999999999939","-0.78500000000000048","1.5707963267948959","-0.43999999339226809","1.046999999999999","SIDE","5.4696952639756558e-17","0.96731286596093802","-0.25325595760402142","0.012932102864824381","-4.878659145909622","-5.024377884697329","253.05410488228625","0.003444533","0.000039316","178"
"179","yellowsaltcube","0.0","-0.26739998871422888","0.94719999999999915","-0.98540000000000028","1.5707963267948959","-0.79439999418762242","1.5707963267948959","SIDE","0.50034385811320847","-0.024310758593376464","0.70620183680969983","0.50034385811320847","-111.40755058103809","-113.30068145992541","49.143229735515213","0.001062872","0.000061401","179"
"180","yellowsaltcube","0.0","0.1366000174362203","0.94719999999999938","-0.98540000000000016","1.5707963267948959","0.021600015233642491","1.1282000053373999","TOP","0.69520479939119839","0.69978625003183814","-0.16428478678752145","-3.3935668013144717e-16","22.675774804019181","137.54753015187504","136.04552800679858","0.006018726","0.000023794","180"
"181","yellowsaltcube","1.110223024625157e-16","-0.98539999999999994","1.570796326794897","1.0986000337921169","1.570796326794897","-0.44639999069702019","1.006200002802353","SIDE","0.70705746302972505","-0.0096406926188081863","-0.0068223891538849307","0.70705746302972527","20.58880578132139","-1.0110099344800811","-118.26210335260582","0.002139262","0.000028338","181"
"182","yellowsaltcube","0.0","-0.98540000000000016","1.570796326794897","-0.66639999462720045","1.3932000081453459","-0.14539998617917521","0.94719999999999949","SIDE","0.70973401597177921","-0.67858701298540791","0.18920172404106658","2.3464206300687609e-16","-57.253171657619362","-151.75838680545192","91.458224290128598","0.008003404","0.000054170","182"
"183","yellowsaltcube","0.0","-0.98540000000000016","1.570796326794897","-0.72539999416991374","1.5707963267948959","-0.59839999139738465","1.570796326794897","SIDE","-0.48532069875074096","0.60123385596982748","0.40920103758890619","-0.48532069875074146","137.23067082979611","-22.307054845770448","99.170973270042651","0.002398402","0.000028110","183"
"184","yellowsaltcube","0.0","-0.98540000000000016","1.5707963267948959","1.098600033792114","1.570796326794895","-0.41939998941458712","0.94820000004749583","SIDE","0.70700539203894264","0.011932937712161093","-0.012014834717089197","-0.70700539203894308","-18.72240285639306","-0.55183112111550303","-120.07482151251084","0.003927318","0.000057000","184"
"185","yellowsaltcube","0.0","-0.75539999559484505","0.94719999999999904","-0.98540000000000016","0.94720000000000004","-0.57239999342207171","0.94719999999999993","SIDE","0.49991195073307437","-0.40014316331596456","0.5831479502493323","0.49991195073307448","-39.608735767172135","-234.24309358549175","92.486105004610593","0.003689444","0.000062612","185"
"186","yellowsaltcube","0.0","-0.55739999270961105","1.036200004227273","-0.37439999053683282","0.94719999999999971","-0.34239998901691382","0.94719999999999949","SIDE","-0.48532069875074091","0.60123385596982737","0.40920103758890619","-0.4853206987507413","161.66164996465415","-26.950154375467495","100.61214823148079","0.009256403","0.000061298","186"
"187","yellowsaltcube","1.0469999999999999","-0.78500000000000048","1.0469999999999999","-0.51299999359994153","1.046999999999999","-0.44999999386724349","1.047000000000001","SIDE","0.50056747978542138","0.38789781904481346","-0.59025391006144179","-0.5005674797854216","234.64288455874151","-49.286308353256693","28.819762588231068","0.000028434","0.000045507","187"
"188","yellowsaltcube","0.0","-0.52939999137967764","0.94719999999999882","-0.23539998719430849","0.94719999999999938","-0.57039999332707714","1.0942000037224859","SIDE","-0.493155489541448","-0.27867529249041967","0.66025404779194508","0.4931554895414485","148.64278890924101","-78.949038012618459","53.152807745561624","0.006007215","0.000059316","188"
"189","yellowsaltcube","1.0469999999999999","-0.47299999495968048","1.0469999999999999","-0.50299999312498178","1.0469999999999999","-0.78500000000000092","1.0469999999999999","SIDE","2.1564296701971505e-16","-0.69165772068037956","0.1430873641722602","0.70790931879546337","235.03458933989168","-49.36734266111511","28.818854105264673","0.000001418","0.000038537","189"
"190","yellowsaltcube","0.0","-0.98539999999999994","1.5707963267948959","-0.3803999908218158","1.5667963298645391","-0.52439999114220059","1.570796326794897","SIDE","0.70698226071910408","-0.69529181428249331","0.12940392583018337","1.1777767487714942e-16","-22.061667031703617","-139.96208025337307","92.452332279309374","0.006975952","0.000052089","190"
"191","yellowsaltcube","0.0","-0.53739999175966302","0.94719999999999815","-0.29639998683202878","0.94719999999999949","-0.47539999207444589","0.98120000161491594","SIDE","0.5048235142972638","0.62961200739799994","0.30642316975937234","0.50482351429726402","-157.44379122659333","65.960715743729565","55.098690650514023","0.013187668","0.000143979","191"
"192","yellowsaltcube","0.0","-0.98539999999999994","1.570796326794897","-0.55739999270960672","1.570796326794897","-0.54239999199715272","1.570796326794897","SIDE","0.51553663191037136","-0.36720421264166414","0.57758551620970899","-0.51553663191037158","-145.11759993933114","25.424997806421363","84.860170966619691","0.000077266","0.000017612","192"
"193","yellowsaltcube","0.0","-0.48239999240692699","0.94720000000000026","-0.082399986446465068","1.570796326794897","-0.98540000000000016","1.570796326794897","SIDE","0.65912987888809449","0.18186048702721272","-0.31308524202229093","-0.65912987888809471","93.17251479958432","-45.709086598250416","-83.47003057632773","0.003428551","0.000027062","193"
"194","yellowsaltcube","1.0469999999999999","-0.59799999437762963","1.501000008525319","-0.1379999888269256","1.046999999999997","-0.78500000000000103","1.570796326794897","SIDE","-0.49632329734859026","0.5683758766744883","0.42927291066703999","-0.49632329734859054","151.53177212642186","1.9410355391485603","94.273341300727125","0.008394092","0.000111096","194"
"195","yellowsaltcube","1.046999999999999","-0.22199998955706979","1.0469999999999999","-0.36699999318458137","1.0469999999999999","-0.57399999649729516","1.0469999999999999","SIDE","0.50239979954355152","0.61602646191011357","0.34014744018396803","0.50239979954355141","-166.50217734157511","64.631223699172907","130.97456908259588","0.003226237","0.000014370","195"
"196","yellowsaltcube","1.0469999999999999","-0.38699999087489229","1.046999999999999","-0.78500000000000025","1.5707963267948959","-0.45399999405723279","1.066000000902448","SIDE","-0.018534868514315066","0.75962092380128365","-0.64983764851045567","0.018534868514314705","-28.837508730824361","-1.0104263911433198","260.57503753818287","0.004668310","0.000128086","196"
"197","yellowsaltcube","0.0","-0.376399990631828","0.94719999999999938","-0.68639999231752702","0.94720000000000004","-0.98540000000000016","0.94719999999999949","SIDE","3.8934561034213358e-17","0.68814441999390097","-0.13513998063429594","0.7128775791574733","-197.02692772200115","27.153633597109014","89.616800304334788","0.006019799","0.000039289","197"
"198","yellowsaltcube","0.0","-0.53639999171216357","0.95020000014249029","-0.29439998673704598","0.94719999999999949","-0.47639999212194117","0.98720000189989854","SIDE","0.50482351429726391","0.62961200739799983","0.30642316975937245","0.50482351429726402","-157.07931373643146","65.895454409738463","46.549261912868694","0.008072076","0.000117062","198"
"199","yellowsaltcube","0.0","-0.98540000000000028","1.570796326794897","-0.79239999409261863","1.570796326794897","-0.084399986541457639","0.94720000000000026","TOP","0.0","0.23522573227073887","0.70058578697359331","-0.67368272203485058","55.854654554892491","140.92199456986498","103.48951404925968","0.012008028","0.000050250","199"
"200","yellowsaltcube","0.0","-0.53039999142717742","0.94719999999999915","-0.29239998664203309","0.94719999999999938","-0.40139998855963771","0.94719999999999949","SIDE","1.5622521916054069e-16","0.23092756500490508","0.66456098279432496","0.7106554438462751","-68.099171627286523","-158.88312202783604","47.918443081170757","0.000716916","0.000010564","200"
"201","yellowsaltcube","1.0469999999999999","-0.5379999947873898","1.2440000060973611","-0.78500000000000092","1.570796326794897","-0.39699999134987851","1.046999999999999","SIDE","0.012932102864824711","0.25325595760402148","0.96731286596093802","2.1071776836627529e-17","-4.8661497556424296","0.16676071946947577","252.52023597556871","0.008267684","0.000093454","201"
"202","yellowsaltcube","1.0469999999999999","-0.29399998971726599","1.048000000047496","-0.1529999895393874","1.109000002944831","-0.78500000000000059","1.570796326794897","SIDE","-0.49453908445407618","-0.39375918117594794","0.59650305542745918","0.4945390844540769","142.30585921139786","-51.959654742851704","135.25538648919519","0.007152788","0.000009927","202"
"203","yellowsaltcube","0.0","-0.9853999999999995","1.570796326794897","-0.24539998766928309","1.570796326794897","-0.80839999485258107","1.570796326794897","SIDE","0.5048235142972638","0.62961200739799994","0.3064231697593725","0.50482351429726424","-133.53774121668326","57.767155768283189","47.032195130601174","0.000219056","0.000012470","203"
"204","yellowsaltcube","3.3306690738754691e-16","-0.79739999433011366","1.331200008460127","-0.98539999999999961","1.18620000483263","-0.76539999606981901","1.029200003894793","SIDE","0.50137664572842067","-0.62680339189886936","-0.32304864361316832","-0.50137664572842067","-65.198499551658742","-160.99744686687291","71.645987502080644","0.013075535","0.000287044","204"
"205","yellowsaltcube","1.0469999999999999","-0.49499999274500539","1.0469999999999999","-0.41699999229982648","1.0469999999999999","-0.78500000000000036","1.0469999999999999","TOP","-0.47636562111905445","-0.32905925037373085","0.66171867117015304","-0.47636562111905473","82.730744798723265","220.96853817069351","111.31682379871938","0.006625508","0.000021272","205"
"206","yellowsaltcube","0.0","-0.52439999114220093","1.001200002564862","-0.28639998635706121","0.94719999999999949","-0.47939999226443331","1.0182000033723291","SIDE","0.50475252321401598","0.62014705771183765","0.32537272078267293","0.50475252321401598","-157.45294536839501","60.940317181064103","46.612977515451568","0.010114696","0.000113194","206"
"207","yellowsaltcube","1.0469999999999999","-0.6769999981299063","1.046999999999999","-0.2939999897172621","1.0469999999999999","-0.25599999117200067","1.0470000000000019","SIDE","2.1670516719667786e-16","-0.69281100978009524","0.15420111836694481","0.70443943658902863","182.24453310193309","-15.667420435056489","133.63168229288121","0.003855050","0.000007986","207"
"208","yellowsaltcube","0.0","-0.98540000000000016","1.570796326794897","-0.1173999848492483","1.563796329722043","-0.90539999620020373","1.5707963267948959","SIDE","-0.493155489541448","-0.27867529249041961","0.66025404779194508","0.49315548954144844","125.65757472369459","-69.607899075984449","52.477935749505299","0.004407674","0.000102374","208"
"209","yellowsaltcube","1.0469999999999999","-0.78500000000000103","1.392000006607736","-0.1199999879719799","1.0469999999999999","-0.30399999019224638","1.0480000000474969","SIDE","2.1670516719667786e-16","-0.69281100978009524","0.15420111836694481","0.70443943658902863","157.93021104385576","-10.255705550675431","133.44410599840674","0.008890983","0.000023605","209"
"210","yellowsaltcube","0.0","-0.63439999310728146","0.973200001234933","-0.50239999009724579","0.94719999999999938","-0.28639998635705588","0.94720000000000337","SIDE","0.50759284007597782","0.57067686517807426","0.39878181121727674","0.50759284007597771","-171.61438169996777","24.904904897296785","44.84628288931971","0.008983390","0.000081785","210"
"211","yellowsaltcube","0.0","-0.98540000000000028","1.570796326794897","-0.78239999687727635","1.5707963267948959","-0.16139998693913479","1.4282000098077661","SIDE","0.50759284007597782","0.57067686517807426","0.39878181121727663","0.50759284007597771","-147.18702005741744","20.573680937057279","45.605823665226112","0.010981961","0.000085791","211"
"212","yellowsaltcube","1.0469999999999999","-0.4699999948171909","1.0469999999999999","-0.70799999634269706","1.5707963267948959","-0.56199999592732564","1.355000004850329","SIDE","0.7065862541410568","0.01859690653050465","-0.033554224552436805","-0.70658625414105691","5.540384409052642","-2.7506317144640136","-104.52161202482691","0.009888335","0.000182428","212"
"213","yellowsaltcube","0.0","-0.98539999999999994","1.570796326794897","-0.73239999450240245","1.570796326794897","-0.1063999843267754","0.94719999999999938","SIDE","1.1654150131384544e-16","0.12118533747369727","0.68907948976172295","0.71448132989680668","-22.606627835775374","-150.2235429718929","46.834136390033883","0.006437122","0.000036264","213"
"214","yellowsaltcube","0.0","-0.4953999897647729","1.0862000033425181","-0.2973999868795219","0.94719999999999938","-0.42839998984207073","1.039200004369766","SIDE","0.50408057037809961","-0.39103318909744156","0.58214998252930017","-0.50408057037809928","-165.35619714123581","20.934035220643565","90.145833549858622","0.014267434","0.000133209","214"
"215","yellowsaltcube","0.0","-0.48439999250192239","0.99220000213738246","-0.33039998844694157","0.94719999999999949","-0.32539998820945237","0.94719999999999938","SIDE","0.70698226071910419","-0.69529181428249331","0.1294039258301834","1.3740728735667435e-16","-26.619513502765823","-164.45154857325042","92.461104735789476","0.009411714","0.000076583","215"
"216","yellowsaltcube","0.0","-0.020399983501621501","0.94719999999999827","-0.75639999564234384","1.570796326794897","-0.93239999748264002","0.94719999999999949","SIDE","1.4143531149219304e-16","-0.34997948133022372","0.092789914116562899","0.93215041408887889","80.97790603434953","-42.475935055449696","-69.680384484835201","0.007322872","0.000136543","216"
"217","yellowsaltcube","0.0","-0.9854000000000005","1.570796326794897","-0.1123999846117588","1.4792000089704991","-0.85139999689497514","1.5707963267948959","SIDE","-0.47957077521244407","-0.30468528403337958","0.66872312717429583","0.4795707752124444","128.07875053351955","-66.630109177856909","58.760857194424148","0.004131135","0.000099759","217"
"218","yellowsaltcube","0.0","-0.56239999294709309","1.0342000041322561","-0.3903999880371592","0.94719999999999938","-0.39339998817965199","0.94719999999999971","SIDE","0.51553663191037136","-0.36720421264166414","0.57758551620970888","-0.51553663191037169","-169.38361240446741","30.828438570982065","83.288049169253597","0.004299843","0.000062352","218"
"219","yellowsaltcube","1.0469999999999999","-0.35899999280459999","1.046999999999999","-0.35199999247211988","1.0469999999999999","-0.19099998808464949","1.047000000000003","TOP","0.49158402796294975","0.61099048956185997","0.37865671599537498","-0.49158402796295014","27.246521855288862","157.01705013237782","136.71347327846988","0.003773744","0.000015295","219"
"220","yellowsaltcube","0.0","-0.41939998941459028","1.570796326794897","-0.34439998911190839","0.94719999999999938","-0.98540000000000016","1.570796326794897","SIDE","0.26901598965871226","0.78410897539690338","0.4903406054141401","0.26901598965871243","-97.574436243762818","36.704431808800003","220.73492774894277","0.003272409","0.000056938","220"
"221","yellowsaltcube","1.0469999999999999","-0.16599999015685241","1.0490000000949951","-0.3799999938020463","1.570796326794897","-0.78500000000000059","1.570796326794897","SIDE","0.50239979954355152","0.61602646191011357","0.34014744018396792","0.50239979954355152","-139.79393897468137","52.917663892484214","131.25274787935101","0.000000995","0.000000005","221"
"222","yellowsaltcube","0.0","-0.98540000000000016","1.570796326794897","-0.080399986351467029","1.0542000018225981","-0.76239999592732755","1.570796326794897","SIDE","1.5622521916054067e-16","0.23092756500490511","0.66456098279432485","0.71065544384627521","-59.923214854658255","-135.35443731673965","48.169095465811694","0.004277544","0.000057498","222"
"223","yellowsaltcube","1.0469999999999999","-0.78500000000000103","1.570796326794897","-0.50999999345746094","1.21300000462496","-0.40399999168235889","1.0469999999999999","SIDE","0.99998467654273293","0.00068236757653861808","-0.0054937286259995038","2.4109891741068585e-17","-0.92743187814836159","-5.5775145265445598","-113.4719009962743","0.007767211","0.000081802","223"
"224","yellowsaltcube","1.0469999999999999","-0.37199999342206952","1.046999999999999","-0.34699999223463007","1.0469999999999999","-0.19399998822715911","1.0469999999999999","SIDE","0.49248538363581973","-0.40450822375517043","0.59269671057345674","0.49248538363581984","-26.234127978504993","-159.82970489866108","136.28632524479076","0.005762158","0.000012616","224"
"225","yellowsaltcube","1.0469999999999999","-0.28699998938478483","1.0469999999999959","-0.17799999072682091","1.252000003217719","-0.78500000000000103","1.570796326794897","SIDE","2.8908072708059729e-16","0.18513679288430404","0.72009925815351494","0.66871625247729083","-49.956887024006683","-133.3271344854231","144.01195786550633","0.007325487","0.000009475","225"
"226","yellowsaltcube","1.046999999999999","-0.24599999069702111","1.0469999999999999","-0.33499999166465921","1.046999999999999","-0.46999999481719262","1.0469999999999999","TOP","0.7031912211261826","0.69024385549195255","-0.17054479319719171","-1.9735439509026791e-16","51.092982747539942","161.54438793130828","133.94588771242425","0.003847556","0.000007017","226"
"227","yellowsaltcube","0.0","-0.98540000000000016","1.570796326794897","-0.13639998575169501","1.003200002659854","-0.58039999380204788","1.570796326794897","TOP","0.6963243617584165","0.67471487205536285","-0.24472887988353376","-1.5944049721620085e-16","56.880340927977272","135.86662614708911","52.776089062929188","0.004231597","0.000039009","227"
"228","yellowsaltcube","0.0","-0.50739999033473293","0.98220000166240751","-0.25439998809675968","0.94719999999999949","-0.54039999190215837","1.000200002517365","SIDE","-0.47957077521244401","-0.30468528403337963","0.66872312717429594","0.47957077521244434","151.33563457083349","-75.327779966029141","60.75484007687534","0.005816843","0.000103285","228"
"229","yellowsaltcube","0.0","-0.98540000000000016","1.570796326794897","-0.83439999608751458","1.570796326794897","-0.060399985401517343","1.329200008365141","SIDE","0.50344993433270224","0.55403458233741065","0.43141860045089242","0.50344993433270213","-149.34749994512595","9.2546583176198975","47.627120158311286","0.007544354","0.000056990","229"
"230","yellowsaltcube","0.0","-0.53439999161717378","0.94719999999999915","-0.237399987289308","0.94719999999999938","-0.57139999337457237","1.094200003722489","SIDE","-0.4922560500678394","-0.27634320590415007","0.6625725582106714","0.49225605006783985","148.80940773670062","-79.613462987214163","49.467609390339867","0.007871520","0.000081471","230"
"231","yellowsaltcube","0.0","-0.98539999999999994","1.423200009570273","-0.79039999399763106","1.545200012105336","-0.028399983881593802","0.94719999999999949","SIDE","-0.48262529840061347","0.64369951107221446","0.34611642857979114","-0.48262529840061336","141.92518144458961","-57.706141923567181","101.28441051866476","0.011363048","0.000100220","231"
"232","yellowsaltcube","0.0","-0.98539999999999994","1.3702000070529059","-0.71839999383743525","1.374200007242895","-0.1223999850867432","0.94720000000000115","SIDE","0.50968852707404744","-0.30118506601805661","0.62427779613396039","-0.50968852707404766","-148.8002287992779","64.978875015254303","87.186734895333871","0.009241770","0.000093026","232"
"233","yellowsaltcube","0.0","-0.47839999221693669","1.0362000042272641","-0.31939998792446661","0.94719999999999938","-0.31339998763948801","0.94719999999999949","TOP","7.9013559204680753e-17","-0.14904429055759924","-0.6958492517405912","0.70255221749293573","25.343775955824029","161.04763215254911","94.101331670390735","0.003409046","0.000048782","233"
"234","yellowsaltcube","0.0","0.1896000199535853","0.94719999999999582","-0.032399984071589262","1.329200008365137","-0.98540000000000016","1.570796326794897","TOP","0.70319122112618238","0.69024385549195255","-0.17054479319719171","-1.7761895558124113e-16","43.175494501053358","129.50003459389961","133.58131823726092","0.006555974","0.000029681","234"
"235","yellowsaltcube","0.0","-0.32339998811446141","1.570796326794897","-0.039399984404071657","1.5192000108704009","-0.98540000000000028","1.570796326794897","SIDE","-0.49632329734859032","0.5683758766744883","0.42927291066704004","-0.49632329734859054","141.52961384337689","3.3356444449085889","94.125348642104413","0.004566453","0.000045485","235"
"236","yellowsaltcube","0.0","-0.98539999999999994","1.570796326794897","-0.7033999931249767","1.570796326794897","-0.1513999864641524","1.204200005687579","SIDE","-0.47543376369303103","-0.42861963063949737","0.6034987033224003","0.47543376369303159","147.07853784694285","-21.272287438501532","61.25970394806329","0.009469725","0.000051464","236"
"237","yellowsaltcube","0.0","-0.98539999999999994","1.570796326794897","-0.79539999423510976","1.570796326794897","-0.086399983376825348","0.94719999999999938","TOP","0.7075929365634428","0.69783848216691946","-0.11105714264509771","-3.1380274371227099e-16","16.24396294076476","148.94672359694903","49.146851347476201","0.007397619","0.000025497","237"
"238","yellowsaltcube","0.0","-0.54039999190215127","0.94719999999999827","-0.33639998873192573","0.94719999999999915","-0.3773999906793235","0.94719999999999949","TOP","0.69632436175841639","0.67471487205536307","-0.24472887988353378","-1.9930062152025109e-16","65.370201059818285","159.2730786072546","53.52998439503569","0.002874290","0.000016242","238"
"239","yellowsaltcube","1.046999999999999","-0.78500000000000092","1.5707963267948959","-0.43999999339226531","1.570796326794897","-0.08099998937919875","1.0480000000474969","SIDE","0.49248538363581973","-0.40450822375517032","0.59269671057345685","0.49248538363581984","-21.616806436420497","-135.36266176017949","135.54319548716853","0.000004828","0.000000014","239"
"240","yellowsaltcube","1.0469999999999999","-0.78500000000000048","1.046999999999999","-0.65599999713246049","1.0469999999999999","-0.30199999009724249","1.0469999999999999","TOP","-3.9617668716244005e-17","0.23522573227073887","0.70058578697359342","-0.67368272203485047","84.727435466274699","226.91539223791565","111.8983338393204","0.000088542","0.000021115","240"
"241","yellowsaltcube","1.0469999999999999","-0.78500000000000125","1.570796326794897","-0.19699998836964591","1.3790000059902661","-0.27399999202694708","1.0469999999999999","SIDE","0.66522563141811619","-0.23437266803006063","-0.70890359837204919","-1.2517065325546796e-16","136.93751155578758","-66.892564700060873","23.825049570231723","0.003824956","0.000013920","241"
"242","yellowsaltcube","1.0469999999999999","-0.19599998832215201","1.046999999999993","-0.39399999120737739","1.0469999999999999","-0.51999999393244212","1.0469999999999999","SIDE","0.50239979954355152","0.61602646191011357","0.34014744018396792","0.50239979954355152","-163.72654912791006","59.822793871419869","131.01305802230036","0.008768062","0.000036575","242"
"243","yellowsaltcube","0.0","-0.34039998892191742","0.94719999999999571","-0.98540000000000028","0.94719999999999938","-0.2743999890467167","0.94719999999999949","SIDE","0.53127567186746383","-0.54983842372570413","-0.36492468915980797","-0.53127567186746405","-40.346579716451437","-221.99066031567082","-15.757054657430114","0.002859783","0.000024654","243"
"244","yellowsaltcube","1.0469999999999999","-0.51899999388494067","1.0469999999999999","-0.39199999111237799","1.0469999999999999","-0.16799999025184659","1.0469999999999999","SIDE","0.69649030872554507","-0.24436885926719049","-0.67467407721939854","-7.9701254325897922e-17","154.79604193761841","-75.124593650940071","13.632392183288365","0.001802782","0.000016788","244"
"245","yellowsaltcube","1.0469999999999999","-0.35899999280460287","1.046999999999999","-0.48199999538715921","1.0469999999999999","-0.23999999041202269","1.0469999999999999","TOP","0.50149207317341316","0.43164071480859362","-0.55740263222197828","0.50149207317341349","15.762332016880702","173.76820254048442","8.4580919085590995","0.006734606","0.000010774","245"
"246","yellowsaltcube","1.0469999999999999","-0.25199999098200287","1.046999999999999","-0.34099999194964448","1.0469999999999999","-0.44799999377224609","1.0469999999999999","SIDE","2.6980867860855747e-16","0.18513679288430396","0.72009925815351494","0.66871625247729083","-56.124801423849561","-157.31756077770962","146.64337920588164","0.000032343","0.000003811","246"
"247","yellowsaltcube","1.0469999999999999","-0.49399999269750261","1.046999999999995","-0.28099999235942991","1.0469999999999999","-0.7850000000000007","1.0469999999999999","TOP","-0.49723128092917246","-0.36748273112491547","0.60866949065649856","-0.49723128092917279","70.278680887858101","239.19442934517394","134.82931433509833","0.000059646","0.000021880","247"
"248","yellowsaltcube","0.0","-0.37539999058432932","0.94719999999999815","-0.48239999240692671","1.1212000050049249","-0.27939998928420262","0.94720000000000026","TOP","6.9649036433075741e-17","-0.22408348935317934","-0.56085443487220099","0.79701247962844823","64.11805082640447","143.84769801292964","-25.743279728568655","0.008116548","0.000042582","248"
"249","yellowsaltcube","1.0469999999999999","-0.1639999900618602","1.046999999999999","-0.7850000000000007","1.570796326794897","-0.28499999254942038","1.0490000000949951","TOP","0.50149207317341338","0.43164071480859351","-0.55740263222197817","0.50149207317341349","12.62025413122978","149.05761214418933","8.6069839063318909","0.000005209","0.000000023","249"
"250","yellowsaltcube","0.0","-0.98539999999999994","1.570796326794897","-0.65139999391473702","1.570796326794897","-0.31439998768698491","1.5242000111078899","SIDE","-0.47543376369303103","-0.42861963063949737","0.6034987033224003","0.47543376369303159","142.66534360697787","-25.868068544448967","60.914640523225394","0.010906467","0.000052021","250"
"251","yellowsaltcube","1.0469999999999999","-0.49999999298247572","1.0469999999999959","-0.39399999120737839","1.0469999999999999","-0.18399999101180531","1.047000000000001","SIDE","0.70594492023705102","0.14424080028810307","0.69342365197889777","-2.7521839698791465e-16","-170.56340072793137","23.593509666671153","132.88688499678824","0.004227616","0.000012130","251"
"252","yellowsaltcube","1.0469999999999999","-0.77399999947752773","1.0469999999999999","-0.40799999187234393","1.0469999999999999","-0.6349999961350129","1.0469999999999999","SIDE","-0.49081979878532084","-0.32280895346917515","0.64341761694937283","0.49081979878532117","212.07504028895707","-90.439272578423655","79.89454424544877","0.008077658","0.000035929","252"
"253","yellowsaltcube","1.0469999999999999","-0.43799999329727002","1.0469999999999979","-0.41299999210982957","1.0469999999999999","-0.69399999567773119","1.0469999999999999","SIDE","0.50036834451849399","-0.42676280946611989","0.56314877613666836","0.50036834451849432","-32.447072234589086","-253.44145844551502","72.087139716088871","0.000013982","0.000031177","253"
"254","yellowsaltcube","0.0","-0.98540000000000028","1.570796326794897","-0.98439999995250271","1.570796326794897","-0.52439999114219271","1.2542000048028299","SIDE","0.70658625414105669","0.01859690653050465","-0.033554224552436798","-0.70658625414105691","6.1233399105720991","-2.9178275287788571","-112.40832941442113","0.005324639","0.000055662","254"
"255","yellowsaltcube","0.0","-0.85839999722745386","1.570796326794897","-0.98540000000000016","1.570796326794897","-0.58539999077990723","1.355200006340449","SIDE","0.0091443776307194007","-0.50491448205227696","0.86307249204766945","-0.0091443776307193435","-4.9184390068137001","0.18045077243955424","254.60953704011803","0.010990151","0.000079235","255"
"256","yellowsaltcube","0.0","-0.56739999318458179","0.99520000227987826","-0.59339999115988706","1.0742000027725469","-0.21839998638685501","0.94720000000000115","SIDE","0.50530840346424843","-0.33091275052546626","0.61629829329351138","-0.50530840346424866","-158.79970706428773","58.645163810742289","26.27473586477948","0.012103118","0.000072358","256"
"257","yellowsaltcube","0.0","-0.69439999269750896","0.9471999999999986","-0.48339999245442411","0.94719999999999938","-0.26039998838174983","0.94719999999999949","TOP","0.0","0.23522573227073892","0.70058578697359331","-0.67368272203485047","63.749505983242528","164.43566651203207","105.78878626463964","0.005735039","0.000015110","257"
"258","yellowsaltcube","0.0","-0.3913999880846431","0.94719999999999815","0.22660001845136421","1.233200007065004","-0.42439998965208042","1.570796326794897","SIDE","0.50457786945869676","0.11772508312345241","0.69061070952354975","0.50457786945869698","-127.28844104945797","-95.62841251141208","7.0840570016277464","0.002724661","0.000014313","258"
"259","yellowsaltcube","0.0","-0.98540000000000028","1.570796326794897","-0.11839998489673501","1.554796329294571","-0.90239999605772048","1.5707963267948959","SIDE","-0.4922560500678394","-0.27634320590415007","0.66257255821067151","0.4922560500678399","125.78325312099098","-70.141498490250214","48.701977506400759","0.003875050","0.000065409","259"
"260","yellowsaltcube","0.0","-0.45439999107699691","0.94719999999999938","-0.65039999386724001","1.079200003010035","-0.1843999880315737","0.94719999999999938","SIDE","-0.49431943613248447","0.65354144934929093","0.29013818105473971","-0.4943194361324848","151.89173900560382","-78.365055405702904","32.554689475882562","0.008764215","0.000033867","260"
"261","yellowsaltcube","1.046999999999999","-0.35399999256711961","1.1740000027725459","-0.17299999048933229","1.046999999999999","-0.42399999263230059","1.570796326794897","SIDE","0.50457786945869676","0.11772508312345252","0.69061070952354975","0.50457786945869698","-127.28844104945794","-95.628412511412037","7.0840570016276034","0.011855258","0.000026536","261"
"262","yellowsaltcube","1.0469999999999999","-0.3909999910648872","1.046999999999999","-0.78500000000000125","1.570796326794897","-0.58399999697226901","1.349000004565343","SIDE","0.0091443776307194909","0.86307249204766978","0.50491448205227663","0.0091443776307194632","-4.8686516336953378","0.16741574593049546","252.62020253394996","0.007594227","0.000120796","262"
"263","yellowsaltcube","0.0","-0.98540000000000016","1.259200005040316","-0.81739999528005258","1.4332000100452531","-0.054399985116536903","0.94719999999999938","SIDE","-0.48262529840061347","0.64369951107221457","0.34611642857979114","-0.48262529840061347","143.85594975436345","-64.105088293722289","101.53708826805793","0.010355795","0.000093476","263"
"264","yellowsaltcube","1.046999999999999","-0.34999999237712093","1.0469999999999979","-0.78500000000000103","1.570796326794897","-0.54899999530985755","1.2710000041201699","SIDE","0.70658625414105691","-0.033554224552436639","-0.018596906530504845","0.70658625414105691","5.8432854471744724","-2.8375059022774591","-108.61951465799024","0.005551816","0.000097969","264"
"265","yellowsaltcube","0.0","-0.81439999513756911","0.94719999999999394","-0.57039999332707481","0.94719999999999971","-0.31239998759198018","0.94719999999999882","SIDE","0.50968852707404744","-0.30118506601805672","0.62427779613396039","-0.50968852707404777","-171.79262090093283","71.302230121901559","86.2550596333718","0.007662284","0.000029711","265"
"266","yellowsaltcube","1.0469999999999999","-0.46399999453220508","1.0469999999999999","-0.41699999229982848","1.046999999999999","-0.16199998996685619","1.0469999999999999","SIDE","5.6900527357675368e-17","0.66232798043803676","-0.16110899397429362","0.73168677614773292","-159.53082090063498","47.711445637450723","-0.67210556517871456","0.000027516","0.000012731","266"
"267","yellowsaltcube","1.0469999999999999","-0.78500000000000036","1.570796326794897","-0.59799999437761897","1.570796326794897","0.1170000135060397","1.2730000042151679","SIDE","5.6900527357675356e-17","0.66232798043803653","-0.1611089939742936","0.73168677614773303","-135.3872206551336","41.838598254651266","1.0898055573843086","0.006702986","0.000027362","267"
"268","yellowsaltcube","0.0","-0.98539999999999994","1.44420001056772","-0.91739999677017647","1.4632000082105421","0.02460001537613531","0.94720000000000126","SIDE","-0.49132010120402558","-0.41924184451067981","0.5843332885580067","0.49132010120402597","155.61178469554324","-1.9825699671772627","116.96380156885273","0.009969422","0.000060790","268"
"269","yellowsaltcube","0.0","-0.80439999466260004","0.94719999999999793","-0.58939999096991202","0.94719999999999971","-0.27239998895171968","0.94719999999999938","SIDE","-0.48262529840061347","0.64369951107221457","0.34611642857979119","-0.48262529840061336","165.724704268019","-64.861346320593597","102.98554643735302","0.004933897","0.000013667","269"
"270","yellowsaltcube","0.0","-0.45139999093450189","0.94719999999999949","-0.64239999348725996","1.0972000038649949","-0.18839998496192589","0.94719999999999949","SIDE","-0.49431943613248447","0.65354144934929093","0.29013818105473976","-0.4943194361324848","151.62564172840698","-77.108663804179074","32.538874248723097","0.010395955","0.000046637","270"
"271","yellowsaltcube","0.0","-0.43539999017454478","0.9622000007124597","-0.35339998953938351","0.94719999999999949","-0.27139998890422268","0.94719999999999971","SIDE","0.70847612638451052","-0.69774010686344035","0.10592601954852206","3.134115556697266e-16","-21.731381613596948","-162.74778685547952","28.802896759303664","0.004141740","0.000039298","271"
"272","yellowsaltcube","1.0469999999999999","-0.16199998996686471","1.046999999999997","-0.36399999304208852","1.0469999999999999","-0.57099999635480336","1.0469999999999999","SIDE","-0.48357739522225429","0.55869016209009137","0.46922394274361828","-0.48357739522225468","175.12998463686989","6.6732261947173548","18.857645675982585","0.000446632","0.000011496","272"
"273","yellowsaltcube","1.0469999999999999","-0.28199999240692691","1.046999999999999","-0.1869999878946656","1.2990000054501001","-0.78500000000000103","1.570796326794897","SIDE","0.5023997995435513","0.61602646191011368","0.34014744018396803","0.50239979954355152","-142.56956718834647","57.726093720237209","131.21425893964656","0.005250203","0.000010854","273"
"274","yellowsaltcube","0.0","-0.27839998923670428","0.94719999999999827","-0.20239998562689471","0.94719999999999971","-0.60039999149237433","1.099200003959975","SIDE","-0.49632329734859026","0.5683758766744883","0.42927291066703999","-0.49632329734859054","166.1983024894038","-0.10393048538358095","94.490348346583346","0.012382184","0.000052731","274"
