ipa320/cob_manipulation/cob_grasp_generation/common/files/database/yellowsaltcube/yellowsaltcube.csv
"id","object","sdh_knuckle_joint","sdh_finger_12_joint","sdh_finger_13_joint","sdh_finger_22_joint","sdh_finger_23_joint","sdh_thumb_2_joint","sdh_thumb_3_joint","direction","qw","qx","qy","qz","pos-x","pos-y","pos-z","eps_l1","vol_l1"
"0","yellowsaltcube","0.0","-0.98540000000000016","1.245200007634983","-0.85839999722745508","1.358200006482936","-0.8763999980824061","0.9471999999999986","SIDE","0.6825352425425093","-0.21042301559678869","-0.69990556305446783","-4.0665410202463294e-17","148.1457877315417","-65.394806065987282","101.84371615813981","0.020560291","0.000216140","0"
"1","yellowsaltcube","0.0","-0.97639999957252377","0.94719999999999938","1.098600033792108","1.570796326794897","-0.7433999950248813","0.94720000000000026","SIDE","-2.8007760985302998e-16","0.71847200966511904","-0.079802179379051971","-0.69096279458022825","188.19588432740849","1.4972958356658219","79.767497129382136","0.000260336","0.000001233","1"
"2","yellowsaltcube","0.0","-0.98539999999999994","1.570796326794897","-0.92239999700765574","1.570796326794897","-0.87239999789241673","1.570796326794897","SIDE","0.70709594586600255","0.004367159506074858","-0.0034021460248105481","-0.707095945866003","-0.99555306991327563","-5.5859757549194615","-107.272280954197","0.002226975","0.000006294","2"
"3","yellowsaltcube","0.0","-0.89839999586773356","1.570796326794897","-0.61339999210983631","1.570796326794897","-0.92439999710265386","0.94719999999999949","TOP","1.077979797736694e-16","0.90117194087184183","-0.20772560651293026","0.38044606107057138","-93.179133384121855","35.691287800517173","216.18048407378654","0.011345253","0.000143865","3"
"4","yellowsaltcube","0.0","-0.66239999443721409","0.94719999999999827","-0.63939999334476894","0.94719999999999882","-0.90639999624770951","0.94719999999999949","SIDE","-2.2818494842400568e-16","0.72981787293141931","-0.1236581781816958","-0.6723648766247704","236.88716748183626","-36.489195570716944","70.03102406641581","0.000023882","0.000064401","4"
"5","yellowsaltcube","0.0","-0.98540000000000028","0.94719999999999949","-0.896399995772731","0.94719999999999949","-0.7543999955473476","0.94720000000000026","SIDE","0.70052989000326915","0.13179175720366898","0.70134784946214579","1.9810414952814776e-17","-200.7010903000461","26.468391880096156","75.643016406678058","0.009082268","0.000057873","5"
"6","yellowsaltcube","0.0","-0.91439999662768656","0.94719999999999782","-0.85939999727495375","0.94719999999999949","-0.74139999492987929","0.94720000000000182","SIDE","0.70052989000326915","0.13179175720366898","0.70134784946214579","3.9620829905629552e-17","-225.17841016820216","31.067976807225502","76.104243650100372","0.004371506","0.000043436","6"
"7","yellowsaltcube","0.0","-0.73739999473989326","0.94719999999999827","-0.66839999472219536","0.94720000000000026","-0.92139999696016295","0.94719999999999949","SIDE","0.71784467859892542","0.12154815830810717","0.68551080415928733","1.9332577396688156e-17","-227.02374867330553","34.729558962215627","43.123392214539315","0.009616718","0.000070228","7"
"8","yellowsaltcube","0.0","-0.72539999416992385","0.94719999999999616","-0.65139999391474046","0.94719999999999938","-0.98540000000000016","0.94719999999999971","SIDE","-2.2818494842400568e-16","0.72981787293141931","-0.1236581781816958","-0.6723648766247704","212.44029897996856","-32.346990599706977","67.643377017430652","0.007620564","0.000038404","8"
"9","yellowsaltcube","0.0","-0.71539999369494345","0.94719999999999793","1.098600033792114","1.5707963267948959","-0.95839999871757109","0.94719999999999949","SIDE","-2.2372789558646274e-16","0.71334224715928962","-0.05447235416685059","-0.69869564264367356","213.59049137214961","5.2201166575651667","53.732739571013433","0.000817913","0.000004011","9"
"10","yellowsaltcube","0.0","-0.98540000000000028","0.94720000000000004","-0.88139999831989402","0.94720000000000037","-0.72539999416992207","0.94719999999999938","SIDE","0.69412401612343455","-0.22670456005400352","-0.68322536010557655","0.0","200.21004633248222","-83.961841851149956","79.41027720651698","0.009207527","0.000079293","10"
"11","yellowsaltcube","0.0","-0.73639999469239636","0.9471999999999986","-0.67239999491218572","0.94719999999999938","-0.9523999984325856","0.94720000000000126","SIDE","0.71198572510915137","0.086702592273803586","0.69682062809147538","-1.656791592954181e-16","-218.21975920870122","17.824156942057193","46.665975895802461","0.009291001","0.000049242","11"
"12","yellowsaltcube","0.0","-0.98539999999999994","0.94720000000000004","-0.87939999822489889","0.94720000000000149","-0.70039999298249311","0.94719999999999949","SIDE","0.69412401612343455","-0.22670456005400344","-0.68322536010557644","0.0","201.06311526804816","-86.785348466431685","79.4721295011948","0.004269181","0.000036276","12"
"13","yellowsaltcube","0.0","-0.73339999454990379","0.94719999999999793","-0.6713999948646846","0.94719999999999949","-0.98540000000000016","0.94720000000000037","SIDE","0.71198572510915159","0.086702592273803586","0.69682062809147538","-1.4618749349595713e-16","-193.50274494179439","14.748718122056943","47.010913272666045","0.008202037","0.000041677","13"
"14","yellowsaltcube","0.0","-0.8353999961350167","0.94719999999999938","-0.70239999307749179","0.94719999999999971","-0.92839999729264677","0.94719999999999949","SIDE","0.68253524254250908","-0.21042301559678875","-0.69990556305446805","-4.06654102024633e-17","172.50818940782466","-66.900766314833334","103.47041457150773","0.008857914","0.000148510","14"
"15","yellowsaltcube","0.0","-0.71539999369495122","0.94719999999999571","1.0986000337921149","1.5707963267948959","-0.98540000000000028","0.94719999999999938","SIDE","-2.2372789558646274e-16","0.71334224715928962","-0.05447235416685059","-0.69869564264367356","188.75974902352215","7.1162457552410592","53.143648015287376","0.000364106","0.000001819","15"
"16","yellowsaltcube","1.70978682600964e-16","1.0326000306572709","1.570796326794897","-0.98540000000000016","1.570796326794897","-0.82939999585003155","1.570796326794897","TOP","0.0099037977837811708","0.84637129766860164","0.53240910591544477","0.0099037977837808672","14.920075238438505","0.12363976910090982","251.84218544230029","0.000000466","0.000000001","16"
"17","yellowsaltcube","0.0","-0.89139999553525795","0.94719999999999949","-0.83339999604001946","0.9471999999999986","-0.72839999431240998","0.94719999999999938","SIDE","1.5644579900794497e-16","0.67292221218449377","-0.20872868518686463","0.70965345932285129","-222.11573809677532","81.230157434584157","70.909505852658327","0.001102871","0.000069245","17"
"18","yellowsaltcube","0.0","-0.98539999999999994","0.94719999999999949","-0.87639999808240887","0.94719999999999938","-0.74139999492987785","0.94719999999999938","SIDE","1.5644579900794497e-16","0.67292221218449377","-0.20872868518686463","0.70965345932285129","-201.55402584104411","75.590509566077316","71.063280188895874","0.008328260","0.000060779","18"
"19","yellowsaltcube","0.0","-0.98540000000000016","0.9472000000000006","-0.87939999822490034","0.94719999999999949","-0.74339999502488141","0.94719999999999915","SIDE","1.1733434925595873e-16","0.67292221218449377","-0.20872868518686463","0.70965345932285129","-198.32461679381234","73.850568265476113","71.089258023283506","0.009549585","0.000078280","19"
"20","yellowsaltcube","0.0","-0.82039999542255315","0.94719999999999915","-0.66739999467469902","0.94720000000000182","-0.89939999591522257","0.94720000000000482","SIDE","1.5402470089891509e-16","0.65440106556400246","-0.22846106041703029","0.72080842757408459","-174.56436294434877","73.973514109306748","86.118106099992602","0.004406222","0.000036135","20"
"21","yellowsaltcube","0.0","-0.70439999317247559","0.94719999999999427","-0.6603999943422163","0.94719999999999938","-0.93139999743513446","0.94719999999999849","SIDE","0.50521459340121466","-0.40156180607904879","0.5729437538951121","0.50521459340121488","-36.167517563783669","-227.33296205914667","45.192199522628982","0.006989613","0.000041107","21"
"22","yellowsaltcube","0.0","-0.63339999305979111","0.94720000000000115","-0.53339999156967233","0.94719999999999938","-0.98540000000000028","0.94720000000000037","SIDE","0.66858571386296695","-0.17101655624596804","-0.72370330986400522","-1.2454158849100541e-16","208.35910614990809","-61.806567261050176","133.28169558145802","0.009722463","0.000098442","22"
"23","yellowsaltcube","0.0","-0.8523999969424717","0.94719999999999915","-0.70139999302998424","0.94719999999999938","-0.84939999679997735","0.94719999999999938","SIDE","0.68253524254250919","-0.21042301559678869","-0.69990556305446794","-8.1330820404926587e-17","171.85932271658854","-72.524158660695946","103.53870586114411","0.005846848","0.000045491","23"
"24","yellowsaltcube","0.0","-0.72339999407492972","0.94719999999999938","-0.66839999472219769","0.94719999999999938","-0.96039999881256266","0.94719999999999815","SIDE","0.50034376376371315","0.57197558157670614","0.41491706424960578","-0.50034376376371337","26.807123456990215","215.3213819571391","49.054402126656463","0.007673494","0.000057452","24"
"25","yellowsaltcube","0.0","-0.98540000000000028","1.5707963267948959","-0.98039999976251191","1.4832000091604891","-0.86539999755993358","0.94720000000000304","SIDE","-0.47636562111905445","-0.32905925037373074","0.66171867117015304","-0.47636562111905473","59.781479529189205","152.61747421984646","104.63315046090949","0.014692882","0.000241400","25"
"26","yellowsaltcube","0.0","-0.96739999914504771","0.94719999999999815","-0.98539999999999994","0.94719999999999971","-0.58839999092239492","0.94719999999999949","SIDE","-2.1365821236504062e-16","0.71448536518288774","-0.1357877080875142","-0.68634711427368555","220.00765435324098","-38.038793272868006","104.05395873611222","0.001205684","0.000029319","26"
"27","yellowsaltcube","0.0","-0.98540000000000016","1.281200006085258","-0.86839999770242815","1.380200007527878","-0.98539999999999994","1.0992000039599761","SIDE","0.68253524254250919","-0.21042301559678869","-0.69990556305446794","-4.0665410202463294e-17","148.79465442277754","-59.771413720124649","101.77542486850322","0.016506697","0.000255687","27"
"28","yellowsaltcube","0.0","-0.97939999971501612","0.94719999999999949","-0.98539999999999994","0.94720000000000026","-0.57139999337457181","0.94720000000000004","SIDE","0.71287757915747352","0.13513998063429597","0.68814441999390075","-9.7336402585533367e-17","-229.80632958320405","33.590956350896519","89.06924762604767","0.000622403","0.000062038","28"
"29","yellowsaltcube","0.0","-0.71639999374244201","0.94719999999999815","-0.65239999396223158","0.94719999999999904","-0.98539999999999994","0.94719999999999971","SIDE","-2.2818494842400568e-16","0.72981787293141931","-0.1236581781816958","-0.6723648766247704","213.71927038265366","-37.907235388150497","67.854249110386775","0.008798253","0.000073656","29"
"30","yellowsaltcube","0.0","-0.93639999767262716","0.94719999999999938","-0.91039999643769365","0.94719999999999938","-0.7233999940749315","0.94719999999999915","SIDE","0.51930751632597827","0.54846515970254828","0.39978165986841629","-0.51930751632597838","24.201397001029083","201.22552272979055","58.96847661746407","0.007472767","0.000055273","30"
"31","yellowsaltcube","0.0","-0.81639999523255546","0.94719999999999882","-0.66739999467469635","0.94719999999999938","-0.91639999672268246","0.94719999999999949","SIDE","1.5402470089891509e-16","0.65440106556400246","-0.22846106041703029","0.72080842757408459","-178.39639055600065","73.607703473860042","85.981152566613758","0.004918244","0.000034587","31"
"32","yellowsaltcube","0.0","-0.63639999320228424","0.94719999999999849","-0.62239999253731315","0.9471999999999986","-0.88239999836739236","0.94719999999999938","SIDE","-2.0916953605533863e-16","0.7298178729314192","-0.1236581781816958","-0.67236487662477051","238.16613888452221","-42.049440359160471","70.241896159372047","0.000002885","0.000035809","32"
"33","yellowsaltcube","0.0","-0.8873999953452506","0.94719999999999183","-0.89239999558274041","0.94719999999999815","-0.74639999516736411","0.94719999999999949","SIDE","0.50036834451849399","-0.42676280946611983","0.56314877613666847","0.50036834451849421","-24.790182756722736","-197.86650605962916","72.169826673767815","0.008981506","0.000060448","33"
"34","yellowsaltcube","0.0","-0.71639999374243846","0.94719999999999849","-0.67039999481718882","0.9472000000000006","-0.98540000000000083","0.94719999999999971","SIDE","0.50034376376371303","0.57197558157670636","0.41491706424960584","-0.50034376376371348","22.892105957405061","190.72098431951807","49.08866652288286","0.005991631","0.000038275","34"
"35","yellowsaltcube","0.0","-0.75339999549984904","0.94719999999999849","-0.70839999336246162","0.94719999999999949","-0.96939999924004172","0.94719999999999938","SIDE","0.68634711427368511","-0.13578770808751428","-0.71448536518288819","-6.0659340671230396e-17","181.66293094915616","-36.133421307778633","101.85025120858595","0.006420753","0.000035662","35"
"36","yellowsaltcube","0.0","-0.94339999800511121","0.9552000003799791","-0.98540000000000028","1.0782000029625369","-0.7113999935049552","0.95920000056996857","SIDE","0.51930751632597827","0.54846515970254828","0.39978165986841629","-0.51930751632597838","20.354672292776264","176.69257539915304","60.929421361985142","0.014463549","0.000258734","36"
"37","yellowsaltcube","0.0","-0.98540000000000016","0.94719999999999815","-0.98139999981001158","1.216200006257556","-0.94639999814760223","1.335200008650121","SIDE","-2.7447121483270659e-16","0.70786668623091809","-0.16800983163045141","-0.68607393989275423","157.50633473292169","-32.234148236393949","80.4716703782846","0.015659303","0.000177911","37"
"38","yellowsaltcube","0.0","-0.74539999511987021","0.94719999999999815","-0.67039999481719026","0.94719999999999949","-0.98540000000000016","0.94720000000000026","SIDE","0.71784467859892542","0.12154815830810717","0.68551080415928733","-1.9332577396688153e-17","-202.50781077983427","30.382629516221218","43.885687167312206","0.007371998","0.000044094","38"
"39","yellowsaltcube","0.0","-0.69939999293499988","0.94719999999999094","-0.66539999457970334","0.94719999999999915","-0.98540000000000016","0.94719999999999938","SIDE","0.50521459340121488","-0.40156180607904879","0.57294375389511198","0.50521459340121477","-31.853869748668426","-202.80486074411249","45.714491018445649","0.006841427","0.000064356","39"
"40","yellowsaltcube","0.0","-0.98540000000000028","0.94719999999999949","-0.98339999990500615","1.122200005052423","-0.81839999532755936","1.1292000053849001","SIDE","0.72483684925395109","0.13770924713543917","0.67501681846972927","-7.6584339342561694e-17","-167.37456668525516","27.827938401796736","65.199163257307916","0.015843599","0.000165310","40"
"41","yellowsaltcube","0.0","-0.94739999819509579","0.94719999999999782","-0.98539999999999994","1.1602000035977029","-0.85939999727495175","1.203200005640084","SIDE","0.50036834451849399","-0.42676280946611983","0.56314877613666847","0.50036834451849421","-21.390305518462522","-173.18964267007777","72.206542040514975","0.016175795","0.000168422","41"
"42","yellowsaltcube","0.0","-0.93739999772012716","0.94719999999999815","-0.87339999793991507","0.94719999999999938","-0.77739999663978898","0.94719999999999971","SIDE","-2.7447121483270659e-16","0.70786668623091809","-0.16800983163045141","-0.68607393989275423","181.70136225044419","-37.976758502682117","81.931523369466291","0.007418463","0.000046474","42"
"43","yellowsaltcube","0.0","-0.88239999836739169","0.94719999999999938","-0.98539999999999994","1.2262000067325269","-0.96139999886006355","1.337200008745115","SIDE","-2.7447121483270659e-16","0.70786668623091809","-0.16800983163045141","-0.68607393989275423","156.069484808781","-37.380149758347542","80.459363306607585","0.013414572","0.000232228","43"
"44","yellowsaltcube","0.0","-0.97439999947752864","0.9471999999999986","-0.90039999596271281","0.94719999999999949","-0.74839999526236323","0.94719999999999938","SIDE","0.72483684925395109","0.13770924713543914","0.67501681846972916","-5.7438254506921267e-17","-191.75035000840657","32.800808229510594","63.934310277934728","0.006689302","0.000043197","44"
"45","yellowsaltcube","0.0","-0.89739999582022112","0.94719999999999704","-0.98539999999999994","1.11720000481493","-0.75539999559484716","1.0612000021550789","SIDE","-0.48651280120831264","-0.32779460260565868","0.64742666536332893","-0.48651280120831275","62.480462967219033","164.14105786847526","80.055552046931908","0.013605728","0.000218798","45"
"46","yellowsaltcube","0.0","1.032600030657274","1.5707963267948959","-0.98540000000000016","1.102200004102474","-0.80939999490008407","1.1522000032177171","SIDE","0.69096279458022825","-0.079802179379051957","-0.71847200966511926","-4.0169421325341998e-17","166.82921732320284","3.8705359481052701","78.796066397553574","0.009946466","0.000116227","46"
"47","yellowsaltcube","0.0","1.0326000306572789","1.570796326794897","-0.91139999648518299","0.94719999999999938","-0.73339999454990801","0.94719999999999971","SIDE","0.69096279458022791","-0.07980217937905193","-0.71847200966511937","-3.0127065994006495e-17","191.47237123055152","1.1333696255138022","79.916461872905572","0.001109846","0.000004435","47"
"48","yellowsaltcube","0.0","-0.91539999667518124","1.3342000086026231","-0.83839999627750539","1.290200006512741","-0.98540000000000016","1.008200002897347","SIDE","0.686347114273685","-0.13578770808751428","-0.71448536518288819","-8.087912089497387e-17","157.23195181429816","-31.490321778081462","100.40907624714778","0.015544839","0.000267129","48"
"49","yellowsaltcube","0.0","-0.63639999320227691","0.94719999999999849","-0.84039999637249352","1.2952000067502309","-0.98540000000000028","1.007200002849848","SIDE","0.68634711427368522","-0.13578770808751428","-0.71448536518288808","-8.0879120894973857e-17","158.31722515529222","-26.314547543101856","100.41486177525458","0.011756404","0.000184680","49"
"50","yellowsaltcube","0.0","-0.70839999336247206","0.94719999999999438","-0.90139999601021525","0.94719999999999993","-0.75539999559484672","0.94719999999999949","SIDE","0.68607393989275378","-0.16800983163045136","-0.70786668623091831","-8.0911324572297922e-17","184.83932480994983","-44.208576732880154","82.19524630781838","0.002914304","0.000036722","50"
"51","yellowsaltcube","0.0","-0.67039999481719148","1.0572000019650889","-0.48039999231192848","0.9472000000000016","-0.98540000000000028","0.94720000000000004","SIDE","-0.49169848920914155","0.61797309814569623","0.36684389239444226","0.49169848920914139","-57.763728946753687","-164.90844292139673","117.07996135086951","0.001943173","0.000165355","51"
"52","yellowsaltcube","0.0","-0.94539999810010633","0.94719999999999938","-0.98539999999999994","0.94719999999999949","-0.62239999253731437","0.94719999999999949","SIDE","7.7754522829102532e-17","0.66187682119712965","-0.22852901869807085","0.71392826052403868","-206.19970289821802","82.794876260022122","54.098508980947557","0.007447892","0.000055105","52"
"53","yellowsaltcube","0.0","-0.98540000000000028","0.96820000099744596","1.098600033792108","1.5707963267948959","-0.92439999710266241","1.379200007480389","SIDE","-2.8007760985303008e-16","0.71847200966511893","-0.079802179379051985","-0.69096279458022836","163.55273042005982","4.2344621582570703","78.647101654030351","0.007912680","0.000088130","53"
"54","yellowsaltcube","0.0","-0.79939999442510967","0.94719999999999938","-0.98540000000000016","1.1172000048149431","-0.82639999570753597","1.1322000055273951","SIDE","0.68607393989275378","-0.16800983163045133","-0.70786668623091842","-8.0911324572297934e-17","160.6442972924273","-38.465966466591873","80.73539331663666","0.012841636","0.000261780","54"
"55","yellowsaltcube","0.0","-0.69239999260250673","0.94719999999999405","-0.88239999836739236","0.94719999999999971","-0.72239999402743105","0.94720000000000371","SIDE","0.50137664572842033","-0.62680339189886947","-0.32304864361316848","-0.50137664572842078","-72.785863196008989","-184.7234061890903","71.508629688609034","0.009459493","0.000093876","55"
"56","yellowsaltcube","0.0","-0.92539999715015686","1.2182000063525571","-0.81639999523256324","1.3602000065779349","-0.98540000000000016","1.1012000040549701","SIDE","1.5402470089891509e-16","0.65440106556400246","-0.22846106041703029","0.72080842757408459","-151.06437839530147","65.769323021641156","87.09282390101653","0.005603079","0.000308231","56"
"57","yellowsaltcube","0.0","-0.65339999400973703","1.0122000030873319","-0.42239998955708402","0.95820000052247334","-0.98540000000000016","0.94719999999999949","SIDE","0.0","0.6598139714260296","-0.22349600185257937","0.71742251168117266","-158.42906540818885","68.329171712207","108.20274492572233","0.004559212","0.000131974","57"
"58","yellowsaltcube","0.0","-0.91339999658019533","0.94719999999999571","-0.98540000000000016","0.94720000000000037","-0.5763999936120584","0.94719999999999915","SIDE","0.7290788967477938","0.14876204638783008","0.66806722406620489","-2.0938154507956681e-16","-231.23223375798634","44.600596742154252","79.281063435334019","0.002192062","0.000072445","58"
"59","yellowsaltcube","0.0","-0.94439999805260522","0.94719999999999938","-0.98540000000000028","0.94720000000000026","-0.55339999251961747","0.94719999999999949","SIDE","1.1664818795898714e-16","0.66858344711947093","-0.20843693256238005","0.71382786397130193","-218.14050070086171","79.860211074199142","45.398571597993822","0.002619746","0.000096750","59"
"60","yellowsaltcube","0.0","-0.61639999225232833","0.94719999999999971","-0.70939999340995497","0.94719999999999971","-0.9693999992400415","0.94719999999999938","SIDE","0.686347114273685","-0.13578770808751428","-0.71448536518288819","-1.0109890111871734e-16","182.74820429015023","-30.95764707279902","101.85603673669274","0.007945965","0.000079743","60"
"61","yellowsaltcube","0.0","-0.79539999423511909","0.94719999999999482","-0.87339999793991641","0.94720000000000004","-0.78939999395013427","0.9472000000000016","SIDE","-2.7447121483270659e-16","0.70786668623091809","-0.16800983163045141","-0.68607393989275423","180.17709552676121","-43.102011934552756","81.913941838969279","0.005383551","0.000038478","61"
"62","yellowsaltcube","0.0","1.0326000306572749","1.570796326794897","-0.65939999429471718","1.008200002897343","-0.16939998731911349","0.94719999999999949","SIDE","-0.47038555499485279","0.66699704450525998","0.33554403872758115","-0.47038555499485307","156.94197073379178","-73.506296779876408","26.263133075381305","0.006948990","0.000012078","62"
"63","yellowsaltcube","0.0","-0.96139999886005956","1.473200008685515","-0.90839999634269852","1.4762000088280109","-0.98540000000000016","1.202200005592575","SIDE","0.50185773553240631","-0.61361930058873004","-0.34604765642548196","-0.50185773553240642","-57.951442690696247","-154.26279133448708","91.438867949527946","0.007528365","0.000353921","63"
"64","yellowsaltcube","0.0","0.36060002155639198","0.94719999999999815","-0.76939999625980993","1.1442000060973689","-0.98540000000000028","1.006200002802355","SIDE","0.70190713843211072","-0.098360650547028125","-0.70544422277173069","-7.9086175637501269e-17","167.37677521284775","-0.26824587700566999","94.507785114385911","0.010265161","0.000161690","64"
"65","yellowsaltcube","0.0","1.0326000306572769","1.570796326794897","-0.98539999999999994","1.567796329912035","0.050600016611063482","0.94719999999999949","SIDE","-0.49811390254733273","-0.38085470663238874","0.59892801956002151","0.49811390254733312","152.36651596641795","-9.0173764954443723","133.40118408169837","0.007300526","0.000015660","65"
"66","yellowsaltcube","0.0","1.032600030657272","1.570796326794897","-0.72039999393243281","0.94719999999999949","-0.15339998655914949","0.9471999999999986","SIDE","-0.49811390254733273","-0.3808547066323888","0.5989280195600214","0.49811390254733301","176.68083802449641","-14.429091379824841","133.58876037617296","0.000811619","0.000001554","66"
"67","yellowsaltcube","0.0","1.032600030657268","1.570796326794897","-0.98539999999999983","1.570796326794897","0.069600017513521573","1.1602000035976989","SIDE","-0.47038555499485274","0.66699704450525998","0.33554403872758121","-0.47038555499485307","133.44781309360255","-65.738825403098076","23.399735584837735","0.000839339","0.000009041","67"
"68","yellowsaltcube","0.0","0.26460002025626322","0.94719999999999882","-0.69939999293498767","0.94719999999999971","-0.95739999867007053","0.94719999999999949","SIDE","0.70190713843211072","-0.098360650547028125","-0.70544422277173069","-7.9086175637501269e-17","192.04546385887556","-3.7078208072980323","94.872784818864972","0.002199737","0.000040188","68"
"69","yellowsaltcube","0.0","1.0326000306572769","1.570796326794897","-0.64539999362975331","1.0742000027725469","-0.18439998803157401","0.9472000000000006","SIDE","-0.49249302033054498","0.64986149259126447","0.30427173759396137","-0.49249302033054515","153.95021506977892","-74.818232766762137","13.605569941593563","0.006829702","0.000011214","69"
"70","yellowsaltcube","0.0","1.0326000306572749","1.570796326794897","-0.9853999999999995","1.570796326794897","0.030600015661120972","0.94719999999999949","SIDE","0.71222586833250101","-0.66312639375205562","0.23021228982703848","1.1691056243412635e-16","-59.824400814340741","-134.61405982764973","7.6661493667020713","0.000010225","0.000000015","70"
"71","yellowsaltcube","0.0","0.27460002073124118","0.94719999999999849","-0.53639999171216257","1.1072000043399639","-0.24139998747930469","0.94720000000000093","SIDE","0.51198870539340557","0.36481755234427871","-0.58535739903130835","-0.5119887053934058","159.18950748728687","-32.83136091477634","125.47430278557137","0.008007137","0.000034738","71"
"72","yellowsaltcube","1.494714770157051e-16","-0.58639999082740935","0.94719999999999815","-0.98540000000000028","1.2082000058775779","-0.94039999786261741","1.315200007700168","SIDE","7.6584339342561731e-17","0.67501681846972972","-0.13770924713543903","0.72483684925395075","-162.4817960599934","26.829771036517936","65.453047836960735","0.012954652","0.000204671","72"
"73","yellowsaltcube","0.0","1.032600030657274","1.570796326794897","-0.53139999147467343","1.090200003532503","-0.22439998667184319","0.94719999999999949","SIDE","0.71222586833250101","-0.66312639375205562","0.23021228982703848","1.1691056243412635e-16","-67.993044848840441","-158.14383516897388","7.3041728143570213","0.009899128","0.000013980","73"
"74","yellowsaltcube","0.0","1.03260003065727","1.570796326794897","-0.59739999134987798","1.140200005907374","-0.20239998562688111","0.94719999999999949","SIDE","0.49818982123482314","-0.29172561796742225","0.64692346367832088","-0.49818982123482303","-152.30476737576649","69.0096845058561","10.319914583497344","0.011286927","0.000034111","74"
"75","yellowsaltcube","0.0","0.27960002096872821","0.94720000000000149","-0.47439999202694788","1.1632000037401919","-0.26539998861923719","0.94719999999999971","SIDE","0.5112677960378097","0.36487333508711189","-0.58658156364796243","-0.51126779603781025","154.46915287242561","-37.335011105266382","126.06033753867285","0.008105578","0.000026086","75"
"76","yellowsaltcube","0.0","0.23960001906883249","0.94719999999999793","-0.57239999342206893","1.0442000046072499","-0.22839998686183621","0.94719999999999938","SIDE","0.51738068111858548","-0.35441534418796106","0.58225786848669225","-0.51738068111858537","-160.59697754163116","47.970784558529928","-0.74990975449207531","0.009641009","0.000032031","76"
"77","yellowsaltcube","0.0","0.19460002019107439","0.94719999999999793","-0.58739999087491135","1.0132000031348261","-0.21939998643436501","0.94720000000000459","SIDE","0.49917844024381497","0.59231821455691158","0.38833091854192697","0.49917844024381469","-170.95501587611795","23.6749705199597","132.88819841254363","0.010023637","0.000029013","77"
"78","yellowsaltcube","0.0","-0.51639999076221932","0.94719999999999793","-0.67439999500718151","0.94720000000000149","-0.98540000000000016","0.94719999999999949","SIDE","1.3324280141426984e-16","0.66806722406620533","-0.14876204638783","0.72907889674779358","-205.51474137925547","38.873947302690596","80.947222240793181","0.005003028","0.000046732","78"
"79","yellowsaltcube","0.0","1.0326000306572709","1.5707963267948959","-0.18339998798407711","0.94719999999999882","-0.58739999087488703","1.163200003740203","SIDE","-0.48357739522225418","0.55869016209009148","0.46922394274361817","-0.48357739522225457","165.78495510164947","7.486586433926079","18.250296512734685","0.007889142","0.000010849","79"
"80","yellowsaltcube","0.0","-0.75739999568983951","0.94719999999999949","-0.89939999591521813","0.94719999999999904","-0.71439999364745355","0.94719999999999971","SIDE","-0.48651280120831275","-0.32779460260565862","0.64742666536332882","-0.48651280120831281","70.199735645155585","187.6931346652344","81.376501661108321","0.007204549","0.000037514","80"
"81","yellowsaltcube","0.0","1.032600030657272","1.5707963267948959","-0.98539999999999994","1.570796326794897","0.014600018160799619","1.3632000067204271","SIDE","-0.49249302033054498","0.64986149259126447","0.30427173759396137","-0.49249302033054515","130.53959996533547","-66.338841752668571","12.863189673997034","0.002883395","0.000003774","81"
"82","yellowsaltcube","0.0","0.2756000207787353","0.94719999999999438","-0.98540000000000028","1.5707963267948959","-0.20739998586438141","1.570796326794897","SIDE","0.49917844024381497","0.59231821455691158","0.38833091854192697","0.49917844024381469","-141.96214402369461","23.063262254974735","132.79458470969846","0.002372157","0.000008797","82"
"83","yellowsaltcube","0.0","0.41560002090912201","0.94719999999999405","-0.98540000000000016","1.5707963267948959","-0.57839999370705564","1.570796326794897","SIDE","0.50567275565108127","-0.59474520707929424","-0.36724415181278303","0.50567275565108172","130.68209862679302","-31.016125961918032","6.8003878387947569","0.002891764","0.000009551","83"
"84","yellowsaltcube","0.0","0.18860001990609479","0.94719999999999815","-0.53739999175966024","1.07420000277255","-0.2403999874318109","0.94720000000000748","SIDE","0.49917844024381497","0.59231821455691158","0.38833091854192697","0.49917844024381469","-166.34997585518803","28.1362365768445","132.8763776707471","0.010871450","0.000039921","84"
"85","yellowsaltcube","0.0","-0.50539999023974858","0.94719999999999649","-0.67339999495968395","0.94719999999999938","-0.9173999967701747","0.94719999999999938","SIDE","1.1420811549794557e-16","0.66806722406620533","-0.14876204638783","0.72907889674779358","-229.78075384439168","44.277388067251117","79.375100443427101","0.007992634","0.000073365","85"
"86","yellowsaltcube","0.0","0.2916000215386903","0.94719999999999405","-0.4733999919794516","1.2202000064475469","-0.26739998871423099","0.9542000003324862","SIDE","0.50567275565108105","-0.59474520707929446","-0.36724415181278314","0.50567275565108172","154.91712780188794","-36.747472843029925","6.2319480349097853","0.012941279","0.000041786","86"
"87","yellowsaltcube","0.0","-0.80339999461509559","0.94719999999999638","-0.98540000000000016","0.94719999999999971","-0.58839999092241024","0.9472000000000006","SIDE","-2.1365821236504062e-16","0.71448536518288774","-0.1357877080875142","-0.68634711427368555","218.9223810122478","-43.214567507847619","104.04817320800585","0.001599204","0.000031113","87"
"88","yellowsaltcube","0.0","0.13060001715123659","0.94719999999999915","-0.4893999894797823","1.013200003134834","-0.23739998728931011","0.94719999999999949","SIDE","3.9362331769368115e-16","0.1330693551704453","0.70513037129645828","0.69647950880829279","-27.698473259653021","-167.58922496609023","136.52200269197377","0.008510362","0.000028596","88"
"89","yellowsaltcube","0.0","0.27060002054124832","0.94719999999999405","-0.42839998984206529","1.406200008762825","-0.44939999083951199","1.395200008240344","SIDE","0.50567275565108105","-0.59474520707929446","-0.36724415181278314","0.50567275565108161","149.33522955110811","-29.942483808648056","6.3916862474946425","0.015372561","0.000067578","89"
"90","yellowsaltcube","0.0","0.13060001715123701","0.94719999999999949","-0.48439999250192167","1.045200004654748","-0.2223999865768482","0.94719999999999938","SIDE","0.69520479939119861","0.69978625003183803","-0.16428478678752151","-2.5950804951228305e-16","28.365795333098465","161.78469907365667","136.87703810033034","0.008838733","0.000025018","90"
"91","yellowsaltcube","0.0","0.47360002366397302","0.94719999999999793","-0.66639999462719446","1.5707963267948959","-0.93239999748263336","1.570796326794897","SIDE","0.52421682845398587","-0.38891950552388443","0.54693240144861199","-0.52421682845398598","-130.00628403088388","11.611181720987251","-1.0785735113055688","0.011630358","0.000023260","91"
"92","yellowsaltcube","0.0","0.45060002257153042","0.94719999999999793","-0.98539999999999983","1.5707963267948959","-0.27539998909420987","1.570796326794897","SIDE","0.51198870539340546","0.36481755234427871","-0.58535739903130835","-0.51198870539340569","134.95313151647133","-27.205989889035962","126.68317855421101","0.000140756","0.000014285","92"
"93","yellowsaltcube","0.0","1.0326000306572729","1.5707963267948959","-0.1073999843742743","1.5707963267948959","-0.98540000000000016","1.570796326794897","SIDE","-0.48357739522225418","0.55869016209009148","0.46922394274361817","-0.48357739522225457","141.02062751982348","9.6419910080876008","16.640821274747509","0.000007039","0.000000008","93"
"94","yellowsaltcube","0.0","0.1076000193184234","0.94719999999999793","-0.98540000000000016","1.570796326794897","0.015600014948658871","0.94720000000000037","SIDE","3.9362331769368115e-16","0.1330693551704453","0.70513037129645817","0.69647950880829279","-23.08115171756851","-143.12218182760873","135.77887293435168","0.008966142","0.000019849","94"
"95","yellowsaltcube","3.3306690738754691e-16","-0.10239998413678419","0.94719999999999938","-0.98540000000000016","0.94719999999999949","-0.59939999144487877","0.94720000000000037","SIDE","0.50185773553240653","-0.34604765642548158","0.61361930058872993","0.50185773553240687","-77.959594941620708","-226.02361878004078","90.884234302312066","0.000418128","0.000044036","95"
"96","yellowsaltcube","0.0","0.27260002063625027","0.94719999999999271","-0.98540000000000028","1.5707963267948959","-0.091399983614313757","1.506200010252924","SIDE","0.51738068111858526","-0.35441534418796106","0.58225786848669236","-0.51738068111858548","-136.45337729613092","42.09793717573087","1.0120013680709461","0.008495613","0.000024677","96"
"97","yellowsaltcube","0.0","0.1856000197636134","0.94719999999999438","-0.31439998768696659","1.171200004120174","-0.45339999102950962","1.275200005800273","SIDE","0.52421682845398576","-0.38891950552388432","0.5469324014486121","-0.52421682845398598","-154.44744388232715","15.737922735363567","-3.5499726527767903","0.014281073","0.000045826","97"
"98","yellowsaltcube","0.0","0.54360002372915694","0.9471999999999976","-0.92939999734014433","1.570796326794897","-0.98139999981000881","1.570796326794897","SIDE","0.50567275565108127","-0.59474520707929424","-0.36724415181278303","0.50567275565108172","125.10020037601232","-24.211136927536106","6.9601260513798389","0.005033733","0.000017299","98"
"99","yellowsaltcube","0.0","0.40160002350377638","0.94719999999999815","-0.98540000000000016","1.570796326794897","-0.57339999346956461","1.5707963267948959","SIDE","0.5112677960378097","0.36487333508711178","-0.58658156364796243","-0.51126779603781025","130.32186178682059","-31.708204056135141","127.19160923853751","0.000117553","0.000016139","99"
"100","yellowsaltcube","0.0","0.099600018938448207","0.94719999999999938","-0.47939999226443392","1.570796326794897","-0.46639999164696733","1.570796326794897","SIDE","0.75133726051384586","-0.64683520030066077","0.13075375564607419","1.8470783411331578e-17","-22.547425588374601","-133.93873883372905","-4.0695531156593292","0.012910170","0.000025293","100"
"101","yellowsaltcube","0.0","0.29860002187118301","0.94720000000000115","-0.4473999907445157","1.3562000063879429","-0.42139998950959517","1.3532000062454479","SIDE","0.51126779603780936","0.36487333508711195","-0.58658156364796255","-0.51126779603781058","146.92898688377264","-40.200959308534401","126.36571709118313","0.016518065","0.000055556","101"
"102","yellowsaltcube","0.0","0.31560001941900828","1.570796326794897","-0.89739999582022123","1.5707963267948959","-0.83339999604001969","1.5707963267948959","SIDE","0.53600131160691789","-0.34309513916289103","0.55469893942040593","-0.53600131160691855","-125.63349717872482","22.869619878612113","-6.0868279642711194","0.006835863","0.000022283","102"
"103","yellowsaltcube","0.0","-0.55539999261460959","1.4392000103302309","-0.38539998779967422","1.5032000101104439","-0.79739999433011521","0.9471999999999986","TOP","1.077979797736694e-16","0.90117194087184183","-0.20772560651293026","0.38044606107057138","-110.19807411323187","39.614257019622741","233.8156299185199","0.009205883","0.000137424","103"
"104","yellowsaltcube","0.0","1.0326000306572809","1.570796326794897","-0.98539999999999983","1.570796326794897","-0.10039998404179359","1.5707963267948959","SIDE","0.49818982123482314","-0.29172561796742219","0.64692346367832088","-0.49818982123482314","-129.00766904167403","60.193739014197241","10.139874866422497","0.000042677","0.000000033","104"
"105","yellowsaltcube","0.0","0.025600015423631269","0.94719999999999915","-0.22839998686183291","0.94719999999999938","-0.45039999088700827","1.084200003247517","SIDE","0.7031912211261826","0.69024385549195244","-0.17054479319719168","-7.8941758036107158e-17","49.150187962056172","153.68133835929143","133.85642958463964","0.013670277","0.000052560","105"
"106","yellowsaltcube","0.0","0.22860001854635709","0.94719999999999815","-0.98539999999999994","1.570796326794897","-0.01439998321663127","1.368200006957913","SIDE","0.49917844024381497","0.59231821455691158","0.38833091854192703","0.49917844024381469","-146.56718404462563","18.601996198089719","132.80640545149475","0.005995561","0.000014889","106"
"107","yellowsaltcube","0.0","-0.1243999851817283","0.94719999999999815","-0.98540000000000028","0.94720000000000026","-0.61139999201484496","0.94719999999999949","SIDE","-2.3793703391497918e-16","0.69990556305446772","-0.21042301559678847","-0.68253524254250941","207.86911871865229","-83.350319025403678","106.11260441609693","0.004594426","0.000028941","107"
"108","yellowsaltcube","1.6653345369377351e-16","0.068600017466015781","0.94719999999999938","-0.2303999869568239","0.94719999999999971","-0.57639999361205818","1.028200003847296","SIDE","-0.49453908445407629","-0.39375918117594799","0.59650305542745929","0.49453908445407674","157.69296756357141","-55.109973764965844","135.59667642745475","0.010000517","0.000030143","108"
"109","yellowsaltcube","0.0","0.49160002451893559","0.94719999999999815","-0.98540000000000016","1.5707963267948959","-0.92439999710265497","1.570796326794897","SIDE","0.51126779603780947","0.36487333508711189","-0.58658156364796266","-0.51126779603781036","122.69413511332868","-34.553748849475689","127.50109090438357","0.006481875","0.000011774","109"
"110","yellowsaltcube","0.0","0.23760001897383501","0.94719999999999904","-0.075399986113978953","1.3772000073853941","-0.98540000000000028","1.570796326794897","SIDE","-0.49453908445407635","-0.39375918117594805","0.59650305542745929","0.49453908445407674","133.29494877898117","-50.114782926006278","135.05552222654325","0.011695987","0.000037781","110"
"111","yellowsaltcube","0.0","0.031600015708622642","0.94719999999999938","-0.40839998889208817","1.305200007225201","-0.39739998836965629","1.2502000046128381","SIDE","0.53600131160691822","-0.34309513916289097","0.55469893942040593","-0.53600131160691844","-149.60781797774291","28.520200017957684","-9.8031415025288116","0.013629663","0.000055960","111"
"112","yellowsaltcube","0.0","-0.072399985971488251","0.94719999999999815","-0.32639998825695382","0.94720000000000004","-0.295399986784532","0.94719999999999938","SIDE","0.75133726051384608","-0.64683520030066066","0.13075375564607419","0.0","-27.441750786483144","-158.15082975388873","-7.2833256852553614","0.005345963","0.000009448","112"
"113","yellowsaltcube","0.0","-0.06439998559150921","0.94719999999999915","-0.217399986339357","0.94719999999999949","-0.50139999004975366","0.94719999999999949","SIDE","2.5827140298836515e-16","0.16192857729950105","0.69853355584131493","0.69701506957701276","-62.277126258457827","-161.86639777839207","136.37598536104935","0.007702597","0.000006510","113"
"114","yellowsaltcube","0.0","0.12760001700874521","0.94719999999999793","-0.01139998307414287","0.94719999999999949","-0.98539999999999994","1.5707963267948959","SIDE","2.582714029883652e-16","0.16192857729950103","0.69853355584131493","0.69701506957701298","-56.654109328355339","-137.60961694176584","135.67003632062264","0.006557039","0.000022635","114"
"115","yellowsaltcube","0.0","-0.57239999342207182","0.94719999999999938","-0.87839999817740178","0.94719999999999949","-0.77839999668728721","0.9471999999999986","SIDE","7.6584339342561731e-17","0.67501681846972972","-0.13770924713543903","0.72483684925395075","-186.85757938314376","31.802640864232011","64.188194857587533","0.004977598","0.000040606","115"
"116","yellowsaltcube","0.0","0.28760002134870472","0.94719999999999582","-0.32039998797196961","1.570796326794897","-0.9853999999999995","1.570796326794897","SIDE","0.50239979954355163","0.61602646191011345","0.34014744018396792","0.50239979954355141","-132.87644415114076","50.92180131923179","131.32202796768163","0.005850377","0.000011175","116"
"117","yellowsaltcube","0.0","0.052600016706069459","0.94719999999999827","-0.25339998804926422","0.94720000000000026","-0.52539999118969294","1.147200006239852","SIDE","0.50239979954355152","0.61602646191011357","0.3401474401839682","0.50239979954355152","-156.80905430436945","57.82693129816829","131.08233811063096","0.010973085","0.000038564","117"
"118","yellowsaltcube","0.0","-0.33039998844694501","1.3622000066729241","-0.47939999226443591","1.1842000047376391","-0.25339998804926939","0.94719999999999938","SIDE","-1.1553990750990764e-16","0.3067053693628663","0.72067503463897586","-0.6217389410774421","68.854444777451448","147.87760213436195","59.6647780816173","0.011379172","0.000063263","118"
"119","yellowsaltcube","0.0","-0.22839998686182869","0.94719999999999882","-0.39539998827464917","0.99320000218489002","-0.85039999684747314","1.570796326794897","TOP","0.0013593137744086767","0.37419022008736907","0.92734997909262484","0.0013593137744083716","-2.5483531242144597","19.303077429156399","250.52561302898897","0.005942924","0.000120174","119"
"120","yellowsaltcube","0.0","-0.50239999009726033","0.94719999999999938","-0.98539999999999994","1.1172000048149331","-0.82439999561254318","1.12820000533739","SIDE","0.68607393989275378","-0.1680098316304513","-0.70786668623091831","-8.0911324572297922e-17","161.87717466612332","-33.271552730129081","80.735393316636689","0.013841706","0.000227277","120"
"121","yellowsaltcube","0.0","0.24560001935382161","0.94719999999999815","-0.12539998522921991","1.570796326794897","-0.98540000000000016","1.570796326794897","SIDE","0.50239979954355163","0.61602646191011345","0.34014744018396792","0.50239979954355141","-134.30700386600284","55.342146740169731","131.29701015687377","0.006975383","0.000015341","121"
"122","yellowsaltcube","0.0","0.03060001566113189","0.94719999999999827","-0.23539998719430261","0.94719999999999949","-0.5633999929945962","1.098200003912478","SIDE","0.50239979954355152","0.61602646191011357","0.3401474401839682","0.50239979954355152","-158.23961401923148","62.247276719105351","131.05732029982309","0.013535383","0.000049456","122"
"123","yellowsaltcube","0.0","-0.98540000000000016","1.570796326794897","-0.78339999692477291","1.5707963267948959","-0.35939998982437682","1.5707963267948959","SIDE","-0.48532069875074102","0.60123385596982748","0.40920103758890597","-0.48532069875074135","139.77424616306578","-28.172490574863648","99.379252263022906","0.000001925","0.000011796","123"
"124","yellowsaltcube","0.0","-0.60139999153987389","0.96420000080745971","-0.45539999112449692","0.94719999999999949","-0.31339998763949722","0.94720000000001026","SIDE","-0.48532069875074102","0.60123385596982759","0.40920103758890602","-0.48532069875074157","164.20522529792379","-32.815590104560911","100.82042722446106","0.012510543","0.000057677","124"
"125","yellowsaltcube","0.0","-0.1293999854192166","0.94719999999999793","-0.2413999874793018","0.94719999999999938","-0.42239998955707903","1.0532000017751","SIDE","1.5417638777631856e-16","0.18513679288430404","0.72009925815351516","0.66871625247729072","-54.639153543146968","-151.53905548925573","146.00955628225873","0.007441132","0.000030119","125"
"126","yellowsaltcube","0.0","-0.26739998871423187","0.94719999999999915","-0.98540000000000028","1.570796326794897","-0.79439999418761331","1.570796326794897","SIDE","0.50034385811320825","-0.02431075859337636","0.70620183680969983","0.50034385811320836","-111.407550581038","-113.3006814599256","49.143229735514815","0.000277673","0.000034838","126"
"127","yellowsaltcube","0.0","0.13660001743622119","0.94719999999999849","-0.98540000000000016","1.570796326794897","0.02160001523364162","1.1282000053374011","SIDE","0.69520479939119861","0.69978625003183792","-0.16428478678752148","-2.59508049512283e-16","22.675774804019614","137.5475301518743","136.04552800680074","0.007342366","0.000023618","127"
"128","yellowsaltcube","0.0","-0.98540000000000016","1.570796326794897","1.09860003379212","1.5707963267948959","-0.4463999906970238","1.006200002802349","SIDE","0.70705746302972505","-0.0096406926188082418","-0.0068223891538849724","0.70705746302972527","20.588805781321163","-1.0110099344778702","-118.2621033526065","0.002675021","0.000028394","128"
"129","yellowsaltcube","0.0","-0.98540000000000016","1.570796326794897","-0.66639999462720001","1.3932000081453351","-0.14539998617917521","0.94719999999999949","SIDE","0.70973401597177921","-0.67858701298540813","0.18920172404106664","1.173210315034381e-16","-57.253171657618687","-151.75838680545192","91.458224290126836","0.010600191","0.000072880","129"
"130","yellowsaltcube","0.0","-0.98540000000000028","1.570796326794897","-0.72539999416993128","1.5707963267948959","-0.59839999139736888","1.570796326794897","SIDE","-0.48532069875074102","0.60123385596982748","0.40920103758890597","-0.48532069875074146","137.23067082979568","-22.30705484576978","99.170973270042637","0.002599962","0.000025792","130"
"131","yellowsaltcube","0.0","-0.98540000000000016","1.570796326794897","1.0986000337921169","1.5707963267948959","-0.41939998941458828","0.94820000004749649","SIDE","0.70700539203894264","0.011932937712161081","-0.012014834717089241","-0.70700539203894308","-18.722402856393721","-0.55183112111498078","-120.07482151251126","0.004307782","0.000054624","131"
"132","yellowsaltcube","0.0","-0.75539999559484672","0.94719999999999849","-0.98539999999999994","0.94720000000000004","-0.57239999342206882","0.94720000000000026","SIDE","0.49991195073307448","-0.40014316331596439","0.58314795024933241","0.49991195073307448","-39.608735767172142","-234.24309358549101","92.486105004610437","0.004529688","0.000063042","132"
"133","yellowsaltcube","0.0","-0.55739999270960849","1.0362000042272641","-0.37439999053683248","0.9471999999999986","-0.34239998901691482","0.94720000000000149","SIDE","-0.48532069875074102","0.60123385596982748","0.40920103758890597","-0.48532069875074146","161.66164996465369","-26.950154375466884","100.61214823148079","0.004644389","0.000059093","133"
"134","yellowsaltcube","0.0","-0.52939999137968519","0.94719999999999938","-0.23539998719431091","0.94719999999999915","-0.57039999332707092","1.094200003722495","SIDE","-0.493155489541448","-0.2786752924904195","0.66025404779194519","0.49315548954144844","148.6427889092412","-78.949038012620761","53.152807745561418","0.007082025","0.000042883","134"
"135","yellowsaltcube","0.0","-0.98540000000000016","1.5707963267948959","-0.38039999082181603","1.5667963298645431","-0.52439999114219493","1.570796326794897","SIDE","0.70698226071910419","-0.69529181428249331","0.12940392583018345","9.8148062397624534e-17","-22.061667031702406","-139.96208025337378","92.452332279308933","0.008558779","0.000058422","135"
"136","yellowsaltcube","0.0","-0.5373999917596588","0.9471999999999946","-0.29639998683202579","0.94719999999999938","-0.47539999207444689","0.98120000161491927","SIDE","0.50482351429726402","0.62961200739799972","0.30642316975937256","0.50482351429726424","-157.44379122659291","65.960715743729864","55.098690650512872","0.015699338","0.000136265","136"
"137","yellowsaltcube","0.0","-0.98540000000000028","1.570796326794897","-0.55739999270961116","1.570796326794897","-0.54239999199714584","1.570796326794897","SIDE","0.51553663191037113","-0.36720421264166425","0.57758551620970888","-0.51553663191037191","-145.11759993933163","25.424997806422965","84.860170966619677","0.003392101","0.000026996","137"
"138","yellowsaltcube","0.0","-0.48239999240692699","0.94719999999999815","-0.082399986446462126","1.5707963267948959","-0.98540000000000016","1.570796326794897","SIDE","0.65912987888809405","0.18186048702721283","-0.3130852420222911","-0.65912987888809493","93.172514799584661","-45.709086598250686","-83.470030576327702","0.003747228","0.000027111","138"
"139","yellowsaltcube","0.0","-0.37639999063182839","0.94719999999999815","-0.6863999923175238","0.94719999999999882","-0.98540000000000016","0.94719999999999949","SIDE","1.1680368310264006e-16","0.68814441999390086","-0.13513998063429591","0.71287757915747352","-197.02692772200064","27.153633597097532","89.616800304335683","0.007571567","0.000039132","139"
"140","yellowsaltcube","0.0","-0.53639999171217012","0.95020000014248629","-0.29439998673704149","0.94719999999999971","-0.47639999212194217","0.98720000189989932","SIDE","0.50482351429726413","0.62961200739799961","0.30642316975937256","0.50482351429726413","-157.07931373643083","65.895454409738988","46.549261912867337","0.011435980","0.000125675","140"
"141","yellowsaltcube","0.0","-0.98540000000000028","1.570796326794897","-0.79239999409262052","1.570796326794897","-0.084399986541457556","0.94719999999999949","SIDE","1.1885300614873203e-16","0.23522573227073909","0.70058578697359331","-0.67368272203485036","55.85465455489252","140.9219945698656","103.48951404925964","0.013846390","0.000050702","141"
"142","yellowsaltcube","0.0","-0.53039999142717831","0.94719999999999649","-0.2923999866420407","0.94719999999999949","-0.40139998855963699","0.94719999999999949","SIDE","1.5622521916054067e-16","0.23092756500490497","0.66456098279432496","0.7106554438462751","-68.099171627286296","-158.88312202783439","47.918443081171212","0.003298482","0.000015249","142"
"143","yellowsaltcube","0.0","-0.98540000000000016","1.5707963267948959","-0.2453999876692976","1.570796326794897","-0.80839999485257263","1.570796326794897","SIDE","0.50482351429726413","0.62961200739799961","0.30642316975937245","0.50482351429726413","-133.53774121668374","57.767155768283722","47.032195130599838","0.000235269","0.000012363","143"
"144","yellowsaltcube","0.0","-0.79739999433009878","1.3312000084601321","-0.98540000000000016","1.1862000048326331","-0.76539999606982045","1.0292000038948019","SIDE","0.50137664572842056","-0.62680339189886947","-0.32304864361316854","-0.50137664572842078","-65.198499551658287","-160.99744686687393","71.645987502079805","0.016699326","0.000236896","144"
"145","yellowsaltcube","0.0","-0.52439999114220726","1.001200002564848","-0.28639998635707442","0.94719999999999971","-0.47939999226443242","1.0182000033723231","SIDE","0.50475252321401598","0.62014705771183753","0.3253727207826731","0.50475252321401598","-157.45294536839572","60.940317181063854","46.612977515452009","0.010089502","0.000090858","145"
"146","yellowsaltcube","0.0","-0.98540000000000061","1.570796326794897","-0.1173999848492404","1.5637963297220461","-0.90539999620019485","1.570796326794897","SIDE","-0.493155489541448","-0.27867529249041945","0.66025404779194519","0.4931554895414485","125.65757472369482","-69.607899075986637","52.477935749505086","0.004624831","0.000065537","146"
"147","yellowsaltcube","0.0","-0.63439999310728146","0.97320000123493045","-0.50239999009724112","0.9471999999999986","-0.28639998635706371","0.94720000000000482","SIDE","0.50759284007597805","0.57067686517807426","0.39878181121727663","0.5075928400759776","-171.61438169996779","24.904904897296905","44.846282889319689","0.012210476","0.000096953","147"
"148","yellowsaltcube","0.0","-0.98539999999999994","1.570796326794897","-0.78239999687727624","1.570796326794897","-0.16139998693912869","1.4282000098077541","SIDE","0.50759284007597782","0.57067686517807426","0.39878181121727674","0.50759284007597771","-147.1870200574165","20.573680937056789","45.605823665226097","0.012371472","0.000083652","148"
"149","yellowsaltcube","0.0","-0.98540000000000016","1.570796326794897","-0.73239999450240245","1.5707963267948959","-0.10639998432676991","0.94719999999999938","SIDE","2.71930169732306e-16","0.12118533747369722","0.68907948976172306","0.71448132989680657","-22.606627835776703","-150.22354297189068","46.834136390034573","0.007866265","0.000036119","149"
"150","yellowsaltcube","0.0","-0.49539998976476868","1.0862000033425201","-0.29739998687953512","0.94719999999999949","-0.42839998984206218","1.039200004369758","SIDE","0.50408057037809939","-0.39103318909744134","0.58214998252930006","-0.50408057037809972","-165.35619714123607","20.934035220644692","90.145833549859503","0.016548634","0.000133226","150"
"151","yellowsaltcube","0.0","-0.48439999250192228","0.99220000213737936","-0.33039998844694463","0.94719999999999938","-0.32539998820945631","0.94719999999999938","SIDE","0.70698226071910397","-0.69529181428249331","0.12940392583018345","1.1777767487714945e-16","-26.61951350276459","-164.45154857325002","92.461104735789064","0.011503905","0.000076275","151"
"152","yellowsaltcube","0.0","-0.020399983501638609","0.94719999999999949","-0.75639999564234084","1.570796326794897","-0.93239999748263669","0.94720000000000026","SIDE","0.0","-0.34997948133022372","0.092789914116562844","0.93215041408887889","80.977906034349189","-42.475935055450329","-69.680384484833439","0.008276805","0.000135620","152"
"153","yellowsaltcube","0.0","-0.98540000000000016","1.570796326794897","-0.11239998461176059","1.479200008970496","-0.85139999689497026","1.570796326794897","SIDE","-0.47957077521244407","-0.30468528403337936","0.66872312717429583","0.47957077521244451","128.07875053352018","-66.630109177853868","58.760857194423295","0.004723153","0.000100130","153"
"154","yellowsaltcube","0.0","-0.56239999294709497","1.0342000041322901","-0.39039998803716303","0.94719999999999938","-0.39339998817964772","0.94719999999999938","SIDE","0.51553663191037113","-0.36720421264166425","0.57758551620970888","-0.51553663191037191","-169.38361240446829","30.828438570983721","83.288049169253597","0.004602133","0.000065017","154"
"155","yellowsaltcube","0.0","-0.41939998941458928","1.570796326794897","-0.34439998911190778","0.94719999999999949","-0.98540000000000016","1.570796326794897","TOP","0.2690159896587126","0.7841089753969035","0.4903406054141401","0.26901598965871237","-97.574436243761937","36.704431808799491","220.73492774894325","0.006515112","0.000061899","155"
"156","yellowsaltcube","0.0","-0.98540000000000016","1.5707963267948959","-0.080399986351467501","1.054200001822599","-0.7623999959273281","1.570796326794897","SIDE","1.1716891437040551e-16","0.23092756500490497","0.66456098279432496","0.7106554438462751","-59.923214854658013","-135.35443731673786","48.169095465812383","0.004322859","0.000057475","156"
"157","yellowsaltcube","0.0","-0.98540000000000016","1.570796326794897","-0.13639998575169529","1.003200002659856","-0.58039999380204932","1.5707963267948959","SIDE","0.69632436175841628","0.67471487205536307","-0.24472887988353384","1.1958037291215065e-16","56.880340927977493","135.86662614710318","52.776089062930062","0.004361916","0.000039119","157"
"158","yellowsaltcube","0.0","-0.50739999033474292","0.98220000166241472","-0.25439998809676068","0.94719999999999949","-0.54039999190214871","1.000200002517363","SIDE","-0.47957077521244407","-0.30468528403337936","0.66872312717429583","0.4795707752124444","151.33563457083409","-75.327779966026128","60.75484007687448","0.010295160","0.000124952","158"
"159","yellowsaltcube","0.0","-0.98540000000000028","1.570796326794897","-0.83439999608751081","1.570796326794897","-0.06039998540152073","1.329200008365137","SIDE","0.50344993433270213","0.55403458233741065","0.43141860045089242","0.50344993433270235","-149.34749994512529","9.2546583176303105","47.627120158311939","0.007805697","0.000057015","159"
"160","yellowsaltcube","0.0","-0.53439999161716334","0.94719999999999949","-0.237399987289306","0.94719999999999949","-0.57139999337457159","1.094200003722497","SIDE","-0.4922560500678394","-0.27634320590415012","0.66257255821067151","0.49225605006783973","148.80940773670125","-79.613462987214504","49.467609390338787","0.007945656","0.000066501","160"
"161","yellowsaltcube","0.0","-0.98540000000000016","1.423200009570275","-0.79039999399761607","1.5452000121053291","-0.028399983881593649","0.94719999999999949","SIDE","-0.4826252984006133","0.64369951107221468","0.34611642857979114","-0.48262529840061347","141.92518144458964","-57.706141923568119","101.28441051866433","0.014519589","0.000091738","161"
"162","yellowsaltcube","0.0","-0.98540000000000016","1.3702000070529059","-0.71839999383743613","1.3742000072428919","-0.12239998508672389","0.94719999999999915","SIDE","0.50968852707404755","-0.30118506601805684","0.62427779613396017","-0.50968852707404777","-148.80022879927699","64.978875015257302","87.186734895333402","0.012132222","0.000093011","162"
"163","yellowsaltcube","0.0","-0.47839999221693769","1.0362000042272621","-0.31939998792446889","0.94719999999999882","-0.31339998763948479","0.94719999999999949","SIDE","-5.9260169403510562e-17","-0.14904429055759932","-0.6958492517405912","0.70255221749293573","25.343775955824317","161.04763215254911","94.101331670391147","0.003842061","0.000048588","163"
"164","yellowsaltcube","0.0","0.189600019953582","0.94719999999999938","-0.032399984071591177","1.329200008365135","-0.98539999999999994","1.5707963267948959","SIDE","0.7031912211261826","0.69024385549195244","-0.17054479319719168","-7.8941758036107158e-17","43.175494501053578","129.50003459391081","133.58131823726177","0.007625652","0.000029273","164"
"165","yellowsaltcube","0.0","-0.3233999881144673","1.570796326794897","-0.039399984404074807","1.519200010870374","-0.98539999999999994","1.570796326794897","SIDE","-0.49632329734859015","0.56837587667448819","0.4292729106670401","-0.49632329734859043","141.52961384337735","3.335644444906773","94.125348642105266","0.004441765","0.000041860","165"
"166","yellowsaltcube","0.0","-0.98539999999999994","1.5707963267948959","-0.70339999312497392","1.570796326794897","-0.15139998646415209","1.2042000056875859","SIDE","-0.47543376369303092","-0.42861963063949737","0.60349870332240052","0.47543376369303136","147.07853784694285","-21.272287438502129","61.259703948062175","0.008965490","0.000051353","166"
"167","yellowsaltcube","0.0","-0.98539999999999994","1.570796326794897","-0.7953999942351182","1.5707963267948959","-0.086399983376822642","0.94719999999999938","SIDE","0.70759293656344313","0.69783848216691902","-0.11105714264509764","-9.8063357410084633e-17","16.243962940764764","148.94672359694988","49.146851347476833","0.008796861","0.000024021","167"
"168","yellowsaltcube","0.0","-0.54039999190215449","0.94719999999999815","-0.33639998873192661","0.94719999999999971","-0.37739999067932289","0.94719999999999938","SIDE","0.69632436175841639","0.67471487205536307","-0.24472887988353376","7.9720248608100436e-17","65.370201059819394","159.2730786072687","53.529984395036749","0.003513191","0.000015980","168"
"169","yellowsaltcube","0.0","-0.34039998892191448","0.94719999999999427","-0.98539999999999861","0.94719999999999971","-0.27439998904671531","0.94720000000000004","SIDE","0.53127567186746416","-0.54983842372570391","-0.36492468915980791","-0.53127567186746383","-40.346579716452318","-221.99066031568415","-15.757054657429732","0.003876533","0.000024776","169"
"170","yellowsaltcube","0.0","-0.37539999058432882","0.94719999999999938","-0.48239999240692721","1.121200005004936","-0.27939998928420362","0.94719999999999949","SIDE","-6.9649036433075741e-17","-0.22408348935317951","-0.56085443487220099","0.79701247962844823","64.118050826404811","143.84769801294129","-25.743279728567828","0.008960286","0.000043018","170"
"171","yellowsaltcube","0.0","-0.98539999999999961","1.570796326794897","-0.65139999391474013","1.5707963267948959","-0.31439998768697919","1.5242000111078819","SIDE","-0.47543376369303086","-0.42861963063949743","0.60349870332240052","0.47543376369303131","142.66534360697696","-25.868068544450622","60.91464052322474","0.010962917","0.000053013","171"
"172","yellowsaltcube","0.0","-0.98539999999999983","1.5707963267948959","-0.98439999995250305","1.570796326794897","-0.52439999114219416","1.254200004802829","SIDE","0.70658625414105658","0.018596906530504335","-0.033554224552436847","-0.70658625414105714","6.1233399105723212","-2.9178275287804323","-112.40832941442113","0.005771021","0.000055184","172"
"173","yellowsaltcube","0.0","-0.85839999722745464","1.570796326794897","-0.98540000000000016","1.5707963267948959","-0.58539999077990468","1.355200006340443","TOP","0.0091443776307195621","-0.50491448205227696","0.86307249204766945","-0.0091443776307193331","-4.9184390068145456","0.18045077244089397","254.60953704011979","0.014014626","0.000088077","173"
"174","yellowsaltcube","0.0","-0.56739999318458456","0.99520000227987671","-0.59339999115988196","1.0742000027725469","-0.2183999863868514","0.94720000000000026","SIDE","0.50530840346424866","-0.33091275052546626","0.61629829329351093","-0.50530840346424866","-158.79970706428591","58.645163810743639","26.274735864779682","0.011728275","0.000044167","174"
"175","yellowsaltcube","0.0","-0.69439999269750474","0.94719999999999704","-0.483399992454425","0.94719999999999938","-0.26039998838175249","0.94720000000000026","SIDE","1.1885300614873203e-16","0.23522573227073901","0.70058578697359319","-0.67368272203485058","63.749505983242528","164.43566651203298","105.78878626463961","0.007131760","0.000015198","175"
"176","yellowsaltcube","0.0","-0.39139998808465498","0.94719999999999827","0.22660001845136041","1.233200007064998","-0.42439998965207038","1.570796326794897","SIDE","0.50457786945869643","0.11772508312345258","0.6906107095235503","0.50457786945869676","-127.28844104945905","-95.628412511413742","7.084057001628409","0.003521784","0.000014461","176"
"177","yellowsaltcube","0.0","-0.98539999999999983","1.570796326794897","-0.118399984896736","1.554796329294587","-0.90239999605771826","1.5707963267948959","SIDE","-0.4922560500678394","-0.27634320590415012","0.66257255821067151","0.49225605006783973","125.78325312099142","-70.141498490250967","48.701977506399665","0.004373543","0.000065766","177"
"178","yellowsaltcube","0.0","-0.45439999107699519","0.94719999999999938","-0.65039999386723724","1.079200003010033","-0.18439998803157689","0.94720000000000026","SIDE","-0.49431943613248464","0.65354144934929104","0.29013818105473954","-0.49431943613248475","151.89173900560428","-78.365055405702492","32.55468947588259","0.010070200","0.000033916","178"
"179","yellowsaltcube","0.0","-0.98540000000000016","1.25920000504032","-0.81739999528004736","1.433200010045246","-0.054399985116529673","0.94719999999999949","SIDE","-0.48262529840061325","0.64369951107221468","0.34611642857979102","-0.48262529840061352","143.85594975436342","-64.105088293723313","101.53708826805752","0.016801267","0.000124720","179"
"180","yellowsaltcube","0.0","-0.81439999513756667","0.94719999999999793","-0.57039999332707125","0.94719999999999949","-0.31239998759198678","0.94719999999999971","SIDE","0.50968852707404744","-0.301185066018057","0.62427779613396028","-0.50968852707404777","-171.79262090093198","71.302230121905126","86.255059633371317","0.007084076","0.000022014","180"
"181","yellowsaltcube","0.0","-0.98539999999999961","1.4442000105677191","-0.9173999967701757","1.463200008210539","0.024600015376134071","0.94719999999999938","SIDE","-0.49132010120402564","-0.41924184451067958","0.5843332885580067","0.49132010120402597","155.61178469554324","-1.982569967172725","116.96380156885296","0.011930946","0.000060664","181"
"182","yellowsaltcube","0.0","-0.80439999466259271","0.94719999999999949","-0.5893999909698977","0.94719999999999782","-0.27239998895172002","0.94719999999999993","SIDE","-0.48262529840061325","0.64369951107221468","0.34611642857979114","-0.48262529840061347","165.724704268019","-64.861346320594478","102.98554643735258","0.006199927","0.000013650","182"
"183","yellowsaltcube","0.0","-0.45139999093449901","0.94719999999999882","-0.64239999348725918","1.0972000038649881","-0.18839998496194629","0.94720000000000448","SIDE","-0.49431943613248464","0.65354144934929104","0.29013818105473954","-0.49431943613248464","151.62564172840655","-77.108663804178747","32.538874248723147","0.012157372","0.000061390","183"
"184","yellowsaltcube","0.0","-0.43539999017454573","0.96220000071245826","-0.35339998953938317","0.94719999999999949","-0.27139998890422401","0.94719999999999949","SIDE","0.70847612638451074","-0.69774010686344023","0.10592601954852192","9.7941111146789548e-17","-21.731381613597499","-162.74778685547963","28.802896759301923","0.003367136","0.000032591","184"
"185","yellowsaltcube","0.0","-0.2783999892367065","0.94719999999999949","-0.20239998562689929","0.94719999999999827","-0.60039999149238199","1.099200003959975","SIDE","-0.49632329734859015","0.5683758766744883","0.42927291066704021","-0.49632329734859054","166.19830248940426","-0.10393048538581993","94.490348346584426","0.013437493","0.000052613","185"
"186","yellowsaltcube","0.0","-0.55739999270960505","1.017200003324823","-0.43339999007954833","0.94720000000000182","-0.31739998782948581","0.94720000000000459","SIDE","0.50056747978542171","-0.59025391006144179","-0.3878978190448133","0.5005674797854216","163.94996730964385","-34.66164229029367","28.98372104437907","0.007127493","0.000031731","186"
"187","yellowsaltcube","0.0","-0.98540000000000016","1.570796326794897","-0.77139999635480438","1.5707963267948959","-0.39339998817965122","1.570796326794897","SIDE","0.50056747978542171","-0.59025391006144179","-0.3878978190448133","0.5005674797854216","139.64468715583911","-29.633463801582216","29.040092408942307","0.000140462","0.000010083","187"
"188","yellowsaltcube","0.0","-0.71539999369495444","0.94719999999999815","-0.51639999076221299","0.94719999999999827","-0.26439998857174152","0.94719999999999949","SIDE","0.70973401597177921","-0.67858701298540813","0.18920172404106664","1.173210315034381e-16","-63.943145707343383","-175.75251016960891","91.272775645972359","0.007440915","0.000021890","188"
"189","yellowsaltcube","0.0","-0.17839998774658661","0.9471999999999986","-0.87139999784491695","1.281200006085256","-0.98540000000000016","0.98520000180490408","SIDE","0.71392826052403913","0.2285290186980711","0.66187682119712909","-2.7214082990185872e-16","-153.3705610922357","64.554334290678796","55.182249135559765","0.012910971","0.000285638","189"
"190","yellowsaltcube","0.0","-0.98540000000000028","1.5707963267948959","-0.74739999521486633","1.570796326794897","-0.10239998413678079","0.94719999999999938","SIDE","2.7700807172450116e-16","0.15281236199167825","0.69621036110935364","0.70138399975085508","-28.024087059858527","-150.43951347441333","114.3580831137168","0.006588191","0.000019915","190"
"191","yellowsaltcube","0.0","-0.55339999251962058","1.522200011012887","-0.41339998912960169","1.4602000080680471","-0.80039999447260401","0.94719999999999949","TOP","-0.33801009087185147","0.21414488566562914","0.91645575256640588","-1.5142889079971027e-17","94.710856309627346","-23.697889582388719","240.94121437899793","0.004523888","0.000092005","191"
"192","yellowsaltcube","0.0","-0.50039999000224455","1.054200001822597","-0.37039999034683818","0.94720000000000149","-0.34339998906441538","0.94719999999999949","SIDE","0.50946574229684483","-0.38903176576423681","0.57405888206542854","-0.50946574229684494","-164.26290076966364","25.761946602867901","23.976168251495626","0.006027791","0.000042041","192"
"193","yellowsaltcube","0.0","-0.98539999999999994","1.5707963267948959","-0.7593999957848343","1.5707963267948959","-0.095399983804301106","0.94720000000000149","SIDE","0.70099145768810323","0.69970531138485226","-0.13792553595377161","-1.3858159552341413e-16","20.641258147640055","147.92588470771963","114.44607354615192","0.007321136","0.000016569","193"
"194","yellowsaltcube","0.0","-0.60039999149237533","1.0042000027073481","-0.45439999107699691","0.94719999999999949","-0.28139998937919702","0.94719999999999938","SIDE","2.71930169732306e-16","0.12118533747369721","0.68907948976172306","0.71448132989680657","-26.920275650891941","-174.75164428692392","46.311844894217913","0.007928756","0.000059673","194"
"195","yellowsaltcube","0.0","-0.98540000000000016","1.570796326794897","-0.96339999895505557","1.5707963267948959","-0.0023999826466647159","0.94719999999999827","SIDE","0.71759242252225608","-0.66282550962201159","0.21383044435477508","0.0","-57.781587820208344","-136.86018203631991","25.899593447307812","0.008033399","0.000017640","195"
"196","yellowsaltcube","5.0323243835914698e-16","-0.41539998922459292","0.94719999999999949","-0.98540000000000016","1.570796326794897","-0.57939999375455098","1.3362000086976209","TOP","0.0091443776307194285","0.86307249204766978","0.50491448205227663","0.0091443776307192897","-4.9186891947586293","0.18051627512444576","254.61953370156999","0.008681148","0.000085794","196"
"197","yellowsaltcube","0.0","-0.64939999381974733","0.94720000000000126","-0.57439999351706506","0.94719999999999971","-0.26339998852424318","0.94720000000000304","SIDE","0.49858548098552058","0.58645705615347554","0.39861404589988236","0.49858548098552058","-177.32280742800398","22.457999390186782","113.26439128447394","0.005899723","0.000011718","197"
"198","yellowsaltcube","0.0","-0.57339999346956683","0.94719999999999938","-0.52239999104719925","1.0372000042747671","-0.2243999866718423","0.94719999999999949","SIDE","0.71759242252225608","-0.66282550962201159","0.21383044435477508","0.0","-65.398503630519571","-160.47088031154289","25.15802720278981","0.008492118","0.000025532","198"
"199","yellowsaltcube","0.0","-0.83439999608752391","0.9471999999999946","-0.58839999092239703","0.94719999999999949","-0.30239998711699911","0.94719999999999938","SIDE","0.50968852707404755","-0.301185066018057","0.62427779613396028","-0.50968852707404777","-172.30021334832378","73.183066102922908","86.21201709430926","0.007113629","0.000025262","199"
"200","yellowsaltcube","0.0","-0.98539999999999994","1.570796326794897","-0.2433999875742911","1.570796326794897","-0.80939999490008119","1.570796326794897","SIDE","0.50482351429726413","0.62961200739799961","0.30642316975937256","0.50482351429726413","-133.90221870684587","57.83241710227459","55.581623868245359","0.000007375","0.000029253","200"
"201","yellowsaltcube","0.0","-0.98540000000000016","1.5362000116778549","-0.92839999729264067","1.549796329057086","0.10060001898594061","0.94719999999999971","SIDE","-0.49405242689883394","-0.46589136925460861","0.54292691129175941","0.49405242689883438","153.47238318192217","9.8108651996847733","52.306480565794352","0.001316522","0.000068012","201"
"202","yellowsaltcube","0.0","-0.48239999240692749","0.94719999999999938","-0.57939999375455042","1.176200004357655","-0.226399986766843","0.94719999999999949","SIDE","0.70953177641417231","-0.64311423905415188","0.28804293739709741","7.8236314533789837e-17","-85.238282356786925","-151.76521559430745","28.359208050725556","0.011159083","0.000035140","202"
"203","yellowsaltcube","0.0","-0.85839999722745175","1.570796326794897","-0.98539999999999994","1.5707963267948959","0.033600015803612618","0.94719999999999949","SIDE","0.70953177641417231","-0.64311423905415188","0.28804293739709741","1.1735447180068475e-16","-75.0562891151109","-129.03185196856577","28.530356776284773","0.006416313","0.000011508","203"
"204","yellowsaltcube","0.0","-0.50339999014474435","1.0752000028200439","-0.35439998958688312","0.94720000000000071","-0.34739998925440152","0.94720000000000182","SIDE","0.50056747978542149","-0.59025391006144179","-0.38789781904481319","0.5005674797854216","161.69507484067512","-28.778436937055119","28.991443149595671","0.005986975","0.000038493","204"
"205","yellowsaltcube","0.0","-0.34739998925439802","0.94719999999999938","-0.98540000000000016","1.1352000056699001","-0.80839999485258029","1.1022000041024691","SIDE","5.9361932107400643e-17","0.70134784946214623","-0.13179175720366892","0.70052989000326882","-168.86386946337925","20.485792401443948","75.04310621700796","0.013557775","0.000206265","205"
"206","yellowsaltcube","0.0","-0.64839999377224367","0.99220000213737436","-0.54439999209213641","0.94719999999999849","-0.24839998781178579","0.94720000000000337","SIDE","0.50344993433270213","0.55403458233741076","0.43141860045089242","0.50344993433270224","-174.06451421203204","12.330097137630446","47.282182781448242","0.010252373","0.000080840","206"
"207","yellowsaltcube","0.0","-0.29939998697451659","0.94719999999999482","-0.36239998996685852","0.94719999999999949","-0.98540000000000016","1.5707963267948959","SIDE","0.70708583622033905","-0.0032414831964841392","-0.0069809182672350987","0.7070858362203396","-0.45134116332412871","20.092318729485555","-119.34366801304921","0.001831457","0.000029528","207"
"208","yellowsaltcube","0.0","-0.98540000000000016","0.94720000000000037","-0.44439999060202318","0.94719999999999849","-0.54039999190215393","0.94719999999999949","SIDE","2.745773489713665e-16","0.48216980543736865","0.51655040995169987","0.70759306999377869","-133.8571954317834","-137.35107433013962","49.097962447638459","0.000189611","0.000027568","208"
"209","yellowsaltcube","0.0","-0.58639999082741234","0.94719999999999793","-0.48639998933728978","0.94719999999999938","-0.26339998852424279","0.94719999999999949","SIDE","2.7700807172450116e-16","0.15281236199167825","0.69621036110935364","0.70138399975085508","-33.363801916893578","-174.76715791616249","114.75965647111065","0.005514356","0.000008074","209"
"210","yellowsaltcube","0.0","-0.6353999931547808","0.99820000242236873","-0.51239999057222174","0.94719999999999949","-0.30939998744949632","0.9471999999999986","SIDE","-0.47543376369303092","-0.42861963063949748","0.60349870332240052","0.47543376369303131","171.52540634881029","-25.414492409512103","63.64735099704744","0.009241602","0.000076180","210"
"211","yellowsaltcube","0.0","-0.61439999215734287","1.000200002517359","-0.51239999057221874","0.94719999999999827","-0.28939998649953702","0.9472000000000127","SIDE","0.49858548098552058","0.58645705615347554","0.39861404589988236","0.49858548098552058","-172.89429100617107","26.996822502423299","113.24461602913405","0.008068823","0.000046474","211"
"212","yellowsaltcube","0.0","-0.98540000000000016","1.570796326794897","-0.57239999342206749","1.5707963267948959","-0.39139998808466231","1.1082000043874549","SIDE","0.7075930699937788","-0.51655040995170021","0.48216980543736865","7.8450671134676166e-17","-110.24753846483563","-112.0579559150741","49.145568774851363","0.002408579","0.000046189","212"
"213","yellowsaltcube","0.0","-0.61839999234733467","1.570796326794897","-0.98540000000000028","1.5707963267948959","-0.085399983329337986","1.302200007082704","SIDE","-1.5405321001321014e-16","0.30670536936286624","0.72067503463897575","-0.62173894107744176","59.354235519812448","125.5546684014144","54.013162948268864","0.007478706","0.000028277","213"
"214","yellowsaltcube","0.0","-0.41939998941458861","0.94719999999999949","-0.67139999486468704","0.94719999999999938","-0.5883999909223997","0.94720000000000426","SIDE","0.50034385811320825","-0.02431075859337636","0.70620183680969983","0.50034385811320836","-128.40513882310424","-131.51026463086947","49.108955931840505","0.007671703","0.000023093","214"
"215","yellowsaltcube","0.0","-0.98539999999999983","1.570796326794897","-0.79039999399762695","1.570796326794897","-0.1583999867966428","1.3732000071953969","SIDE","0.49858548098552058","0.58645705615347554","0.39861404589988236","0.49858548098552058","-148.51399471877997","22.347748708712636","113.10438122715871","0.008554903","0.000025690","215"
"216","yellowsaltcube","0.0","-0.47339999197944799","0.95120000018998829","-0.60039999149236822","1.1682000039776821","-0.21139998605437729","0.94719999999999949","SIDE","0.50649818214488629","-0.27708955372696725","0.64042217496214282","-0.5064981821448864","-151.17494167303346","70.547999998960648","25.676814612882957","0.014369544","0.000063584","216"
"217","yellowsaltcube","0.0","-0.37939999077431807","0.94719999999999793","-0.68639999231751936","0.94719999999999938","-0.93239999748263791","0.94719999999999938","SIDE","1.3627096361974676e-16","0.68814441999390097","-0.13513998063429594","0.71287757915747352","-221.37846155163365","31.935864934788505","89.210028160496279","0.003399746","0.000049708","217"
"218","yellowsaltcube","0.0","-0.59739999134990063","1.0642000022975699","-0.4503999908870075","0.94719999999999915","-0.33839998882691003","0.94719999999999938","SIDE","-0.47543376369303086","-0.42861963063949743","0.60349870332240052","0.47543376369303131","167.11221210884528","-30.010273515460597","63.302287572209792","0.007276137","0.000041130","218"
"219","yellowsaltcube","0.0","-0.57539999356456217","1.012200003087335","-0.46839999174196162","0.94719999999999949","-0.26839998876173188","0.94720000000000026","SIDE","0.70759293656344324","0.69783848216691913","-0.11105714264509764","-9.8063357410084645e-17","20.158980440349914","173.54712123457116","49.112586951250535","0.012143009","0.000078368","219"
"220","yellowsaltcube","0.0","-0.35239998949189122","0.94719999999999938","-0.95539999857507896","1.1712000041201751","-0.98540000000000028","1.3692000070054089","SIDE","0.51930751632597816","0.39978165986841596","-0.54846515970254828","0.51930751632597816","18.640555645963612","165.76059128171542","61.803226556011623","0.015685191","0.000187801","220"
"221","yellowsaltcube","0.0","-0.16839998727161509","0.94719999999999949","-0.33139998849444091","1.4732000086855139","-0.90739999629520152","0.94719999999999815","SIDE","0.71358086626180994","-0.40509131127181219","0.5715797204564983","7.7792376247502978e-17","-133.56961318946401","-100.08001946571009","6.9424131609878152","0.004640753","0.000049393","221"
"222","yellowsaltcube","0.0","-0.40339998865462612","0.94719999999999727","-0.37839999072682129","0.94719999999999938","-0.2483999878117821","0.94719999999999949","SIDE","1.0731159522830094e-16","-0.058902842146522826","-0.70044362501490287","0.71127293169573358","8.6599256343212758","161.99019504556156","27.779934620164148","0.001085704","0.000006634","222"
"223","yellowsaltcube","0.0","-0.476399992121946","1.2792000059902651","-0.29139998659452432","1.0802000030575361","-0.46439999155197431","1.2342000071125161","SIDE","0.50946574229684471","-0.38903176576423681","0.57405888206542866","-0.50946574229684505","-157.99904767621166","19.172411178964623","24.259006396877947","0.019155749","0.000090489","223"
"224","yellowsaltcube","0.0","-0.98540000000000016","1.570796326794897","-0.53839999180715714","1.229200006875022","-0.41239998908210662","0.97720000142492092","TOP","-2.7796811997253334e-17","0.96731286596093802","-0.25325595760402142","0.012932102864824329","-4.8686516336982617","-5.0269979905355724","252.65423864876308","0.014731985","0.000151617","224"
"225","yellowsaltcube","0.0","-0.35639998968186931","0.94719999999999815","-0.65339999400973281","0.94719999999999938","-0.98540000000000016","0.94720000000000026","SIDE","0.71392826052403913","0.2285290186980711","0.66187682119712909","-2.7214082990185872e-16","-204.98466673323367","82.435938923068647","45.566528654506136","0.003918624","0.000038065","225"
"226","yellowsaltcube","0.0","1.0326000306572729","1.5707963267948959","-0.98540000000000016","1.570796326794897","-0.33939998887442041","0.94720000000000004","SIDE","0.7069208339804971","-0.018593813488241389","-0.013421589645080638","0.70692083398049743","-17.309010315443462","-6.6149663917892649","-121.09001981343968","0.000014676","0.000000199","226"
"227","yellowsaltcube","0.0","-0.48339999245442478","0.94719999999999949","-0.30839998740199709","0.94719999999999938","-0.38439999101180627","0.94720000000000026","SIDE","0.68803300173692161","0.68958557173821422","-0.22601399906059264","-3.6306424242739241e-16","60.216308534972725","157.23295379015866","79.668101823512572","0.004466143","0.000023516","227"
"228","yellowsaltcube","0.0","-0.68239999538716023","1.570796326794897","-0.98539999999999994","1.5707963267948959","0.01160001801829766","1.3642000067679241","SIDE","-0.49431943613248464","0.65354144934929115","0.29013818105473954","-0.49431943613248475","128.65174611895489","-69.415525185860261","31.991893355938565","0.008319787","0.000036612","228"
"229","yellowsaltcube","0.0","-0.34939998934939298","0.9471999999999946","-0.65539999410472627","0.94719999999999938","-0.98539999999999994","0.94720000000000026","SIDE","0.71382786397130216","0.20843693256238005","0.66858344711947082","-7.7765458639324759e-17","-205.93235659166169","76.054211806095225","45.642866204459146","0.004647870","0.000059091","229"
"230","yellowsaltcube","0.0","-0.98540000000000016","1.570796326794897","-0.44239999050703249","0.94719999999999938","-0.30739998735449692","0.94719999999999949","TOP","-0.0013593137744085798","0.92734997909262484","-0.37419022008736885","0.0013593137744083857","-2.628321035633415","19.269090748887631","273.12544675212314","0.011209826","0.000043270","230"
"231","yellowsaltcube","0.0","-0.61339999210984408","0.9822000016624115","-0.50739999033471639","0.94719999999999949","-0.29439998673703821","0.94720000000000004","SIDE","-0.48085211717322129","-0.39924204586733991","0.61495387764589438","0.48085211717322185","165.81782123436906","-31.26147289840975","123.54006285233223","0.008763548","0.000039944","231"
"232","yellowsaltcube","0.0","-0.69339999265001162","1.570796326794897","-0.9853999999999995","1.5707963267948959","-0.0053999827891685103","1.4042000086678239","SIDE","-0.49431943613248464","0.65354144934929104","0.29013818105473954","-0.49431943613248475","128.38564884175673","-68.159133584336502","31.97607812877914","0.008208826","0.000027513","232"
"233","yellowsaltcube","0.0","-0.98539999999999994","1.570796326794897","-0.78039999678228034","1.5707963267948959","-0.19039998505694419","1.384200007717874","SIDE","-0.48085211717322129","-0.39924204586734002","0.61495387764589438","0.48085211717322185","141.52169046814905","-26.093868936289976","121.66869995823676","0.012115509","0.000038816","233"
"234","yellowsaltcube","0.0","-0.87239999789241618","0.94719999999999949","-0.6523999939622297","0.94719999999999815","-0.23939998738430759","0.94719999999999993","SIDE","-0.48262529840061325","0.64369951107221468","0.34611642857979119","-0.48262529840061352","167.65547257779278","-71.260292690749679","103.23822418674577","0.006828709","0.000020375","234"
"235","yellowsaltcube","0.0","-0.56139999289959897","0.99520000227987448","-0.46739999169446411","0.94719999999999949","-0.27339998899921869","0.94719999999999949","SIDE","0.70099145768810323","0.69970531138485226","-0.13792553595377161","-1.3858159552341413e-16","25.458086040622383","172.36196927639622","114.87507238284267","0.008220151","0.000036315","235"
"236","yellowsaltcube","0.0","-0.45839999126698988","0.98920000199489333","-0.21439998619684941","0.94719999999999827","-0.59339999115987996","1.141200005954879","SIDE","-0.49081979878532078","-0.32280895346917521","0.64341761694937283","0.49081979878532128","150.1388864029818","-69.887915240058874","77.518688565893626","0.015741393","0.000172946","236"
"237","yellowsaltcube","0.0","-0.43839999031703891","0.96420000080745394","-0.37739999067932412","0.94719999999999938","-0.30839998740199998","0.9472000000000016","SIDE","1.7006821204090531e-16","-0.10513511098326341","-0.67051175635720561","0.73441173263048576","18.441347400249551","164.4901168468067","61.904776937733224","0.004383687","0.000039039","237"
"238","yellowsaltcube","0.0","-0.55439999256711892","1.0302000039422901","-0.38939998798967029","0.94719999999999971","-0.37639999063182489","0.94719999999999827","SIDE","0.51253705136136007","-0.37993382727335151","0.57468411223647753","-0.51253705136136019","-168.55861668966244","28.069494804860874","65.137723214294681","0.012796891","0.000079078","238"
"239","yellowsaltcube","0.0","-0.57339999346957005","1.0522000017276021","-0.43539999017454811","0.94719999999999949","-0.32339998811444448","0.94719999999999949","SIDE","-0.48085211717322129","-0.39924204586733997","0.61495387764589438","0.48085211717322179","161.29926233348414","-35.72980822011607","123.2771254806735","0.008829034","0.000038683","239"
"240","yellowsaltcube","0.0","-0.50739999033473426","0.9972000023748574","-0.27739998918920639","0.94719999999999993","-0.49639998981227151","1.018200003372322","SIDE","0.5018007733796801","0.62342132817049245","0.32823439072292415","0.50180077337967988","-157.82076701293124","62.025218587650421","71.393703799568883","0.011018548","0.000135811","240"
"241","yellowsaltcube","0.0","-0.50439999019224246","1.0312000039897831","-0.23939998738429799","0.94719999999999949","-0.55539999261461581","1.1162000047674301","SIDE","-0.49081979878532078","-0.32280895346917521","0.64341761694937283","0.49081979878532128","150.99309284509462","-67.630908547039894","77.522326936168895","0.010808532","0.000137921","241"
"242","yellowsaltcube","0.0","-0.51539999071472209","0.98920000199488545","-0.28839998645205489","0.94719999999999949","-0.4803999923119332","0.99220000213738935","SIDE","0.50180077337968021","0.62342132817049234","0.32823439072292404","0.50180077337967977","-158.50719913104717","61.499902637563778","71.390095767014827","0.012675314","0.000168585","242"
"243","yellowsaltcube","0.0","-0.98540000000000016","1.544200012057841","-0.88039999827239734","1.570796326794897","-0.0073999828841681929","1.0412000044647449","SIDE","-0.47276149207695289","0.63266248458868191","0.39080855135529247","-0.47276149207695317","140.13516996079818","-45.684736033280437","125.80966224222584","0.014203563","0.000138351","243"
"244","yellowsaltcube","0.0","-0.5053999902397438","0.94719999999999849","-0.90139999601021015","0.94719999999999949","-0.7563999956423445","0.94719999999999949","SIDE","0.68607393989275378","-0.16800983163045136","-0.70786668623091831","-8.0911324572297922e-17","186.07220218364583","-39.014162996417355","82.19524630781838","0.006926749","0.000044863","244"
"245","yellowsaltcube","0.0","-0.32539998820945032","0.94719999999999405","-0.73439999459739447","0.94719999999999949","-0.96539999905005269","0.94720000000000004","SIDE","0.71392826052403913","0.22852901869807102","0.66187682119712909","-2.7214082990185872e-16","-176.91213361198388","72.682632932134041","54.699315917827285","0.005487331","0.000040720","245"
"246","yellowsaltcube","0.0","-0.39439998822714878","0.94719999999999827","-0.98540000000000028","1.5707963267948959","-0.38639998784717772","0.94719999999999938","TOP","0.0091443776307194302","0.86307249204766978","0.50491448205227663","0.0091443776307192897","-5.0960723404304131","-4.9674560875071414","261.74119847411578","0.001531257","0.000050391","246"
"247","yellowsaltcube","0.0","-0.33939998887442019","0.96220000071245859","-0.2313999870043226","0.94719999999999938","-0.43839999031703919","1.0852000032950131","SIDE","0.70027362916542069","0.69073318664839534","-0.18029006949370213","-5.1525927576796028e-16","50.499737142961855","152.53484128847862","114.90289466725056","0.013666778","0.000085771","247"
"248","yellowsaltcube","0.0","-0.98540000000000016","1.570796326794897","-0.59539999125489351","1.570796326794897","-0.53939999185465337","1.570796326794897","SIDE","0.51253705136136007","-0.37993382727335162","0.57468411223647753","-0.51253705136136007","-144.18283336651237","23.096624977146796","66.402576193667898","0.003483198","0.000021266","248"
"249","yellowsaltcube","0.0","-0.32539998820945598","0.94719999999999849","-0.21039998600687701","0.94719999999999949","-0.50939999042973239","0.94719999999999949","SIDE","3.336920317491605e-16","0.15853263709344317","0.68920925191498306","0.70700637200168703","-62.558553380574807","-162.75422055467993","112.45398292420261","0.004075886","0.000006703","249"
"250","yellowsaltcube","0.0","-0.49739998985976369","0.94920000009499295","-0.26939998880922927","0.94720000000000004","-0.4143999891770998","1.0002000025173641","SIDE","1.9572267576437966e-16","0.21478704233043217","0.67164681543440707","0.70905365224626316","-63.648130714509144","-156.14938768731591","71.674054599365945","0.010093262","0.000097177","250"
"251","yellowsaltcube","0.0","-0.20339998567439771","1.155200003360209","-0.0063999828366533172","0.94719999999999949","-0.98539999999999994","1.570796326794897","SIDE","3.336920317491605e-16","0.15853263709344317","0.68920925191498306","0.70700637200168703","-56.974549196038105","-138.47816347725427","112.44690898494285","0.008250270","0.000041596","251"
"252","yellowsaltcube","0.0","-0.49139998957478459","1.0912000035800029","-0.27639998914171049","0.94719999999999938","-0.44439999060202118","1.1372000057648879","SIDE","0.4953494356451778","-0.40273697510208006","0.58911866554849046","-0.49534943564517792","-163.07617628273886","19.398214739348774","74.934048453093155","0.012755568","0.000084587","252"
"253","yellowsaltcube","2.2204460492503141e-16","-0.1223999850867355","0.94719999999999849","-0.98539999999999983","1.167200003930184","-0.8723999978924194","1.151200003170221","SIDE","0.50137664572842067","-0.32304864361316793","0.62680339189886924","0.50137664572842089","-65.713258397238405","-162.60711631245997","71.636668566961077","0.015441682","0.000265154","253"
"254","yellowsaltcube","0.0","-0.36639999015685182","0.94719999999999815","-0.23539998719431041","0.94719999999999949","-0.43139998998455747","1.0632000022500729","SIDE","2.9893100833053635e-16","0.17757516434070353","0.69637077223865984","0.6953666720379289","-54.975553673882288","-153.97446026050642","116.70817729718053","0.010714396","0.000037094","254"
"255","yellowsaltcube","1.4688598389270431e-16","-0.29039998654704469","0.94719999999999649","-0.98539999999999872","1.570796326794897","-0.049399984879046961","1.0152000032298329","SIDE","-1.0447355464961361e-16","-0.22408348935317951","-0.56085443487220099","0.79701247962844823","55.220331472494983","121.57776025762917","-19.006176295076465","0.013447946","0.000050313","255"
"256","yellowsaltcube","0.0","-0.98540000000000028","1.4412000104252221","-0.77739999663978798","1.495200009730455","-0.05039998492654111","0.94719999999999938","SIDE","0.50239979954355141","-0.3401474401839682","0.61602646191011323","-0.50239979954355163","-149.58557094714234","55.800576538465371","111.15267663925675","0.014219372","0.000114090","256"
"257","yellowsaltcube","2.2204460492503131e-16","-0.62739999277481362","0.95920000056996657","-0.47139999188445109","0.94720000000000126","-0.34739998925439391","0.94719999999999949","SIDE","-0.48512753529353786","-0.38173644275803004","0.6193382252618348","0.4851275352935383","167.55022401059705","-40.105065477381572","81.152075536530916","0.009712854","0.000073925","257"
"258","yellowsaltcube","0.0","-0.77339999644979851","0.94719999999999882","-0.71139999350494632","0.94719999999999949","-0.17239998746160459","0.9471999999999986","SIDE","-0.49132010120402569","-0.41924184451067958","0.5843332885580067","0.49132010120402597","180.17686269833115","-6.0236069229357945","117.82115974320439","0.007788629","0.000021090","258"
"259","yellowsaltcube","0.0","-0.0083999829316436809","0.94719999999999183","-0.98540000000000016","1.209200005925076","-0.90539999620020617","1.161200003645193","SIDE","1.9993239659563372e-16","-0.68322536010557644","0.22670456005400363","0.69412401612343455","149.65515923524723","-69.727407212769236","77.500132910323359","0.014619233","0.000231370","259"
"260","yellowsaltcube","0.0","1.032600030657272","1.570796326794897","-0.98539999999999994","1.570796326794897","-0.60139999153987134","1.3312000084601381","TOP","-0.018534868514314937","0.75962092380128365","-0.64983764851045567","0.01853486851431475","-28.936780428412426","-6.2125724386627441","262.45125871151185","0.003375885","0.000028486","260"
"261","yellowsaltcube","0.0","-0.98540000000000016","1.570796326794897","-0.73439999459739969","1.517200010775404","-0.11239998461175731","0.94719999999999949","SIDE","0.6953666720379289","-0.69637077223865995","0.17757516434070347","-5.9872532143980109e-17","-53.96054945766177","-149.99406540912426","116.57283344498981","0.014253528","0.000093661","261"
"262","yellowsaltcube","0.0","-0.98540000000000061","1.570796326794897","-0.65539999410473526","1.5707963267948959","-0.68139999533966167","1.570796326794897","SIDE","-0.48512753529353803","0.61933822526183469","0.38173644275802998","-0.48512753529353847","136.52630216706791","-27.254606456065293","79.205800220700638","0.000001770","0.000013555","262"
"263","yellowsaltcube","0.0","1.032600030657274","1.570796326794897","-0.98539999999999994","1.50420001015794","-0.24839998781178391","0.94719999999999949","TOP","-8.3112493929122976e-17","0.99663771428314063","0.077628498419013897","0.026212262429745954","-29.610782972711533","-26.265070758457469","275.25202743550403","0.004151622","0.000032759","263"
"264","yellowsaltcube","0.0","-0.98540000000000028","1.570796326794897","-0.75139999540485547","1.570796326794897","-0.10139998408928599","0.94719999999999949","SIDE","4.1184586806855605e-16","0.096439441891427183","0.69997319495485921","0.70762769900022759","-18.128279515248842","-149.51332602293502","72.241768748029315","0.009835710","0.000027334","264"
"265","yellowsaltcube","0.0","-0.98540000000000016","1.5587963294845519","-0.19139998510443021","0.98720000189989832","-0.74539999511986776","1.570796326794897","SIDE","7.8153602892912366e-17","0.45717446178123405","0.53524761835774781","0.71028268917199278","-108.32566210988217","-116.6631599640332","91.337386918267882","0.009664925","0.000089088","265"
"266","yellowsaltcube","0.0","-0.98540000000000016","1.570796326794897","1.0986000337921069","1.570796326794897","-0.044399984641559337","0.94720000000000026","SIDE","0.70921689130444177","0.69935925757275719","-0.088927104618026928","-2.9351643999107487e-17","12.456275748806354","147.76801882746466","8.614754263985839","0.000212071","0.000001273","266"
"267","yellowsaltcube","0.0","-0.43739999026954179","0.94719999999999882","-0.98539999999999961","0.94719999999999993","-0.59139999106489627","0.94719999999999938","SIDE","0.50224570607293306","-0.05520605844389187","0.70174838266553308","0.50224570607293306","-133.199452261235","-145.78472744217109","90.992572127235007","0.003518973","0.000035636","267"
"268","yellowsaltcube","0.0","-0.42439998965206932","1.0292000038947819","-0.25039998790677409","0.94719999999999938","-0.52139999099970324","1.1452000061448651","SIDE","0.50239979954355163","0.61602646191011345","0.34014744018396792","0.50239979954355141","-156.32052020628254","57.743770353850365","111.08522478110872","0.015731343","0.000115854","268"
"269","yellowsaltcube","0.0","-0.53539999166466246","1.0512000016801051","-0.98540000000000016","1.570796326794897","-0.37239999044183408","0.94719999999999938","SIDE","0.70709594586600277","-0.0034021460248102181","-0.0043671595060751087","0.707095945866003","-0.88897636464956964","-5.5727380264042141","-116.97168668789709","0.004415947","0.000098972","269"
"270","yellowsaltcube","0.0","-0.92439999710265908","1.570796326794897","-0.98540000000000016","1.5707963267948959","-0.071399985923990605","1.507200010300439","SIDE","0.50530840346424855","-0.33091275052546643","0.61629829329351116","-0.50530840346424866","-134.95417611554524","51.46073554968649","26.806472956198323","0.008195571","0.000024674","270"
"271","yellowsaltcube","0.0","-0.68239999538715879","0.94719999999999915","-0.53539999166465924","0.94719999999999949","-0.31539998773448558","0.94720000000000026","SIDE","-0.48512753529353791","-0.38173644275802998","0.6193382252618348","0.4851275352935383","172.37690336746491","-35.763628830886688","81.368914412662377","0.008689989","0.000021498","271"
"272","yellowsaltcube","0.0","-0.5893999909699007","1.0602000021075799","-0.4443999906020234","0.94719999999999971","-0.28539998630955771","0.94719999999999949","SIDE","4.11845868068556e-16","0.096439441891427197","0.69997319495485921","0.70762769900022759","-21.528156753509052","-174.19018941248754","72.205053381282141","0.008175077","0.000070992","272"
"273","yellowsaltcube","0.0","-0.98540000000000016","1.570796326794897","-0.73239999450240756","1.570796326794895","-0.42239998955707531","1.570796326794897","SIDE","-0.48512753529353803","0.61933822526183469","0.38173644275802998","-0.48512753529353847","138.69296720988771","-33.255890412766924","79.410918076499996","0.003266229","0.000021630","273"
"274","yellowsaltcube","0.0","-0.95039999833759259","1.570796326794897","-0.44939999083950882","1.554796329294561","-0.42939998988956279","1.570796326794897","SIDE","1.7006821204090528e-16","-0.10513511098326345","-0.67051175635720561","0.73441173263048587","14.594622691996904","139.95716951616828","63.865721682254296","0.008212333","0.000072507","274"
"275","yellowsaltcube","0.0","-0.98539999999999994","1.5707963267948959","-0.6353999931547748","1.570796326794897","-0.31839998787696899","1.4302000099027501","SIDE","-0.48512753529353786","-0.38173644275803004","0.61933822526183469","0.48512753529353819","143.35519649307543","-34.362455211093526","79.69222254534921","0.018558641","0.000129221","275"
"276","yellowsaltcube","0.0","-0.61239999206234197","1.570796326794897","0.32760001998897642","1.5707963267948959","-0.73339999454989946","1.570796326794897","SIDE","0.50457786945869643","0.11772508312345271","0.69061070952355019","0.50457786945869676","-106.9684397497789","-81.227173844376267","7.5422840588910276","0.006841560","0.000030744","276"
"277","yellowsaltcube","0.0","-0.27439998904671509","0.94719999999999938","-0.1963999853419181","0.94719999999999827","-0.58839999092240558","1.122200005052437","SIDE","-0.48858447759528656","0.5644650923193254","0.45160776793453966","-0.48858447759528684","165.75691184583994","3.9896391461438094","78.747314269086431","0.016076901","0.000097743","277"
"278","yellowsaltcube","0.0","-0.87239999789241496","0.94720000000000182","-0.65439999405722948","0.94719999999999938","-0.2483999878117861","0.94720000000000459","SIDE","-0.49414285366227806","0.6290004204955375","0.3405938216783112","-0.49414285366227867","170.57722107707508","-71.878448992519381","116.18492668785561","0.006452732","0.000025831","278"
