ipa320/cob_manipulation/cob_grasp_generation/files/database/peanuts/sdh_peanuts.csv
"id","object","sdh_knuckle_joint","sdh_finger_12_joint","sdh_finger_13_joint","sdh_finger_22_joint","sdh_finger_23_joint","sdh_thumb_2_joint","sdh_thumb_3_joint","direction","qw","qx","qy","qz","pos-x","pos-y","pos-z","eps_l1","vol_l1"
"0","peanuts","0.0","1.0326000306572709","1.570796326794897","1.0986000337921069","1.570796326794897","-0.76439999602232167","0.94719999999999938","SIDE","1.1063967450334445e-16","0.5443878342461782","0.0029543394556703628","0.83882844360640052","-273.73663654807422","-0.22240504235004899","-13.888344617258801","0.000024166","0.000000000","0"
"1","peanuts","0.0","-0.65539999410473138","0.94719999999999815","1.0986000337921149","1.5707963267948959","-0.40439998870212418","0.94719999999999949","TOP","1.3691993529350783e-16","0.21526748096488083","0.96289107858268608","-0.16279030199894007","-0.89343836724076409","35.871022747965178","298.51200253023347","0.000041724","0.000000163","1"
"2","peanuts","0.0","-0.60139999153987089","0.94719999999999782","-0.52339999109469526","0.94719999999999949","-0.41639998927209543","0.94719999999999938","TOP","0.0087996073089323112","0.1670102273877124","0.98587662401049048","0.008799607308932117","-7.162115655402701","-16.049722727979439","319.76919780599331","0.000065341","0.000014502","2"
"3","peanuts","0.0","-0.6033999916348658","0.94719999999999882","-0.5923999911123855","0.94719999999999827","-0.50339999014475323","0.94719999999999938","SIDE","1.6919675210663119e-16","0.7074362737587595","0.019704179170986599","0.70650241605639208","-267.4600124730735","-5.1927867144276885","48.024011727846101","0.003589050","0.000058769","3"
"4","peanuts","0.0","1.032600030657276","1.5707963267948959","-0.59539999125488352","0.94720000000000115","-0.50439999019224446","0.94720000000000126","SIDE","0.50098373440003485","-0.55590292105627614","-0.43474422146164338","-0.50098373440003463","-29.690480439886091","-263.50461942454115","46.761643334772721","0.000013903","0.000000087","4"
"5","peanuts","0.0","-0.87939999822490011","0.94719999999999938","-0.87239999789241773","0.94720000000000026","-0.21439998619686859","0.9472000000000016","SIDE","-0.49382449452984989","0.50157467344316975","0.51058553070475265","0.49382449452985022","-0.62976743569831406","-253.99994631806061","16.365671521508251","0.000011973","0.000027254","5"
"6","peanuts","0.0","-0.443399990554532","0.9471999999999986","1.098600033792106","1.570796326794897","-0.60039999149238166","0.94719999999999949","TOP","-0.0041519785848615756","0.43044635723020314","0.90259706164761588","0.0041519785848616875","-35.346637458891109","-1.4962462097899432","317.29807636710848","0.000048593","0.000000105","6"
"7","peanuts","0.0","-0.51539999071471998","0.94719999999999949","-0.29939998697451659","0.94719999999999815","-0.89639999577273011","0.94719999999999882","SIDE","0.5087050824979269","0.67611219307535175","0.15909299310904021","-0.50870508249792701","94.119385675038856","160.79906663479534","6.0289673956812644","0.009644398","0.000042392","7"
"8","peanuts","0.0","-0.24539998766928231","0.9471999999999986","-0.34539998915940429","0.94719999999999938","-0.90039999596271525","0.94719999999999938","SIDE","0.58213679733648982","0.51333260849128592","-0.24232856091092791","0.58213679733648982","-84.893238914393592","233.74436240508655","10.279166286329623","0.007639509","0.000080280","8"
"9","peanuts","0.0","-0.46839999174196101","0.94719999999999616","-0.47439999202694649","0.94719999999999949","-0.5893999909699047","0.94720000000000459","SIDE","0.50179850851086016","-0.50418006992139552","0.49213714633891359","0.50179850851086016","0.19275523172779274","-265.92764902171638","29.527767150203665","0.008399175","0.000067738","9"
"10","peanuts","3.3285334820003641e-16","-0.50239999009722913","0.94719999999999793","-0.46339999150447853","0.94719999999999949","-0.58339999394454056","0.94719999999999949","TOP","0.01244452399984935","-0.57902598193775945","0.81521411056447657","1.319320337035009e-16","-7.005883391570487","-15.938754899029739","312.07158226481084","0.009334536","0.000025059","10"
"11","peanuts","0.0","-0.60439999168237246","0.94719999999999793","-0.51939999090470368","0.94719999999999949","-0.44939999083951282","0.94719999999999949","TOP","1.3836619795820168e-16","0.79611163962027331","0.60501378663405847","0.012828688313235749","-20.857899158346353","-2.4996524968033955","317.29421203792094","0.000042928","0.000015225","11"
"12","peanuts","0.0","-0.39239998813214533","0.94719999999999693","-0.35439998958688029","0.94719999999999949","-0.78239999687727657","0.94719999999999949","SIDE","0.71098820565240795","0.060371832262106108","0.70060760293654067","-2.537471649561912e-16","-256.51990218929899","19.281527638913776","8.8038534977959984","0.013018823","0.000066028","12"
"13","peanuts","0.0","-0.44939999083950949","0.94719999999999938","-0.30039998702201443","0.94719999999999949","-0.78939999395013138","0.94719999999999827","SIDE","0.4977839418671714","-0.28343686648750277","0.6512187321891979","0.49778394186717156","-93.054115620672121","-234.26721604075644","13.002047960507305","0.012228869","0.000070841","13"
"14","peanuts","0.0","-0.34739998925439958","0.9471999999999986","-0.46139999140948001","0.94719999999999949","-0.60039999149237289","0.94719999999999938","TOP","2.7881432201763478e-17","0.99937462434641688","-0.029531073565932323","-0.019449316350497875","26.248228808174012","-13.012985146368727","316.07986241195459","0.001468796","0.000010736","14"
"15","peanuts","0.0","-0.34539998915940562","0.94719999999999815","-0.2443999876217928","0.94720000000000037","-0.89839999586772834","0.94719999999999949","SIDE","0.57939725908986461","-0.52583044878699214","-0.22825418166328115","-0.57939725908986528","-91.40835025452354","-230.61862562370348","12.911715508406976","0.005018715","0.000019718","15"
"16","peanuts","0.0","-0.33139998849444258","0.94719999999999949","1.0986000337921169","1.5707963267948959","-0.82939999585002777","0.94720000000000115","SIDE","0.79748866782440431","-0.18004569657089484","-0.57584318337370133","1.7401862079963933e-17","244.49835581124299","-80.915195174614979","26.339678690154138","0.000238476","0.000001479","16"
"17","peanuts","0.0","-0.35039998939689132","0.94719999999999882","1.0986000337921089","1.5707963267948959","-0.89839999586772057","0.94719999999999949","SIDE","1.3036197694067149e-16","0.47102577481225383","-0.22985474949301432","0.85164635477293016","-219.79099215794881","108.28077956917781","-12.796267356322319","0.000214967","0.000000956","17"
"18","peanuts","0.0","-0.49639998981226519","0.94719999999999827","-0.46639999164696733","0.94719999999999949","-0.58139999384954677","0.94719999999999971","TOP","0.0090712525000178606","0.13512658771674291","0.99074529019732971","0.0090712525000175535","-20.751683243609655","-2.41893254551151","312.09592329609319","0.010509122","0.000028688","18"
"19","peanuts","0.0","1.03260003065727","1.570796326794897","1.098600033792112","1.570796326794897","-0.7813999968297799","0.94720000000001003","SIDE","0.58306133346243139","-0.40972878305887522","-0.39012983374142929","-0.58306133346243194","-8.0572423073115296","-268.39921554230801","0.4893976023875482","0.000006052","0.000000000","19"
"20","peanuts","0.0","-0.58839999092240802","0.94719999999999938","-0.59839999139738198","0.94719999999999904","-0.50039999000225399","0.94719999999999938","SIDE","0.50269784794902783","0.47701916165579322","-0.51676151825386107","0.50269784794902828","6.3685719930979259","265.14272218485615","45.235586240859888","0.000006082","0.000016838","20"
"21","peanuts","0.0","-0.57839999370705519","0.94719999999999938","-0.59839999139737743","0.9471999999999986","-0.49639998981226469","0.94719999999999971","SIDE","0.71173574675464013","-0.031324032022668986","-0.7017485531224541","-2.4373139664359539e-17","261.77030472522779","-8.8944287262431327","44.724430260587141","0.000135639","0.000020433","21"
"22","peanuts","0.0","-0.23739998728930811","0.94719999999999882","-0.37639999063182827","0.9471999999999986","-0.90439999615270772","0.94719999999999949","SIDE","0.58213679733648971","0.51333260849128592","-0.24232856091092803","0.58213679733648982","-87.410375380788651","229.46559713468642","11.487978456926724","0.007329038","0.000027927","22"
"23","peanuts","0.0","-0.29639998683202562","0.94719999999999493","-0.46639999164696722","0.94719999999999949","-0.79039999399763672","0.94720000000000415","SIDE","0.50149434904176082","0.2701796397476644","0.65116034739853668","-0.50149434904176127","-95.945560251332836","233.17497255129592","9.8977050690924884","0.007005065","0.000064310","23"
"24","peanuts","0.0","-0.5813999938495461","0.94719999999999938","-0.58039999380204421","0.94719999999999938","-0.48339999245442328","0.94719999999999993","TOP","0.0070164567999962072","-0.56470033877503167","0.82526619749105101","5.5703447267248432e-17","-5.1008788273254613","-0.75154440542024548","313.98745664859541","0.007614845","0.000022380","24"
"25","peanuts","0.0","-0.58239999389704489","0.94719999999999827","-0.5803999938020491","0.94720000000000026","-0.485399989289795","0.94719999999999993","TOP","-0.0049613841831796504","0.98285476341612421","-0.18424788564379302","0.004961384183179568","-5.0904560263504974","-0.744412453018928","313.08754520764114","0.006447632","0.000013258","25"
"26","peanuts","0.0","-0.29539998678452262","0.94719999999999249","-0.47339999197944782","0.94719999999999882","-0.78839999390263482","0.94720000000000004","SIDE","0.50149434904176116","0.2701796397476644","0.65116034739853668","-0.50149434904176127","-94.064141183436874","232.76263964805003","9.9042900308354778","0.011990494","0.000114291","26"
"27","peanuts","0.0","-0.28539998630955421","0.94719999999998439","-0.50639999028723848","0.94719999999999849","-0.89639999577273133","0.94720000000000149","SIDE","0.50339068330640779","-0.68520758456567599","0.15390323574989251","0.50339068330640835","94.237386077542055","-157.39902818057783","9.1936018401468402","0.011066681","0.000064119","27"
"28","peanuts","0.0","-0.57939999375455242","0.94719999999999993","-0.58239999389704356","0.94719999999999949","-0.48239999240692799","0.94719999999999949","TOP","0.0049613841831799557","0.18424788564379319","0.98285476341612421","0.0049613841831796244","-5.1031950053168629","-0.75312928373261223","314.18743696880875","0.010761654","0.000038404","28"
"29","peanuts","1.110223024625157e-16","-0.46139999140948168","0.94719999999999949","-0.44639999069701869","0.94719999999999815","-0.58839999092239792","0.94719999999999938","SIDE","0.50269784794902794","0.51676151825386074","0.47701916165579344","-0.50269784794902839","6.4884423833837523","267.9614952171483","28.706429233220309","0.000231011","0.000026407","29"
"30","peanuts","0.0","-0.46439999155197198","0.94719999999999793","-0.58539999077990823","0.94719999999999949","-0.51739999080971344","0.94719999999999949","TOP","-0.0087996073089322262","0.98587662401049048","-0.16701022738771221","0.0087996073089320198","-7.0200863246416843","-15.948842883481085","312.77136549582769","0.008025756","0.000034496","30"
"31","peanuts","0.0","-0.6073999918248566","0.94719999999999827","-0.61139999201483752","0.94719999999999938","-0.50439999019224613","0.94719999999999949","SIDE","0.70650241605639219","-0.019704179170986304","0.70743627375875917","-6.6294937974614465e-17","-264.66110185337243","-5.114828828497008","48.019227445352641","0.012293586","0.000048286","31"
"32","peanuts","0.0","-0.40039998851214181","0.94719999999999782","-0.34739998925440502","0.94719999999999938","-0.83339999604001835","0.94719999999999949","SIDE","0.71098820565240795","0.060371832262106108","0.70060760293654067","-2.537471649561912e-16","-231.61371506538387","17.135344604314543","9.0790649266375709","0.019115232","0.000186675","32"
"33","peanuts","0.0","-0.22139998652935741","0.94719999999999815","-0.38939998798966752","0.94719999999999949","-0.90739999629520118","0.94719999999999949","SIDE","0.58832262564551929","-0.2066489786155104","-0.51482926873313084","-0.58832262564551963","94.353387606869276","-217.65009244334888","6.1304096844351275","0.009167226","0.000058273","33"
"34","peanuts","0.0","-0.24439998762179199","0.94719999999999949","-0.4993999899547571","0.94719999999999949","-0.8703999977974235","0.94719999999999938","SIDE","0.70706349430198567","-0.42763656410437179","0.56319462361289763","-3.9254714518997004e-17","-147.17798558844308","-108.42639502982809","11.163507706124731","0.009815690","0.000052391","34"
"35","peanuts","0.0","-0.51339999061972053","0.94719999999999793","1.0986000337921","1.570796326794897","-0.55439999256711525","0.94719999999999971","TOP","-0.081816485576229558","0.36724777740981068","0.92289825840309359","-0.081816485576229767","11.686603189980048","7.885627636501245","312.0825243259975","0.000367215","0.000000943","35"
"36","peanuts","0.0","-0.39339998817965022","0.94719999999999427","-0.35039998939688782","0.94719999999999949","-0.8293999958500301","0.94719999999999949","SIDE","0.71098820565240795","0.060371832262106108","0.70060760293654067","-2.537471649561912e-16","-206.70752794147006","14.989161569715305","9.3542763554790298","0.009411406","0.000050202","36"
"37","peanuts","0.0","-0.37839999072682129","0.94719999999999915","-0.25039998790676998","0.9471999999999986","-0.91239999653269033","0.94720000000000548","SIDE","0.56717254197019473","0.27069940620355043","-0.53230860104941025","0.56717254197019495","74.194750409241507","224.10174470209563","30.008655416054633","0.009883631","0.000049539","37"
"38","peanuts","0.0","-0.40239998860712539","0.94719999999999793","-0.47839999221693802","0.94719999999999971","-0.5913999910648986","0.94719999999999949","TOP","0.01244452399984935","-0.57902598193775945","0.81521411056447657","1.319320337035009e-16","-20.78040283960658","-15.981989118101003","314.79231819023192","0.009145694","0.000020794","38"
"39","peanuts","0.0","-0.62039999244232702","0.94719999999999815","-0.69339999264999475","0.9471999999999986","-0.55339999251961736","0.94719999999999971","SIDE","3.1601451108487904e-16","0.67082364986371212","0.23725916272836506","0.70264053433100693","-230.36505442374497","-79.23694717130148","50.154104976366519","0.000136122","0.000035548","39"
"40","peanuts","0.0","-0.5753999935645624","0.94719999999999938","-0.44239999050703033","0.94720000000000004","-0.71639999374244756","0.94719999999999915","SIDE","0.70652155192200783","-0.22417359269089307","-0.67124771657695426","-1.1785447538064411e-16","178.96211148047888","-60.078816898762938","67.890344936577534","0.010836346","0.000070605","40"
"41","peanuts","0.0","-0.45939999131448811","0.94719999999999693","-0.63739999324977936","0.94719999999999915","-0.71139999350495653","0.9472000000000006","SIDE","0.50149434904176071","0.27017963974766451","0.65116034739853679","-0.50149434904176127","-71.450303422988512","177.31702372064495","30.263469741616088","0.009424760","0.000052099","41"
"42","peanuts","0.0","-0.61639999225232167","0.94719999999999704","-0.6833999954346559","0.94720000000000004","-0.54939999232962455","0.94720000000000026","SIDE","0.71011021297083543","0.23592799172581061","-0.66338636416099239","-1.9543146337460756e-16","224.11906505186249","80.087681514763645","45.956717608397483","0.005727478","0.000026296","42"
"43","peanuts","0.0","-0.67639999510217497","0.94720000000000204","-0.61539999220482411","0.94720000000000149","-0.56139999289959985","0.94719999999999938","SIDE","0.50017825337560229","-0.64968329509824252","-0.27848706571500498","-0.50017825337560207","-89.981317653987645","-223.13786469848961","47.501518965593405","0.000425846","0.000062817","43"
"44","peanuts","0.0","-0.56439999304209088","0.94719999999999938","-0.39139998808465382","0.94719999999999938","-0.54339999204464817","0.94720000000000149","TOP","0.0087996073089323112","0.1670102273877124","0.98587662401049048","0.008799607308932117","-20.7134461551024","-15.934431477125473","311.49334010115439","0.009252691","0.000021704","44"
"45","peanuts","0.0","-0.22439998667184291","0.94719999999999638","-0.40839998889210899","0.94719999999999793","-0.90639999624770662","0.94719999999999915","SIDE","0.807509404540385","0.27816450574310353","-0.52014716121836879","-2.0623097732039456e-16","211.56192744646285","114.99441665591881","24.016458148412351","0.007589143","0.000022551","45"
"46","peanuts","0.0","-0.5733999934695666","0.94720000000000004","-0.44039999041203148","0.94719999999999938","-0.71439999364745199","0.94720000000000115","SIDE","0.70652155192200783","-0.22417359269089307","-0.67124771657695426","-1.1785447538064411e-16","179.2792290043279","-59.444952751459113","67.890510395921751","0.004451748","0.000034766","46"
"47","peanuts","0.0","-0.56739999318458101","0.94719999999999849","-0.42739998979456029","0.94719999999999938","-0.71739999378994246","0.94720000000000393","SIDE","0.50017825337560229","-0.64968329509824252","-0.27848706571500481","-0.50017825337560218","-90.798240544322397","-225.19592883208483","67.499950056175706","0.010153683","0.000102389","47"
"48","peanuts","0.0","-0.26139998842924828","0.94719999999999105","-0.41239998908209841","0.94719999999999938","-0.86039999732244832","0.94719999999999938","SIDE","3.4105707584331045e-16","0.62500414405766691","0.27003185717643691","0.73242925666618997","-232.1905616526987","-94.041099401515737","72.661123395178166","0.008161668","0.000091516","48"
"49","peanuts","0.0","-0.48139999235942887","0.94719999999999915","-0.34439998911190778","0.94720000000000115","-0.82339999556504684","0.94719999999999938","SIDE","0.71499870774864327","-0.19941895630392467","-0.67008128446064197","-7.7638114068833675e-17","188.30114970275889","-57.639371093594292","74.443879327871883","0.012597581","0.000107128","49"
"50","peanuts","0.0","-0.56339999299459509","0.94719999999999971","1.098600033792112","1.5707963267948959","-0.48339999245442478","0.94720000000000026","TOP","1.2839977337363024e-16","-0.37104464592869169","0.91870252779315897","0.13532012471953914","38.99810892798272","-86.036932481192935","299.42820313443747","0.000341354","0.000000561","50"
"51","peanuts","0.0","-0.40739998884461659","0.94719999999999882","-0.216399986291854","0.94719999999999938","-0.90439999615270572","0.94720000000000326","SIDE","0.57389577963602711","0.14825872420974134","-0.56507222452321348","0.57389577963602711","118.32807205793694","212.15544977064593","20.729860207892699","0.009963570","0.000094119","51"
"52","peanuts","0.0","-0.4253999896995655","0.94719999999998972","-0.63639999320227625","0.94719999999999815","-0.75139999540485924","0.94719999999999915","SIDE","1.1793649791693299e-16","0.58277485219637759","0.40236159937076227","0.70603017994933648","-151.9370708060257","-103.99665820262361","68.070962154975547","0.007619209","0.000063378","52"
"53","peanuts","0.0","-0.34839998930190202","0.94719999999999815","-0.38439999101180711","0.94719999999999949","-0.77839999668728754","0.94719999999999949","SIDE","1.6630901900567969e-16","-0.70161947376242617","-0.068109466272005703","0.70928923200728111","251.35773569550162","21.573660439819346","9.8308322373666925","0.018388353","0.000087424","53"
"54","peanuts","0.0","-0.88939999544025239","0.94719999999999938","-0.74239999497737785","0.94719999999999938","-0.21239998610188141","0.94719999999999938","TOP","1.216988166533008e-16","0.91227101064424687","0.39290422307991729","-0.11570598352760693","10.778828445668909","7.4946599015996975","307.89766051174229","0.008618030","0.000023454","54"
"55","peanuts","0.0","-0.53039999142718219","0.94719999999999571","-0.50239999009724601","0.94719999999999949","-0.64539999362975609","0.94720000000000304","SIDE","-5.3976931846542664e-17","0.70704123346600012","-0.034729535179063208","-0.70631901685083009","239.7468607880717","-8.8135531081670067","31.592499844716237","0.010960129","0.000029764","55"
"56","peanuts","0.0","-0.51939999090470534","0.94719999999999815","1.09860003379211","1.5707963267948959","-0.43939999036453609","0.94720000000000026","SIDE","2.8954598030166443e-16","0.21384349324261684","-0.45822140171387021","0.86273061114647542","-68.667331849526775","153.36362564038942","15.168446330446896","0.000003052","0.000000003","56"
"57","peanuts","0.0","-0.41839998936708789","0.94719999999999582","-0.30939998744949032","0.94719999999999938","-0.79039999399763416","0.94720000000000415","SIDE","3.9119758166310537e-16","-0.67703334071862609","0.19552932562599273","0.70950274021713355","241.14095759225361","-71.65799506908499","9.7053020336130835","0.012560573","0.000067769","57"
"58","peanuts","0.0","-0.43239999003205248","0.94719999999999427","-0.55939999280459962","0.94719999999999882","-0.7033999931249828","0.94720000000000337","SIDE","0.70856937670185893","0.20820472766253798","-0.67422565197366047","-1.5668515478228173e-16","227.4258808482532","72.725321561070572","66.819893392317752","0.008135688","0.000065194","58"
"59","peanuts","0.0","-0.47039999183694631","0.94719999999999727","-0.59139999106486851","0.94719999999999827","-0.51039999047722628","0.94719999999999971","TOP","0.012828688313236046","-0.60501378663405836","0.79611163962027343","9.5875790711194873e-17","-20.800705973489599","-2.4561879076445683","314.49513348462818","0.002184165","0.000018777","59"
"60","peanuts","0.0","-0.67239999491218649","0.9471999999999986","-0.65339999400973603","0.94719999999999793","-0.50039999000225355","0.94719999999999938","SIDE","0.50269784794902816","0.51676151825386074","0.47701916165579333","-0.50269784794902839","3.2839074700818927","188.00889647896526","46.070929253847815","0.013316025","0.000092702","60"
"61","peanuts","0.0","-0.35039998939689548","0.94719999999999827","-0.40239998860712872","0.94719999999999971","-0.8203999954225587","0.94719999999999949","SIDE","1.5652613553475735e-16","-0.70161947376242617","-0.068109466272005703","0.70928923200728111","201.59262192487071","16.742729337369646","10.139953701514548","0.007821837","0.000124849","61"
"62","peanuts","0.0","-0.34239998901691149","0.94719999999999949","-0.40239998860713161","0.94719999999999938","-0.82839999580253498","0.94719999999999993","SIDE","1.7609190247660209e-16","-0.70161947376242628","-0.068109466272005717","0.70928923200728122","226.47517881018572","19.158194888594608","9.9853929694405643","0.009173018","0.000032017","62"
"63","peanuts","0.0","1.032600030657278","1.570796326794897","-0.39739998836964241","0.94719999999999949","-0.59139999106489971","0.94719999999999949","TOP","1.8035452133910498e-16","-0.33386096483555772","0.94260404110460516","0.0058717844253941978","-35.332130798123252","-1.5372034899228091","320.99782113592278","0.000037085","0.000000194","63"
"64","peanuts","0.0","-0.68339999543465568","0.94719999999999938","-0.65539999410473038","0.94719999999999949","-0.49839998990725448","0.94720000000000415","SIDE","2.1935825697923576e-16","-0.70174855312245388","0.031324032022668903","0.71173574675464024","185.15321264200898","-5.4744626497615911","45.731926672147871","0.011926221","0.000075649","64"
"65","peanuts","0.0","-0.50339999014474623","0.94720000000000326","-0.48339999245442422","0.94719999999999938","-0.66839999472219491","0.94719999999999938","SIDE","0.50269784794902805","0.47701916165579322","-0.51676151825386107","0.50269784794902816","5.5414663624602234","244.67706194374529","65.459570698294002","0.009889393","0.000022858","65"
"66","peanuts","0.0","-0.3753999905843291","0.94719999999999827","-0.33039998844694363","0.94719999999999971","-0.78839999390263227","0.94719999999999827","SIDE","0.49458641081658422","0.60598167866656349","0.37888622248848164","-0.49458641081658461","57.242348964366641","251.05172239153495","15.789858235371934","0.008938933","0.000064014","66"
"67","peanuts","0.0","-0.60839999187235161","0.94719999999999793","-0.71439999364744322","0.94719999999999815","-0.56239999294709753","0.9472000000000016","SIDE","0.5014943490417606","0.2701796397476644","0.65116034739853679","-0.50149434904176138","-90.661864888406114","223.15206596990288","46.463243338617787","0.006639655","0.000064910","67"
"68","peanuts","0.0","-0.43639999022204018","0.94719999999999782","-0.58339999394454045","0.94719999999999949","-0.71439999364745244","0.94719999999999949","SIDE","3.1601451108487904e-16","0.67082364986371212","0.23725916272836506","0.70264053433100693","-182.68029583881696","-62.466131934696747","69.520699256918277","0.001232500","0.000040301","68"
"69","peanuts","0.0","-0.42139998950957658","0.94719999999999582","-0.30939998744949582","0.94719999999999849","-0.78939999395014226","0.94719999999999949","SIDE","3.9119758166310537e-16","-0.67703334071862609","0.19552932562599268","0.70950274021713355","241.14955933704476","-70.54701453915591","9.7073385167651942","0.008707198","0.000073755","69"
"70","peanuts","0.0","-0.22639998676684289","0.94719999999999915","-0.38439999101180572","0.94719999999999949","-0.90139999601021725","0.94719999999999993","SIDE","0.80750940454038511","0.27816450574310342","-0.52014716121836879","-1.718591477669955e-16","216.82831772721212","113.83294706839331","22.708643696384474","0.000734467","0.000049150","70"
"71","peanuts","0.0","-0.61839999234732723","0.9472000000000016","-0.43339999007954932","0.94719999999999915","-0.76939999625981015","0.94720000000000026","SIDE","-0.49930161450115695","-0.1936039531072592","0.68111181523617548","-0.49930161450115712","88.214137968910748","164.75392393122297","68.048766868515457","0.010036916","0.000047032","71"
"72","peanuts","0.0","-0.70339999312498624","0.94719999999999915","-0.60939999191985261","0.94719999999999938","-0.54539999213964285","0.94719999999999915","SIDE","0.70668778827984324","-0.22444083502108766","-0.67098336899745914","-3.9275584035757961e-17","225.63112517957458","-75.107156816195612","47.878201065773226","0.002731194","0.000032198","72"
"73","peanuts","0.0","-0.52539999118969449","0.94719999999999849","-0.49939998995475421","0.94719999999999949","-0.38339999096430882","0.94719999999999971","TOP","0.018997693543927607","0.96695655903059963","-0.25352157349567783","0.018997693543927333","-8.7402153194096073","31.651078032567614","320.12025349487112","0.000361202","0.000026265","73"
"74","peanuts","0.0","-0.3623999899668634","0.94719999999999793","-0.35639998968187891","0.94720000000000304","-0.82739999575503143","0.94720000000000004","SIDE","-0.49382449452985017","0.51058553070475232","-0.50157467344316964","-0.49382449452985028","-0.83000763530338706","-231.50761784949898","15.813308324835296","0.011593843","0.000128917","74"
"75","peanuts","0.0","-0.74039999488238528","0.94719999999999915","-0.60139999153986223","0.95820000052246901","-0.53539999166466468","0.94720000000000326","SIDE","0.50147460754299455","0.35607234250715508","-0.60848904910496626","0.501474607542995","47.540782635387302","183.41539514795554","46.773619434995695","0.015041960","0.000104521","75"
"76","peanuts","0.0","-0.42739998979456523","0.94719999999999693","-0.60939999191984262","0.94719999999999915","-0.78639999380764047","0.94720000000000026","SIDE","0.70749563831255424","0.36340012665802757","-0.60612727187748372","-2.7461516197159971e-16","159.13091892103773","95.933324970857498","67.482855891770058","0.000163316","0.000024452","76"
"77","peanuts","0.0","-0.64539999362976108","0.94719999999999827","-0.66439999453220555","0.94720000000000037","-0.50539999023973992","0.94719999999999915","SIDE","0.70650241605639219","-0.0197041791709863","0.70743627375875928","-6.8750306047748343e-17","-189.69028636089845","-3.0266712998905376","47.891077029380611","0.012913158","0.000094190","77"
"78","peanuts","0.0","-0.70639999326747338","0.94719999999999882","-0.60739999182485205","0.94719999999999971","-0.54539999213963852","0.94719999999999949","SIDE","0.70668778827984324","-0.22444083502108769","-0.67098336899745925","0.0","225.24645480663264","-75.62667903276288","47.877964117799991","0.006926097","0.000050854","78"
"79","peanuts","0.0","-0.52039999095220568","0.94719999999999405","-0.52239999104719603","0.9472000000000016","-0.6413999934397635","0.94720000000000115","SIDE","0.50179850851086016","-0.50418006992139552","0.4921371463389137","0.50179850851086005","-0.10940082286237078","-240.93012436556063","29.70794146457601","0.010711337","0.000054512","79"
"80","peanuts","0.0","-0.48339999245442561","0.94719999999999915","-0.51239999057222252","0.94719999999999882","-0.67439999500718339","0.94719999999999915","SIDE","1.3654554409343258e-16","0.71144404820877316","0.048070577788207849","0.70109670218837927","-244.94417824307769","-12.528295845597006","71.043748530703269","0.009591591","0.000024339","80"
"81","peanuts","0.0","-0.66739999467469713","0.94719999999999815","-0.64039999339226672","0.94719999999999904","-0.49239998962228121","0.94719999999999938","SIDE","2.2910751284497957e-16","-0.70174855312245388","0.031324032022668896","0.71173574675464024","235.09916569106792","-7.703905982063608","45.075149351309399","0.010133743","0.000037786","81"
"82","peanuts","0.0","-0.36239998996686118","0.94719999999999949","-0.37339999048933548","0.94719999999999815","-0.77939999673478366","0.94720000000000037","SIDE","0.50325794355897047","0.49626701964524067","0.4971739431044454","-0.50325794355897058","-2.7166133146012688","255.98571948710313","8.3564122760457753","0.014294916","0.000071899","82"
"83","peanuts","0.0","-0.44739999074451547","0.94719999999999638","-0.56739999318458256","0.94719999999999915","-0.7193999938849428","0.94720000000000326","SIDE","0.70856937670185904","0.20820472766253795","-0.67422565197366036","-1.5668515478228171e-16","179.6523158507153","57.972572150448038","67.026949552283938","0.009822516","0.000073117","83"
"84","peanuts","0.0","-0.48939998947978169","0.94719999999999427","-0.50539999023973314","0.94719999999999971","-0.66739999467469968","0.94719999999999949","SIDE","-0.49651023899638191","0.49445429577115874","0.51231837224225985","0.49651023899638214","1.0349336937738318","-241.61891664317747","70.432169930974453","0.010519485","0.000047683","84"
"85","peanuts","0.0","-0.58539999077991378","0.94719999999999827","1.09860003379211","1.570796326794897","-0.41439998917710041","0.94719999999999949","SIDE","0.99981436331135454","-0.019240471580817233","-0.0010213567733446808","2.7750562742837488e-17","-2.064127649335723","-41.375812836095037","-220.04918240069071","0.000081159","0.000000099","85"
"86","peanuts","0.0","-0.68539999227003467","0.94719999999999949","-0.60439999168235958","0.94719999999999938","-0.57639999361205929","0.94719999999999949","SIDE","0.50134051002877422","0.22532033060727216","-0.66824107522899667","0.501340510028775","105.45602493704222","215.34208291341298","46.579504619479458","0.002276400","0.000077050","86"
"87","peanuts","5.5511151231257827e-16","-0.60839999187235583","0.94719999999999405","-0.7053999932199726","0.94719999999999882","-0.56339999299459609","0.94719999999999938","SIDE","0.50149434904176093","0.27017963974766451","0.65116034739853657","-0.50149434904176127","-91.627611519688116","222.96914292923287","46.462046072846377","0.008046672","0.000087567","87"
"88","peanuts","0.0","-0.43239999003205959","0.94719999999999671","-0.57139999337457203","0.94719999999999815","-0.7123999935524622","0.94719999999999971","SIDE","3.1601451108487904e-16","0.67082364986371212","0.23725916272836506","0.70264053433100693","-229.81508461702879","-79.136922422135427","70.150327208421942","0.015422826","0.000073265","88"
"89","peanuts","0.0","-0.79439999418763518","0.94719999999999938","-0.79739999433010766","0.94719999999999915","-0.34939998934939381","0.94719999999999949","SIDE","0.70109670218837949","-0.04807057778820778","0.71144404820877272","-6.9280396235981157e-17","-251.42846231039749","-12.966423457237752","71.153772916396292","0.000036737","0.000039531","89"
"90","peanuts","0.0","-0.36339999001436252","0.94719999999999938","-0.37739999067932489","0.94719999999999882","-0.82039999542254838","0.94720000000000426","SIDE","0.50325794355897047","0.49626701964524061","0.4971739431044454","-0.50325794355897058","-2.6937924928491785","230.98786668907013","8.6832680515661629","0.017268319","0.000214902","90"
"91","peanuts","0.0","-0.46639999164696971","0.94719999999999938","-0.62439999263230117","0.94719999999999949","-0.7013999930299879","0.94719999999999949","SIDE","1.5634517069968597e-16","-0.66338636416099206","-0.23592799172581058","0.71011021297083565","177.19975280292297","62.982079138315768","29.883970969391548","0.009546842","0.000079796","91"
"92","peanuts","0.0","-0.36839999025184739","0.9471999999999976","-0.36439999006185492","0.94720000000000149","-0.78039999678228178","0.94720000000000204","SIDE","-0.49382449452985017","0.51058553070475232","-0.50157467344316964","-0.49382449452985028","-0.60751853367912978","-256.49909290932777","16.427045185069101","0.009633639","0.000058477","92"
"93","peanuts","0.0","-0.61339999210984009","0.94719999999999849","-0.68939999246001982","0.94719999999999849","-0.55939999280460584","0.94719999999999938","SIDE","0.70264053433100737","-0.23725916272836484","0.67082364986371168","-7.90036277712197e-17","-227.9140452543391","-78.370066011861795","50.121364320845352","0.006560198","0.000085449","93"
"94","peanuts","0.0","-0.61039999196734507","0.94719999999999693","-0.59239999111238606","0.94719999999999949","-0.49839998990726919","0.94719999999999938","SIDE","2.2423288491210765e-16","-0.70174855312245388","0.031324032022668903","0.71173574675464024","260.07214221559764","-8.8186276482147257","44.74676069089012","0.002549432","0.000024274","94"
"95","peanuts","1.110223024625157e-16","-0.7033999931249828","0.94719999999999849","-0.61839999234732501","0.94719999999999949","-0.52239999104719781","0.94720000000000337","SIDE","0.50147460754299455","0.35607234250715508","-0.60848904910496626","0.501474607542995","60.198839523230681","231.78569967893671","46.478263032915692","0.008654585","0.000075987","95"
"96","peanuts","0.0","-0.79739999433011022","0.9471999999999885","-0.79639999428259933","0.94719999999999949","-0.34239998901691687","0.9472000000000006","SIDE","-0.49651023899638214","0.51231837224225918","-0.49445429577115863","-0.49651023899638247","1.1608833915188745","-248.71711247996365","70.530933277641708","0.014429385","0.000106596","96"
"97","peanuts","0.0","-0.64539999362975564","0.94719999999999793","-0.46139999140947868","0.94719999999999915","-0.71539999369495078","0.94720000000000149","SIDE","2.7533779116055733e-16","-0.64842635748447397","0.28568713474252977","0.70563880276103064","172.18231897634161","-71.555384398341872","31.757003487865809","0.002104312","0.000032906","97"
"98","peanuts","0.0","-0.51939999090471756","0.94719999999999782","-0.53339999156967022","0.94719999999999915","-0.64339999353476185","0.94719999999999949","SIDE","0.70714522853558981","-0.021286595807116865","0.70674783805703489","1.1039112373085541e-16","-245.16477069409203","-5.0259316674845511","31.124638254409586","0.009118130","0.000039785","98"
"99","peanuts","0.0","-0.53339999156966178","0.94719999999999915","-0.3173999878294731","0.94719999999999949","-0.57239999342206938","0.94720000000000026","TOP","-0.013752743480879105","-0.68578295144692047","0.72754619619529937","0.013752743480879326","26.07718184914987","-13.007930785162269","311.68319096559037","0.007632351","0.000030395","99"
"100","peanuts","1.110223024625157e-16","-0.55939999280460451","0.94719999999999938","-0.43739999026954007","0.94719999999999815","-0.69139999255500817","0.94720000000000459","SIDE","0.50037581144798526","0.34305601812477388","-0.61770596813040035","0.5003758114479856","65.33624890411582","232.82930007375069","67.343138447160328","0.008382796","0.000074640","100"
"101","peanuts","0.0","-0.63739999324977692","0.94719999999999849","-0.42439998965206832","0.94719999999999971","-0.75539999559484672","0.94720000000000248","SIDE","-0.49860830470642448","0.69367516297411835","0.14694994123306504","0.49860830470642437","-104.51573139351322","-151.11972185097068","68.428084283919105","0.008471631","0.000036909","101"
"102","peanuts","0.0","-0.37939999077431791","0.94719999999999849","-0.24739998776427929","0.94719999999999971","-0.91339999658018489","0.94719999999999938","SIDE","0.79748866782440431","-0.18004569657089484","-0.57584318337370133","0.0","221.53693515201996","-73.735975039322938","33.139087455571364","0.010139150","0.000045335","102"
"103","peanuts","0.0","-0.42239998955707619","0.94719999999999938","-0.56939999327957813","0.94719999999999949","-0.72439999412242706","0.94719999999999971","SIDE","0.50149434904176116","0.65116034739853634","-0.27017963974766479","0.50149434904176104","-92.888605433445477","226.14821012637651","66.442291187618025","0.009167215","0.000047048","103"
"104","peanuts","0.0","-0.41539998922459681","0.94719999999999815","-0.59439999120738185","0.94719999999999938","-0.75739999568984484","0.94719999999999815","SIDE","-0.4995590095200434","0.092865499330747087","0.70161071189710122","0.49955900952004356","107.7012187479596","-143.88240486137516","67.889994455461178","0.002132056","0.000025324","104"
"105","peanuts","0.0","-0.68839999241251859","0.94719999999998761","-0.63539999315477425","0.94720000000000126","-0.50639999028724614","0.94719999999999971","SIDE","0.50098373440003507","-0.43474422146164293","0.55590292105627603","0.50098373440003474","-26.485597634604787","-237.30007939745644","46.865627880404823","0.008817851","0.000064649","105"
"106","peanuts","0.0","-0.65939999429471785","0.94719999999999727","-0.66639999462719912","0.94719999999999915","-0.48839998943228419","0.94719999999999949","SIDE","0.70650241605639219","-0.019704179170986304","0.70743627375875917","-6.6294937974614465e-17","-239.67083002254719","-4.4187763189613705","47.976510640028671","0.009464371","0.000045819","106"
"107","peanuts","0.0","-0.64739999372475043","0.94719999999999993","-0.47139999188445197","0.94720000000000326","-0.71939999388493836","0.94719999999999949","SIDE","0.50556101488942617","0.68203284161176747","0.15377686240434338","-0.5055610148894264","93.752129498248848","158.26956427663984","27.95233717291357","0.003875005","0.000039020","107"
"108","peanuts","0.0","-0.60439999168236369","0.9471999999999885","-0.70339999312497126","0.94719999999999938","-0.57139999337457326","0.94719999999999938","SIDE","-0.49920745299439201","0.24008073466401716","0.66629203701746986","0.49920745299439218","101.94702564452918","-215.84063627866973","48.271932280069095","0.005699163","0.000084821","108"
"109","peanuts","0.0","-0.42239998955708352","0.94719999999999638","-0.56739999318458323","0.94719999999999938","-0.72539999416991929","0.94719999999999938","SIDE","0.50149434904176082","0.65116034739853668","-0.27017963974766479","0.50149434904176116","-92.427241477198947","226.66362184697729","66.440495288961117","0.009221949","0.000059407","109"
"110","peanuts","1.454999315475547e-16","-0.39139998808465482","0.94719999999999849","-0.49339998966977389","0.94719999999999938","-0.59839999139737809","0.94719999999999971","TOP","-0.019753797798988167","0.95265447032205164","0.30276894675716748","-0.019753797798988476","28.523829280624579","-4.7046973345086229","313.08840088444214","0.000529737","0.000021618","110"
"111","peanuts","0.0","-0.43339999007954849","0.94719999999999405","-0.61339999210983731","0.94719999999999938","-0.74439999507237786","0.94719999999999949","SIDE","-0.49920745299439201","0.24008073466401725","0.66629203701746986","0.49920745299439218","79.819168288153932","-168.71395033243971","68.107213153704052","0.007163220","0.000026995","111"
"112","peanuts","0.0","-0.50639999028723925","0.94719999999999815","1.0986000337921129","1.5707963267948959","-0.42639998974706839","0.94719999999999993","SIDE","-6.7427985392247143e-17","0.19162879977307304","-0.53433313716366171","0.82326575394970181","-58.452423038202518","160.01742724178399","40.072832510085981","0.000075588","0.000000114","112"
"113","peanuts","0.0","-0.75639999564234095","0.94719999999999693","-0.74239999497737408","0.94719999999999949","-0.4033999886546244","0.94719999999999949","SIDE","1.5748758407135034e-16","0.68642352661465333","0.17848091461571702","0.70495908053435241","-246.13197395172423","-65.724787849040339","32.423217709034667","0.000136450","0.000055854","113"
"114","peanuts","0.0","-0.70639999326747716","0.9471999999999986","-0.61139999201484774","0.94719999999999938","-0.57439999351706217","0.94720000000000126","SIDE","1.170183382845101e-16","0.64208539877152404","-0.28529742946559855","0.71156989637331802","-220.2468893513427","101.44540847594507","45.134522230549031","0.007516341","0.000121358","114"
"115","peanuts","0.0","-0.69839999288749022","0.94720000000000271","-0.60539999172985259","0.94719999999999938","-0.56039999285210162","0.94720000000000326","SIDE","0.50017825337560218","-0.27848706571500459","0.64968329509824252","0.50017825337560229","-89.424324774213815","-221.74511272186501","47.502588676559213","0.005599625","0.000052177","115"
"116","peanuts","3.3537315096882171e-16","-0.57839999370705197","0.94719999999999915","-0.58039999380204876","0.94719999999999949","-0.48239999240692721","0.94719999999999938","TOP","1.3768210550961407e-16","0.82526619749105101","0.56470033877503167","0.0070164567999959626","-5.092772204347451","-0.74599733132996204","313.28752552785556","0.010431600","0.000025540","116"
"117","peanuts","0.0","-0.45939999131448478","0.94719999999999949","1.09860003379211","1.5707963267948959","-0.49439998971727628","0.94719999999999971","SIDE","0.83201383623884262","-0.51016216117880975","-0.21791637297020727","5.0039268110791196e-17","68.063518633132418","-156.10310453261178","34.006228695525827","0.000127581","0.000000206","117"
"118","peanuts","0.0","1.032600030657276","1.570796326794897","-0.70039999298248201","0.94719999999999938","-0.37239999044183691","0.94719999999999949","TOP","-0.022567131089173929","0.994239928854045","0.10231526308968501","-0.022567131089174013","7.7032757795985072","-41.070798663135562","296.69028523393922","0.000196839","0.000000229","118"
"119","peanuts","0.0","-0.37239999044184052","0.94719999999999949","-0.25239998800177732","0.94719999999999949","-0.91239999653267678","0.94719999999999949","SIDE","0.79748866782440431","-0.18004569657089484","-0.57584318337370133","1.7401862079963936e-17","225.18215208150116","-71.106536189454289","32.377553626325948","0.011864852","0.000069843","119"
"120","peanuts","0.0","-0.66139999438971453","0.9472000000000016","-0.65539999410472805","0.94719999999999704","-0.483399992454425","0.94719999999999938","SIDE","0.50269784794902816","0.51676151825386074","0.47701916165579333","-0.50269784794902839","5.2817471835091547","237.96603739135546","45.529903987330925","0.011359962","0.000039520","120"
"121","peanuts","0.0","-0.4743999920269496","0.94719999999999949","-0.50739999033473726","0.94719999999999949","-0.66439999453220566","0.94719999999999949","SIDE","0.70683591619961661","0.058230942914286356","-0.70497669809544883","-1.276188980828743e-16","239.78583848764902","17.526498026881221","67.796803303757756","0.018428971","0.000082655","121"
"122","peanuts","0.0","-0.57639999361205896","0.94719999999999915","1.098600033792108","1.570796326794897","-0.49039998952728092","0.94719999999999949","TOP","-0.02256713108917368","-0.10231526308968515","0.994239928854045","0.022567131089173985","8.3318268348652182","-41.58205445217277","309.36441392799452","0.000123413","0.000000152","122"
"123","peanuts","0.0","1.0326000306572769","1.5707963267948959","-0.43539999017454872","0.94719999999999938","-0.48339999245442511","0.94719999999999949","SIDE","0.60220491263274312","0.49559737153783784","0.17053366742894646","0.60220491263274312","-151.91685321899965","75.159039662086698","25.324749612396722","0.000219873","0.000000277","123"
"124","peanuts","0.0","-0.52439999114219327","0.94719999999999949","-0.517399990809711","0.94719999999999827","-0.63739999324977836","0.94720000000000004","SIDE","0.50269784794902772","0.51676151825386096","0.47701916165579356","-0.5026978479490285","5.4895225266702319","242.9829247609523","28.976941866478814","0.011998746","0.000064155","124"
"125","peanuts","0.0","-0.3323999885419342","0.94719999999999815","-0.59939999144486722","0.94719999999999938","-0.45739999121949249","0.94719999999999971","TOP","2.4857045564399876e-16","-0.31399022478889416","0.94911678912771746","-0.02423756037458628","-19.670779697667506","31.397347508189455","316.1374772437062","0.002975888","0.000018296","125"
"126","peanuts","0.0","-0.6113999920148474","0.94719999999999938","-0.60739999182485405","0.94719999999999671","-0.49639998981226391","0.94719999999999938","SIDE","0.50269784794902794","0.51676151825386074","0.47701916165579344","-0.50269784794902839","6.2806670402226752","262.94460784755012","45.25939135407242","0.002875067","0.000044229","126"
"127","peanuts","0.0","-0.60839999187234839","0.9471999999999986","-0.65939999429472085","0.94719999999999815","-0.57239999342207082","0.94719999999999938","SIDE","0.50149434904176104","0.65116034739853645","-0.27017963974766485","0.50149434904176116","-92.239002508176071","224.44769277221124","46.452467946675235","0.000079434","0.000033486","127"
"128","peanuts","0.0","-0.62539999267980628","0.94719999999999793","1.09860003379211","1.570796326794897","-0.3763999906318285","0.94719999999999993","SIDE","0.59314128072624339","-0.38702936265396209","0.38285129572789917","-0.59314128072624361","-181.58506947303545","0.27769248626163812","27.204826953724389","0.000096784","0.000000279","128"
"129","peanuts","0.0","-0.81839999532755525","0.94719999999999815","-0.77839999668728721","0.94719999999999949","-0.2313999870043178","0.94719999999999915","TOP","-0.031914742850161139","0.63068597946952376","0.77538161216872792","-5.369402984292551e-17","8.1981978896139562","-41.473362292210879","306.66991451515059","0.000002846","0.000011362","129"
"130","peanuts","0.0","-0.44739999074451409","0.94719999999999571","-0.63939999334476694","0.9471999999999986","-0.73039999440741032","0.94719999999999949","SIDE","-7.8461474849028443e-17","-0.60612727187748339","-0.3634001266580274","0.70749563831255458","158.82680187848797","95.779062558487567","30.986490449106732","0.000239696","0.000022562","130"
"131","peanuts","0.0","-0.6933999926500074","0.94719999999999427","-0.60239999158737167","0.94719999999999949","-0.55339999251961758","0.94719999999999971","SIDE","2.3565350421454772e-16","-0.67098336899745892","0.22444083502108772","0.70668778827984335","223.82925720570458","-74.504440308849624","47.875950060028316","0.000085278","0.000069553","131"
"132","peanuts","0.0","-0.38539998779967372","0.94719999999999827","-0.55539999261461315","0.94719999999999949","-0.550399992377125","0.94719999999999971","TOP","0.018997693543927854","0.25352157349567755","0.96695655903059974","-0.018997693543927663","-8.4962501582439565","31.2337251548247","311.13324577906053","0.007166634","0.000020871","132"
"133","peanuts","0.0","-0.47539999207444611","0.94719999999999949","-0.35839998977687332","0.94719999999999949","-0.7623999959273261","0.94719999999999949","SIDE","0.71499870774864327","-0.19941895630392464","-0.67008128446064186","0.0","236.21187495034883","-71.897800699383339","73.321564119648741","0.008423378","0.000051028","133"
"134","peanuts","0.0","-0.5393999918546547","0.94719999999999638","-0.37839999072682112","0.94719999999999938","-0.56639999313708778","0.94719999999999938","TOP","-1.6805578999512882e-16","0.88771841147710329","-0.45953846070769921","-0.027936088755705239","28.375033005504594","-4.6276710947225075","310.09308357332753","0.008983600","0.000021683","134"
"135","peanuts","0.0","-0.68239999538715979","0.94719999999999938","-0.6183999923473199","0.94719999999999949","-0.52739999128468418","0.94719999999999827","SIDE","0.50147460754299478","0.60848904910496604","0.3560723425071548","-0.50147460754299489","60.274787869296517","232.07592152423297","46.476490894392533","0.000090294","0.000035846","135"
"136","peanuts","0.0","-0.79139999404513228","0.94720000000000237","-0.79739999433011077","0.9471999999999986","-0.33939998887441819","0.94719999999999915","SIDE","0.50269784794902772","0.51676151825386096","0.47701916165579356","-0.5026978479490285","5.8251596064449185","251.77097607027039","65.382745109182423","0.000083131","0.000052806","136"
"137","peanuts","2.6521618018068839e-16","1.0326000306572709","1.570796326794897","-0.79639999428260877","0.94719999999999949","-0.29739998687952751","0.94719999999999949","TOP","-0.0041519785848618826","0.90259706164761577","-0.43044635723020347","-0.0041519785848620101","-35.388981225628058","-1.3766952294579382","306.4988213228408","0.000142156","0.000000253","137"
"138","peanuts","0.0","-0.64339999353476074","0.94719999999999405","-0.45939999131447851","0.94719999999999949","-0.71739999378995178","0.94719999999999938","SIDE","2.7533779116055738e-16","-0.64842635748447419","0.28568713474252977","0.70563880276103053","172.2158034993337","-72.223453428137631","31.758247815966367","0.002378934","0.000028471","138"
"139","peanuts","0.0","-0.51339999061972474","0.94719999999999815","-0.23039998695682601","0.94719999999999949","-0.58639999082741046","0.94720000000000149","TOP","0.044266139444129604","0.99319243223488995","-0.098233448217851876","-0.044266139444130014","38.51375706577609","38.262189085177312","306.36862501760277","0.009482651","0.000024912","139"
"140","peanuts","0.0","-0.51939999090470457","0.94720000000000115","-0.42739998979456179","0.9472000000000016","-0.61039999196734429","0.94719999999999949","SIDE","-0.49860830470642437","0.69367516297411835","0.14694994123306498","0.49860830470642437","-145.40599178639567","-213.99112056633172","68.84501182725478","0.000008752","0.000031461","140"
"141","peanuts","0.0","-0.52539999118969449","0.94719999999999882","1.09860003379212","1.5707963267948959","-0.53439999161717033","0.94719999999999949","TOP","0.15744100241393436","0.97117488933648477","0.17897392290823305","-2.5364199207930709e-16","-14.356505026886012","105.23237191366519","292.33600943786752","0.000075596","0.000000106","141"
"142","peanuts","0.0","1.032600030657278","1.570796326794897","-0.62739999277479885","0.94719999999999971","-0.42339998960457542","0.94719999999999949","TOP","0.16279030199893996","0.96289107858268608","-0.21526748096488091","-2.8104618297088448e-16","-1.4471250190863918","33.394383289919951","291.03071315441542","0.000084204","0.000000135","142"
"143","peanuts","0.0","1.0326000306572769","1.570796326794897","-0.55139999242462479","0.94719999999999938","-0.48239999240692683","0.94719999999999938","TOP","-0.10435215392224527","0.87174676356593528","0.46720320649145114","-0.1043521539222453","96.608668467863751","-30.619218764438962","294.39856999389889","0.000265621","0.000000435","143"
"144","peanuts","0.0","1.032600030657274","1.5707963267948959","-0.46339999150447531","0.94719999999999949","-0.44239999050702999","0.94719999999999949","SIDE","0.80210310105987304","0.56781240727566495","-0.18498563569626034","-1.5571575537520199e-16","53.154813114827618","159.5197710850419","50.338434571398643","0.000531103","0.000000634","144"
"145","peanuts","0.0","-0.78739999385513948","0.94719999999999815","-0.79239999409262118","0.94719999999999938","-0.34039998892191992","0.94719999999999915","SIDE","1.6688625133914332e-16","-0.70497669809544883","-0.058230942914286377","0.70683591619961672","246.66241792599064","18.094502197516739","67.802088532304296","0.000185710","0.000047451","145"
"146","peanuts","0.0","-0.40639998879711903","0.94719999999999938","-0.40939998893961088","0.94719999999999949","-0.58939999096990348","0.94719999999999949","SIDE","0.99980853729363661","0.005184605900669631","-0.018868190597237773","5.5521781581821607e-17","25.940834979799156","3.3385864075570204","-220.8158130868465","0.006760071","0.000012028","146"
"147","peanuts","0.0","1.032600030657274","1.570796326794897","-0.62739999277480074","0.94719999999999849","-0.4113999890346085","0.94719999999999938","SIDE","0.81871415144288084","0.57307418149450373","-0.035959987925025395","-2.5849835830513995e-16","6.0513902147161227","181.14429391898224","38.053866982789238","0.000013652","0.000000069","147"
"148","peanuts","0.0","-0.23039998695682479","0.94719999999999882","-0.36439999006185159","0.94719999999999938","-0.74039999488237795","0.94719999999999971","TOP","-0.11570598352760667","-0.39290422307991724","0.91227101064424698","1.1409264061246953e-16","11.559936890231711","7.8310739748006526","311.49858958050976","0.000337828","0.000009759","148"
"149","peanuts","0.0","-0.40939998893961199","0.9471999999999986","-0.4053999887496148","0.94719999999999949","-0.59139999106489705","0.94719999999999949","SIDE","0.70703986240091987","0.0082726499962408172","-0.010992234268613399","0.70703986240091998","-1.6611451040300373","27.109995533222573","-220.59168064409371","0.008261243","0.000012711","149"
"150","peanuts","0.0","-0.47139999188445358","0.94719999999999949","-0.59739999134987731","0.94720000000000026","-0.46639999164696821","0.94720000000000026","SIDE","1.6653048654396382e-16","-0.0010213567733440843","0.019240471580817122","0.99981436331135454","-2.0637191824413037","-21.383507596513422","-221.01908122460821","0.008378008","0.000024384","150"
"151","peanuts","0.0","-0.6073999918248546","0.94719999999999882","-0.64339999353476207","0.94719999999999949","-0.57339999346956638","0.94719999999999971","SIDE","0.50149434904176104","0.65116034739853668","-0.27017963974766485","0.50149434904176104","-91.349679750455152","224.81543454325424","46.452467946675014","0.000022916","0.000033940","151"
"152","peanuts","0.0","-0.56339999299459187","0.94719999999999949","-0.56539999308958755","0.94719999999999938","-0.46439999155197198","0.94720000000000026","SIDE","0.70705456977037262","-0.0105135492398003","0.0060939327243040584","-0.70705456977037284","-7.7283931978735509","-0.37236763102110887","-219.03552623711661","0.009955320","0.000025795","152"
"153","peanuts","0.0","-0.56439999304208999","0.9471999999999986","-0.55939999280460195","0.94719999999999938","-0.46739999169446461","0.94719999999999949","SIDE","3.3307117193693701e-16","0.011743263115251588","0.0031251408083513288","0.99992616190713501","-7.7283931978754383","-0.37236763102121972","-219.03552623711641","0.007041411","0.000031724","153"
"154","peanuts","0.0","-0.55939999280460062","0.94719999999999882","-0.55439999256711059","0.94719999999999949","-0.47139999188445131","0.94720000000000026","SIDE","0.70705456977037262","0.0060939327243042917","0.010513549239799996","0.70705456977037284","-7.7119538424266221","-0.36799275667342979","-218.33573293247866","0.008699342","0.000018000","154"
"155","peanuts","1.110223024625157e-16","-0.32739998830445172","0.94719999999999815","-0.73339999454989968","0.94720000000000149","-0.30639998730700729","0.94719999999999971","SIDE","0.50072545486741582","-0.70546234824030796","-0.029511233639235863","-0.50072545486741571","-177.95757706978233","-196.0811032733798","10.502072323778755","0.000082804","0.000020642","155"
"156","peanuts","0.0","-0.49639998981226641","0.94719999999999793","1.098600033792112","1.5707963267948959","-0.5383999918071577","0.94719999999999949","TOP","-0.081816485576229558","0.36724777740981063","0.92289825840309359","-0.081816485576229767","6.4088424634642909","5.6125591583207095","287.75191805720237","0.000425434","0.000000960","156"
"157","peanuts","0.0","-0.61339999210983964","0.94719999999999949","-0.41639998927208971","0.94719999999999949","-0.76139999587982754","0.94719999999999971","SIDE","0.0","0.62796981217508396","-0.32265175830091419","0.70820177764682157","-170.13215211459644","88.192967358987403","67.1875198745322","0.008893895","0.000054749","157"
"158","peanuts","0.0","-0.5833999939445399","0.94720000000000004","-0.47139999188445508","0.94719999999999949","-0.46139999140948018","0.94720000000000149","SIDE","0.70705456977037262","-0.010513549239800302","0.0060939327243040584","-0.70705456977037284","-21.496057957768102","-0.38674221816614734","-221.01269050946178","0.000024923","0.000015397","158"
"159","peanuts","0.0","-0.31739998782947348","0.94719999999999704","-0.44539999064951452","0.94719999999999949","-0.59139999106489149","0.94719999999999949","SIDE","0.70706125581775514","0.011215863548976385","-0.0017220475280144689","0.70706125581775514","-19.244100918532901","25.113304349159925","-220.9014978456367","0.005900298","0.000021918","159"
"160","peanuts","0.0","-0.95939999876506887","0.94719999999999827","-0.73239999450240545","0.94719999999999815","-0.38339999096430971","0.94719999999999938","TOP","0.11132760044370044","0.81327802451189313","-0.5601706754239536","0.11132760044370039","-10.620124291802037","84.957467682101225","229.32285489519089","0.001108965","0.000032538","160"
"161","peanuts","0.0","-0.29039998654703097","0.94719999999999971","-0.49739998985975209","0.94719999999999949","-0.88839999539275416","0.94719999999999938","SIDE","0.71061431198467195","-0.30313678377134151","0.63492943696706816","-7.8117130903571227e-17","-180.7634849833787","-78.799564073388069","9.6218232428038082","0.001911552","0.000023033","161"
"162","peanuts","0.0","-0.2243999866718418","0.94719999999999815","-0.46139999140947902","0.94719999999999938","-0.58439999399203879","0.94720000000000026","SIDE","0.99980853729363661","0.005184605900669631","-0.01886819059723777","5.5508226459365108e-17","25.921970400579973","23.333402793991539","-220.10869168686554","0.007158460","0.000025919","162"
"163","peanuts","0.0","-0.44939999083950982","0.94719999999999915","-0.3273999883044505","0.94719999999999949","-0.58639999082741012","0.94719999999999938","SIDE","0.99974659502878649","-0.014985985121234644","-0.016797796828571136","-1.3881305399609655e-16","25.008408682660519","-19.471847234653119","-220.32460760897106","0.006368201","0.000024468","163"
"164","peanuts","0.0","-0.45439999107700019","0.94719999999999849","-0.23139998700434469","0.94719999999999938","-0.5873999908749078","0.94719999999999949","SIDE","0.70697139660853359","-0.0096757555298832981","-0.017007895510170349","0.70697139660853359","25.940834979797156","23.338586407553596","-220.60830882928624","0.006933459","0.000016167","164"
"165","peanuts","0.0","-0.45439999107699858","0.94719999999999405","-0.5893999909698926","0.94719999999999793","-0.74739999521486666","0.94720000000000126","SIDE","0.50017803770701663","-0.69931454402015447","0.10297101394566993","0.50017803770701719","107.67088523416788","-147.28075006321171","31.044811183000508","0.005962159","0.000049380","165"
"166","peanuts","0.0","-0.5953999912548873","0.94719999999999827","-0.47639999212194239","0.94719999999999938","-0.46339999150447658","0.94719999999999949","SIDE","0.99981436331135454","-0.019240471580817233","-0.001021356773344681","2.7750562742837488e-17","-2.0675996179376765","-21.310407372546301","-219.1204918140217","0.006143086","0.000012046","166"
"167","peanuts","0.0","-0.58039999380204932","0.9471999999999986","-0.38539998779967283","0.94719999999999949","-0.45839999126699049","0.94719999999999949","SIDE","0.70697139660853359","-0.0096757555298832964","-0.017007895510170346","0.70697139660853359","25.955926643173033","3.3427332984055091","-221.21550680078218","0.009350442","0.000037281","167"
"168","peanuts","0.0","1.032600030657274","1.570796326794897","-0.62739999277479086","0.94720000000000037","-0.40039998851213499","0.94720000000000149","SIDE","0.6496981818609705","-0.26473855743101132","0.29274227775031947","-0.64969818186097095","-137.46165580558284","9.8009032252481809","-162.9600702938001","0.000289752","0.000000809","168"
"169","peanuts","0.0","-0.58239999389704333","0.94719999999999949","-0.38239999091681098","0.94719999999999949","-0.45139999093450661","0.94719999999999949","SIDE","2.775481412879117e-16","-0.0019230364810027825","-0.013622330302452218","0.99990536254578788","-1.6584531075806153","27.129064991982641","-221.29141571542331","0.007202207","0.000016827","169"
"170","peanuts","0.0","-0.3933999881796566","0.94719999999999793","-0.58639999082740246","0.94719999999999915","-0.45339999102950118","0.94719999999999949","SIDE","0.7069713966085337","0.017007895510170006","-0.0096757555298835427","-0.70697139660853359","25.918197484734009","3.3323660712746284","-220.21627251594066","0.007690955","0.000013487","170"
"171","peanuts","0.0","1.0326000306572749","1.570796326794897","-0.51339999061972019","0.94719999999999949","-0.52439999114219282","0.94719999999999971","SIDE","5.5519843878097493e-17","0.0049743508776041168","0.016981398450309021","0.9998434317131949","-18.390015937463478","-40.109024354567431","-212.58854985591168","0.000085728","0.000000098","171"
"172","peanuts","0.0","-0.46739999169446311","0.9471999999999986","-0.59439999120738019","0.94719999999999949","-0.46639999164696999","0.94719999999999949","SIDE","0.70705456977037262","0.00609393272430429","0.010513549239799998","0.70705456977037295","-21.472573164272426","-0.3804923976689078","-220.01298578854977","0.008742048","0.000025555","172"
"173","peanuts","0.0","1.032600030657274","1.5707963267948959","-0.5223999910471957","0.94719999999999938","-0.53439999161716611","0.94719999999999949","SIDE","5.5506289228713194e-17","0.0049743508776041168","0.016981398450309021","0.9998434317131949","-17.643980129662062","-37.562213399290556","-137.63551666490903","0.000309259","0.000000558","173"
"174","peanuts","0.0","-0.97039999928753906","0.94719999999999793","-0.75739999568983807","0.94719999999999938","-0.37139999039434002","0.94719999999999971","TOP","-0.15161706609750095","-0.16669551034585139","0.974281721114854","6.053751897933685e-17","80.257241990911439","8.3325344283431395","230.99726171146219","0.000523357","0.000025964","174"
"175","peanuts","0.0","-0.3823999909168122","0.94720000000000026","-0.58539999077990723","0.94719999999999949","-0.45439999107699969","0.94719999999999949","SIDE","0.99990536254578788","0.01362233030245214","-0.0019230364810031435","-1.3872324385700288e-17","-1.6603759621894865","27.115443950013642","-220.79160495018724","0.005319500","0.000012282","175"
"176","peanuts","0.0","-0.46639999164696783","0.94719999999999882","-0.46239999145697791","0.94719999999999949","-0.57139999337457226","0.94719999999999949","SIDE","3.3306439517297563e-16","0.01174326311525159","0.0031251408083513288","0.99992616190713501","-21.390376394693767","-0.35861802796333109","-216.5140195912154","0.008773114","0.000022455","176"
"177","peanuts","0.0","-0.5573999927096096","0.94719999999999882","-0.56339999299459154","0.94719999999999949","-0.47239999193195281","0.94720000000000037","SIDE","0.99992616190713501","-0.003125140808351301","0.011743263115251312","1.3878134916471408e-16","-7.672029701139448","-0.35736806386288394","-216.63623523278665","0.008188545","0.000016799","177"
"178","peanuts","0.0","-0.44039999041203159","0.94719999999999949","-0.58639999082740613","0.94719999999999949","-0.73939999483488905","0.94719999999999938","SIDE","0.70706349430198578","-0.42763656410437184","0.56319462361289763","-7.8509429037994008e-17","-149.16905750539911","-109.9341786127921","31.16381378127053","0.002171881","0.000032764","178"
"179","peanuts","0.0","-0.79539999423511809","0.94719999999999793","-0.80739999480508218","0.94719999999999938","-0.21839998638685881","0.94719999999999949","SIDE","0.99992616190713501","-0.003125140808351301","0.011743263115251314","1.3877457240075272e-16","-41.303482672430562","-0.33549369575847093","-212.34527816198568","0.000063625","0.000022662","179"
"180","peanuts","0.0","-0.80639999475758173","0.94719999999999405","-0.79839999437759479","0.94719999999999915","-0.22239998657684129","0.94720000000000271","SIDE","0.70697551622516908","-0.014327276228465384","0.012882859627580099","0.70697551622516974","-2.0806705567013584","-41.064175074122581","-211.95519687344523","0.008011779","0.000033596","180"
"181","peanuts","0.0","-0.46639999164696888","0.94719999999999949","-0.46539999159947248","0.94719999999999971","-0.56639999313708744","0.9472000000000016","SIDE","0.70697551622516908","-0.012882859627580458","-0.014327276228465625","-0.70697551622516974","-2.0739308541330992","-21.191138598616988","-216.02279362773166","0.008943586","0.000020879","181"
"182","peanuts","0.0","-0.29739998687952529","0.94719999999999949","-0.44339999055452228","0.94719999999999938","-0.78639999380763603","0.9472000000000016","SIDE","1.9543146337460746e-16","-0.66338636416099206","-0.23592799172581058","0.71011021297083565","235.23649284160393","83.114239003000193","9.3595683715362874","0.010790766","0.000062784","182"
"183","peanuts","0.0","-0.82739999575503298","0.94719999999999727","-0.72539999416992074","0.94719999999999938","-0.21739998633936031","0.94719999999999949","SIDE","0.99992616190713501","-0.0031251408083513015","0.011743263115251314","1.3878134916471408e-16","-41.296437234382033","-14.100670520892367","-211.95930043262456","0.001229361","0.000016934","183"
"184","peanuts","3.3306690738754701e-16","-0.72339999407492805","0.94719999999999815","-0.82739999575503664","0.94719999999999949","-0.2183999863868544","0.9471999999999986","SIDE","0.70699607068922898","-0.0084902647606890178","0.015525059235799249","0.70699607068922865","-18.38205822747252","-40.081858389113712","-211.78905136703156","0.009138152","0.000021494","184"
"185","peanuts","0.0","-0.3733999904893342","0.94719999999999904","-0.50139999004974867","0.94719999999999971","-0.57139999337457237","0.94719999999999938","SIDE","5.5519843878097493e-17","0.0049743508776041168","0.016981398450309021","0.9998434317131949","-18.424830940758419","-20.227875528827656","-216.76593380213885","0.007079832","0.000017787","185"
"186","peanuts","0.0","-0.468399991741966","0.94719999999999882","-0.4483999907920152","0.94719999999999949","-0.59139999106489327","0.94720000000000126","SIDE","2.7533779116055743e-16","-0.64842635748447419","0.28568713474252971","0.70563880276103053","240.81553876244664","-101.7941735569341","32.068085493562663","0.000043656","0.000020322","186"
"187","peanuts","0.0","-0.50639999028723648","0.94719999999999882","-0.3743999905368291","0.94719999999999938","-0.566399993137085","0.94719999999999971","SIDE","0.70699607068922887","-0.015525059235799494","-0.0084902647606892208","-0.70699607068922887","-18.419857371635651","-20.210896799135234","-216.26624720877908","0.007071583","0.000025807","187"
"188","peanuts","0.0","-0.59939999144488154","0.9471999999999976","-0.48139999235942849","0.94719999999999938","-0.40239998860713011","0.94719999999999949","SIDE","7.8445661379006679e-17","-0.19420684210152409","-0.67936131558729007","0.70763825883318388","69.62400841035587","247.82845204781444","67.319679000182433","0.002025588","0.000043209","188"
"189","peanuts","0.0","-0.29139998659453692","0.94719999999999094","-0.48539998928978212","0.94719999999999827","-0.88739999534526037","0.94719999999999971","SIDE","0.50149434904176082","0.2701796397476644","0.65116034739853668","-0.50149434904176127","-74.958173985352857","186.55795993804691","10.203606454999402","0.008156151","0.000032603","189"
"190","peanuts","0.0","-0.45539999112449359","0.94719999999999849","-0.42039998946208129","0.94719999999999971","-0.732399994502407","0.94720000000000026","TOP","-1.09934031362871e-16","0.94678060349710269","-0.28605549249269457","-0.14757623133968412","76.265099679615034","-24.472716008374306","224.76955525981145","0.000741200","0.000028268","190"
"191","peanuts","0.0","-0.46839999174195862","0.94719999999999938","-0.77539999654479297","0.94719999999999949","-0.3653999901093527","0.94720000000000004","SIDE","0.70316985344160432","-0.57224450030474117","-0.42200520030195099","3.9472078445601212e-17","148.97745072738721","-203.76749517976771","13.50612003251573","0.000244047","0.000022466","191"
"192","peanuts","0.0","-0.28739998640455128","0.94720000000000326","-0.49039998952726821","0.94719999999999938","-0.79439999418761931","0.94719999999999949","SIDE","0.71061431198467206","-0.30313678377134146","0.63492943696706816","-1.1717569635535686e-16","-225.88247948429589","-100.34089777708033","9.1245532030589391","0.009365459","0.000062886","192"
"193","peanuts","0.0","-0.81939999537505326","0.94719999999999793","-0.55639999266211049","0.94719999999999938","-0.42639998974707027","0.94719999999999949","SIDE","0.71941762691669209","0.59057925083315665","-0.36558778229982286","-3.8580616567020792e-17","122.20888574592158","206.175517138103","4.1533754554488009","0.002602816","0.000048532","193"
"194","peanuts","0.0","-0.51139999052472629","0.94719999999999915","-0.28639998635705222","0.94719999999999949","-0.56539999308958755","0.94719999999999938","SIDE","2.2204534825337664e-16","0.0067131416877598835","-0.0091484846569285811","0.99993561740602188","-19.168918572059823","25.010847917406267","-215.30293994585659","0.008571711","0.000012718","194"
"195","peanuts","0.0","-0.60839999187234639","0.94719999999999949","-0.92139999696016983","0.94719999999999938","-0.38939998798966541","0.94719999999999949","SIDE","0.50248019881257433","-0.66331298588616605","0.23461283502257477","-0.50248019881257455","-177.06372720344058","-77.033174599465781","9.6625993886085819","0.007723629","0.000026962","195"
"196","peanuts","0.0","-0.4543999910770008","0.94719999999999949","-0.44739999074451708","0.94719999999999938","-0.59139999106489649","0.94719999999999938","SIDE","3.1467176132635126e-16","-0.64842635748447408","0.28568713474252971","0.70563880276103075","240.84902328544013","-102.46224258672987","32.06932982166321","0.000059534","0.000019923","196"
"197","peanuts","0.0","-0.29639998683202429","0.94719999999999882","-0.51239999057222063","0.94719999999999938","-0.55939999280460295","0.94719999999999949","SIDE","0.70692759681301598","0.0012811443444903914","-0.022474527748462148","-0.70692759681301598","24.830397156561766","-19.313036045970456","-215.02997910894936","0.008641958","0.000014178","197"
"198","peanuts","0.0","-0.58139999384954655","0.94719999999999949","-0.41539998922458798","0.94720000000000149","-0.74539999511987065","0.94719999999999949","SIDE","0.50017825337560229","-0.64968329509824263","-0.27848706571500481","-0.50017825337560218","-72.231812377070653","-178.77086584142666","67.535607086149469","0.007678496","0.000046708","198"
"199","peanuts","0.0","-0.57339999346956638","0.94720000000000126","-0.43139998998455298","0.94720000000000115","-0.66339999448470754","0.94720000000000026","SIDE","0.50072545486741582","-0.029511233639235315","0.70546234824030796","0.50072545486741593","-117.11950066725863","-129.83750591751723","30.763425541550319","0.002795982","0.000042628","199"
"200","peanuts","0.0","-0.45439999107699958","0.94719999999999638","-0.63339999305978389","0.94719999999999949","-0.71639999374244689","0.9472000000000016","SIDE","0.50149434904176116","0.2701796397476644","0.65116034739853668","-0.50149434904176127","-72.750915942287435","177.21205107623294","30.261075210073258","0.006387413","0.000035781","200"
"201","peanuts","0.0","-0.88139999831989579","0.94719999999999849","-0.53139999147467398","0.94719999999999949","-0.42739998979456839","0.94720000000000126","SIDE","0.50452022687602283","0.66738464155808264","0.21334577933093182","0.50452022687602271","-168.61483827098621","87.810551882085079","8.4983406610386041","0.008568664","0.000034653","201"
"202","peanuts","0.0","-0.66239999443721587","0.94719999999999793","-0.64239999348726895","0.94719999999999938","-0.50139999004975266","0.94719999999999949","SIDE","0.71173574675464002","-0.031324032022668979","-0.7017485531224541","-2.9247767597231441e-17","186.85137515163785","-5.5502637277899947","45.709596241844899","0.012047385","0.000039522","202"
"203","peanuts","0.0","-0.51939999090471078","0.94719999999999938","-0.77739999663978676","0.94719999999999938","-0.3753999905843276","0.94720000000000093","SIDE","0.71190193150418168","-0.59334095121214525","-0.37568890792154364","0.0","128.95287127671475","-212.22662243621792","8.310395895844815","0.000044189","0.000029382","203"
"204","peanuts","0.0","-0.29139998659454319","0.94719999999999527","-0.48039999231193298","0.94719999999999938","-0.89239999558274463","0.94720000000000415","SIDE","0.50149434904176082","0.2701796397476644","0.65116034739853668","-0.50149434904176127","-76.839593053248393","186.97029284129283","10.197021493256411","0.007878470","0.000036886","204"
"205","peanuts","0.0","-0.25339998804926672","0.94719999999999405","-0.56139999289959286","0.94719999999999949","-0.82639999570753897","0.94719999999999949","SIDE","7.8157752584583239e-17","-0.57431113726666239","-0.40708572739645466","0.71024497756870653","166.35044894206152","114.86500858427684","9.7026557110053719","0.002864105","0.000028554","205"
"206","peanuts","0.0","-0.62939999286980464","0.94719999999999405","-0.44639999069701952","0.94719999999999915","-0.73739999473989115","0.94720000000000126","SIDE","0.71010145896336374","0.34026228297870831","0.61642314748897908","0.0","-167.76739408064321","91.904744200150361","29.901239525165657","0.004864745","0.000038269","206"
"207","peanuts","0.0","-0.62839999282230241","0.94719999999999915","-0.45039999088700883","0.94719999999999949","-0.71639999374244634","0.94719999999999938","SIDE","0.49819957944918647","-0.28035184173468702","0.65191809524607947","0.49819957944918675","-71.17734505478812","-176.70737198519282","32.213258684886668","0.006991108","0.000041334","207"
"208","peanuts","0.0","1.032600030657272","1.570796326794897","-0.64139999343976606","0.94719999999999949","-0.46739999169446611","0.94719999999999949","SIDE","0.81871415144288084","0.57307418149450373","-0.035959987925025395","-2.5426068030013765e-16","7.5234377647128685","204.60349102978626","29.53922389414743","0.000172327","0.000000296","208"
"209","peanuts","0.0","-0.48539998928979522","0.94719999999999616","-0.28439998952168949","0.94719999999999938","-0.90839999634269697","0.94720000000000459","SIDE","0.7134993473396225","0.32105395840304252","0.62277045300790412","-1.1670189630496207e-16","-177.67950330690363","92.483616535881112","8.3130817548513498","0.005410946","0.000026329","209"
"210","peanuts","0.0","-0.62039999244232269","0.94719999999999938","-0.87039999779742105","0.94719999999999938","-0.427399989794574","0.94719999999999827","SIDE","0.50248019881257411","-0.66331298588616616","0.23461283502257482","-0.50248019881257477","-199.62322445389961","-87.803841451311925","9.4139643687360941","0.007019811","0.000026996","210"
"211","peanuts","0.0","-0.67139999486469459","0.94720000000000149","-0.63939999334477171","0.94719999999999793","-0.49539998976477101","0.94720000000000792","SIDE","0.50269784794902828","0.47701916165579333","-0.51676151825386096","0.50269784794902816","3.3718124229571429","190.20701081627013","46.047124140635269","0.011322533","0.000024192","211"
"212","peanuts","0.0","-0.30339998716451028","0.94719999999999882","-0.47339999197945098","0.94719999999999938","-0.88639999529775071","0.94719999999999949","SIDE","1.5634517069968605e-16","-0.66338636416099228","-0.23592799172581067","0.71011021297083554","188.12874960797288","66.360751357980234","9.7852198280847791","0.006389304","0.000039404","212"
"213","peanuts","0.0","-0.47539999207444528","0.94719999999999793","-0.28139998937919491","0.94720000000000093","-0.79839999437761477","0.94720000000000326","SIDE","0.7134993473396225","0.32105395840304252","0.62277045300790412","-1.9450316050827011e-16","-222.1141344832578","115.39079551401898","7.4049498894446204","0.011227785","0.000065330","213"
"214","peanuts","0.0","-0.84339999651499309","0.94719999999999738","-0.55739999270960916","0.94720000000000026","-0.46939999178945663","0.94720000000000037","SIDE","0.50452022687602294","0.6673846415580823","0.21334577933093182","0.5045202268760226","-190.83215385916307","99.264141371154139","8.0442747283353615","0.007113017","0.000055525","214"
"215","peanuts","0.0","-0.56839999323207957","0.9471999999999986","-0.44739999074451731","0.9471999999999986","-0.69939999293499311","0.94720000000000393","SIDE","0.50037581144798549","0.34305601812477399","-0.61770596813040035","0.5003758114479856","51.593429744294369","184.75509422566878","67.41832898360633","0.009703652","0.000053444","215"
"216","peanuts","0.0","-0.55839999275710794","0.94719999999999949","-0.90839999634268687","0.94719999999999949","-0.37639999063182561","0.94720000000000037","SIDE","0.70316985344160432","-0.57224450030474117","-0.42200520030195099","3.9472078445601212e-17","134.14038398499116","-183.64824110916575","13.228512171969966","0.011796827","0.000072272","216"
"217","peanuts","0.0","-0.60039999149236922","0.94719999999998228","-0.61939999239481613","0.94719999999999815","-0.585399990779919","0.9472000000000057","SIDE","-0.49920745299439223","0.66629203701746942","-0.24008073466401725","-0.4992074529943924","101.43638275181299","-214.75471290815386","48.268131069231785","0.000052404","0.000029537","217"
"218","peanuts","0.0","1.032600030657274","1.5707963267948959","-0.63239999301228866","0.94719999999999938","-0.47539999207444511","0.94719999999999949","SIDE","2.7559562064283455e-16","0.013858549966497598","0.56558545192998722","0.82457324547791289","-6.4665496688703907","-203.48097972594783","25.534406238929115","0.000000642","0.000000010","218"
"219","peanuts","0.0","-0.92339999705516518","0.94719999999999793","-0.59139999106489982","0.94720000000000149","-0.44739999074451497","0.94719999999999949","SIDE","0.71941762691669209","0.59057925083315665","-0.36558778229982286","-7.7161233134041584e-17","109.05837100732762","184.93186098107111","5.0314615513711303","0.006576653","0.000061765","219"
"220","peanuts","0.0","-0.49139998957478259","0.94719999999999938","-0.40239998860712328","0.94719999999999949","-0.77039999630730649","0.94719999999999938","SIDE","3.9168484522099391e-17","0.52891673754224122","-0.4670167357872001","0.70862010502267048","-140.58007314226111","118.0367385689329","67.046689702665134","0.002620753","0.000036091","220"
"221","peanuts","1.110223024625157e-16","-0.47439999202694838","0.94719999999999882","-0.28839998645204801","0.94719999999999971","-0.89839999586772445","0.94720000000000026","SIDE","0.4977839418671714","-0.28343686648750277","0.6512187321891979","0.49778394186717156","-74.74652493504685","-187.74156122100561","12.559818516671093","0.006743780","0.000031307","221"
"222","peanuts","0.0","-0.60939999191984717","0.94719999999999094","-0.61039999196733952","0.94719999999999915","-0.57839999370705475","0.94720000000000204","SIDE","0.71156989637331813","0.28529742946559866","0.64208539877152393","-2.3403667656902019e-16","-220.70377802051814","101.64841755093302","45.128190512728764","0.000042726","0.000054799","222"
"223","peanuts","0.0","-0.59239999111239827","0.94719999999999938","-0.90839999634269453","0.94719999999999949","-0.42039998946207718","0.94720000000000304","SIDE","0.71190193150418168","-0.59334095121214525","-0.37568890792154364","0.0","115.58018831701177","-191.1065939757961","8.6506138998139139","0.006167385","0.000046972","223"
"224","peanuts","0.0","-0.48839998943229229","0.94719999999999949","-0.45039999088701099","0.94719999999999993","-0.60239999158736335","0.94719999999999938","SIDE","0.50556101488942629","0.68203284161176736","0.15377686240434313","-0.50556101488942617","133.81197384367582","221.65248460916186","26.274755240105478","0.000065005","0.000024361","224"
"225","peanuts","0.0","-0.47239999193195198","0.94719999999999949","1.0986000337921129","1.570796326794897","-0.58039999380204921","0.94720000000000004","SIDE","0.93657688771764014","0.31797575848933562","0.14736061348362647","-1.259492924856223e-16","-45.07000680743711","102.21309027849811","-167.47252448640859","0.001473957","0.000001954","225"
"226","peanuts","0.0","-0.58839999092241557","0.94719999999999849","1.098600033792114","1.570796326794897","-0.41339998912959919","0.9472000000000016","SIDE","0.56075878353401676","-0.42515481415451856","-0.43628265766603103","0.56075878353401765","175.81977149408169","2.759179576901527","51.576697137249319","0.000257156","0.000000538","226"
"227","peanuts","0.0","-0.45539999112449298","0.94719999999999405","-0.60239999158736057","0.94719999999999849","-0.73439999459740546","0.94720000000000448","SIDE","0.50011740587893339","-0.65889712003777889","0.25616351395109466","0.50011740587893416","77.580149098808178","-172.81995127908533","31.07637714438421","0.004679672","0.000040023","227"
"228","peanuts","1.110223024625157e-16","-0.88639999529775859","0.94719999999999915","-0.88239999836739158","0.94719999999999971","-0.2143999861968684","0.94720000000000026","SIDE","0.50325794355897047","0.4971739431044454","-0.49626701964524089","0.50325794355897036","-2.7126881336947402","251.68608928253948","8.4126314632032582","0.007044426","0.000035700","228"
"229","peanuts","0.0","-0.45639999117199198","0.94719999999999616","-0.43339999007955049","0.94719999999999882","-0.59439999120738785","0.9472000000000016","SIDE","0.50149434904176104","0.27017963974766446","0.65116034739853657","-0.50149434904176127","-101.40986673941387","246.51907064123702","29.812100573827436","0.000043646","0.000017432","229"
"230","peanuts","0.0","-0.59439999120738896","0.94719999999999949","-0.475399992074444","0.94719999999999949","-0.66539999457970456","0.94719999999999815","SIDE","0.50340094468308183","0.61112124686051295","0.34598525896346127","-0.50340094468308205","49.465971182076181","184.97754451186046","29.107136544270773","0.008205959","0.000041263","230"
"231","peanuts","0.0","-0.85939999727495131","0.94719999999999882","-0.84039999637249685","0.94719999999999938","-0.167399987224117","0.94719999999999938","TOP","0.040685794034562628","0.86202455485061824","-0.50359011027039435","0.04068579403456251","-22.284571784343175","64.059969069060202","297.98826470959619","0.005337950","0.000029061","231"
"232","peanuts","0.0","-0.77339999644980062","0.94719999999999915","-0.76839999621231214","0.94720000000000115","-0.36739999020434688","0.94719999999999938","SIDE","1.6926638972064505e-16","0.70674783805703534","0.021286595807116952","0.70714522853558959","-253.56096336471401","-5.278817279684711","31.123724767144758","0.007681494","0.000025918","232"
"233","peanuts","0.0","-0.55139999242462434","0.94719999999999793","-0.77639999659229131","0.94719999999999949","-0.31139998754449277","0.94719999999999971","SIDE","0.7069713966085337","0.017007895510170006","-0.0096757555298835427","-0.70697139660853359","25.47676637755503","23.211069526637708","-208.31772835879647","0.009435815","0.000017827","233"
"234","peanuts","0.0","-0.41839998936708978","0.94719999999999938","-0.45339999102950029","0.94720000000000149","-0.59339999115989395","0.94720000000000182","SIDE","0.49819957944918647","-0.28035184173468702","0.65191809524607947","0.49819957944918664","-98.944467740320945","-246.37584556573259","32.752412395882672","0.000057654","0.000014937","234"
"235","peanuts","0.0","-0.77239999640230406","0.94719999999999827","-0.53439999161716922","0.94719999999999949","-0.45739999121948582","0.94719999999999971","SIDE","0.50452022687602294","0.6673846415580823","0.21334577933093182","0.5045202268760226","-213.04946944734016","110.71773086022318","7.5902087956318791","0.001329662","0.000025725","235"
"236","peanuts","0.0","1.0326000306572769","1.570796326794897","-0.58639999082740268","0.94719999999999938","-0.42639998974705712","0.94719999999999949","SIDE","0.56075878353401698","0.43628265766603097","-0.42515481415451878","-0.56075878353401731","177.1723357390895","2.7766516787666173","51.215774800189351","0.000249064","0.000000798","236"
"237","peanuts","0.0","-0.9683999991925436","0.94719999999999827","-0.85439999703746949","0.94719999999999949","-0.32839998835195361","0.94719999999999949","TOP","-0.095685777820195328","0.38725260203662598","0.91198897255490485","0.095685777820195397","32.601379456975721","-70.198699537783014","238.06109320572608","0.001579654","0.000036153","237"
"238","peanuts","0.0","-0.58839999092240503","0.94719999999999427","-0.90039999596272224","0.94719999999999915","-0.38439999101180561","0.9472000000000016","SIDE","0.50221903994251949","-0.11824622130592354","-0.69395237803850651","0.50221903994251971","193.6798569706144","134.23675888598277","9.4046445157347556","0.008763612","0.000080566","238"
"239","peanuts","0.0","-0.78639999380763925","0.94719999999999815","-0.66739999467469791","0.94719999999999971","-0.31939998792447089","0.94719999999999938","TOP","-0.019449316350497375","0.029531073565932455","0.99937462434641688","-5.554588827744319e-17","25.758412564397592","-12.998511295245985","303.48939541223262","0.012315988","0.000039644","239"
"240","peanuts","0.0","-0.44839999079201609","0.94719999999999793","-0.31639998778197659","0.94719999999999938","-0.88939999544024317","0.94719999999999949","SIDE","3.9119758166310542e-16","-0.67703334071862609","0.19552932562599273","0.70950274021713355","193.1138582912215","-56.674155306710936","10.046752354327506","0.005724408","0.000038941","240"
"241","peanuts","0.0","-0.7613999958798312","0.94719999999999782","-0.56339999299459165","0.94719999999999949","-0.44939999083951049","0.94719999999999949","SIDE","3.9222830689503346e-17","-0.19420684210152411","-0.67936131558729018","0.70763825883318376","49.009779670623807","175.71714327569231","67.432464804851435","0.006425057","0.000021030","241"
"242","peanuts","0.0","-0.59039999101740182","0.9471999999999986","1.098600033792104","1.570796326794897","-0.49539998976476612","0.94719999999999949","SIDE","2.734600925071275e-16","0.21384349324261684","-0.45822140171387044","0.8627306111464752","-77.891798230271817","173.12970713743957","2.9532409599882912","0.000809983","0.000001266","242"
"243","peanuts","0.0","-0.77039999630730771","0.94719999999999882","-0.63339999305978567","0.94719999999999949","-0.31939998792447138","0.94719999999999938","SIDE","0.70706125581775514","0.0017220475280141378","0.011215863548976192","-0.70706125581775525","-19.072255561730866","24.879118228386563","-208.1047945635226","0.008509663","0.000021740","243"
"244","peanuts","0.0","-0.68939999246002015","0.94719999999999427","-0.60139999153986878","0.94719999999999949","-0.55339999251961802","0.94720000000000149","SIDE","1.9637792017878976e-16","-0.67098336899745892","0.22444083502108772","0.70668778827984335","223.63425714580256","-75.087406368295902","47.875950060028316","0.010170362","0.000088806","244"
"245","peanuts","0.0","-0.77139999635480361","0.94719999999999882","-0.53839999180715636","0.94719999999999949","-0.31739998782947709","0.94719999999999949","SIDE","2.775682425417385e-16","-0.018868190597237204","-0.0051846059006696588","0.99980853729363661","25.45790179833762","23.205885913073047","-207.81811121637642","0.009135269","0.000015787","245"
"246","peanuts","0.0","-0.37539999058432783","0.94719999999999882","-0.42439998965207337","0.94719999999999949","-0.60139999153987378","0.94719999999999882","SIDE","0.70652155192200783","-0.22417359269089301","-0.67124771657695426","-7.8569650253762737e-17","250.099758246487","-83.836338089948072","68.014439437035222","0.000482747","0.000022321","246"
"247","peanuts","0.0","-0.63239999301229044","0.94719999999999882","-0.76739999616481414","0.94719999999999949","-0.32439998816195892","0.94719999999999949","SIDE","3.8862232733985307e-16","-0.016797796828570521","0.014985985121234639","0.99974659502878649","24.575135360343616","-19.08530680747922","-207.43768207738978","0.011125602","0.000022901","247"
"248","peanuts","0.0","-0.58039999380204854","0.94719999999999915","-0.78339999692477402","0.94719999999999949","-0.40939998893960811","0.94719999999999938","SIDE","0.50248019881257422","-0.66331298588616627","0.23461283502257482","-0.50248019881257477","-222.18272170435748","-98.574508303157842","9.1653293488638212","0.002867746","0.000033615","248"
"249","peanuts","3.3306690738754701e-16","-0.55439999256711792","0.94719999999999793","-0.76839999621231403","0.94719999999999915","-0.46439999155197259","0.94719999999999938","SIDE","0.50103421120700986","0.62397250536577509","-0.32952655575521728","-0.50103421120701019","171.91299814964145","55.582626692974095","67.060492650946159","0.007278831","0.000026810","249"
"250","peanuts","0.0","-0.35839998977687182","0.94719999999999616","-0.38339999096430838","0.94719999999999904","-0.7623999959273261","0.94719999999999949","SIDE","0.70413587106149789","0.052345900398608064","-0.075134924505119119","0.704135871061498","2.1958766440610678","67.403781274585242","-142.81564361696121","0.002529177","0.000016674","250"
"251","peanuts","0.0","1.03260003065727","1.570796326794897","-0.4653999915994676","0.94719999999999938","-0.5813999938495481","0.94720000000000182","SIDE","0.67146272904113935","-0.31037607129244071","-0.044071548490158825","0.67146272904113957","70.673402582499989","-59.309835183799755","-178.34194086560663","0.000253310","0.000000276","251"
"252","peanuts","0.0","-0.76739999616481525","0.94719999999999949","-0.76639999611731646","0.94719999999999949","-0.36839999025184622","0.94720000000000149","SIDE","0.50269784794902783","0.47701916165579322","-0.51676151825386107","0.50269784794902828","5.8171682470919972","251.17589605613034","28.888213720760888","0.006606784","0.000032255","252"
"253","peanuts","0.0","-0.24639998771678301","0.94719999999999949","-0.53739999175965669","0.94719999999999849","-0.84639999665748533","0.94719999999999849","SIDE","0.70706349430198578","-0.42763656410437173","0.56319462361289752","-1.1776414355699099e-16","-167.08870351563402","-123.54470519517501","11.166568457398052","0.000677627","0.000020144","253"
"254","peanuts","0.0","-0.76439999602232434","0.94719999999999938","-0.76639999611731646","0.94719999999999938","-0.3643999900618573","0.94719999999999949","SIDE","0.70631901685082998","-0.034729535179063145","-0.70704123346600034","-2.2104050593739749e-16","248.83588040352754","-9.2600015068415882","31.612764570368658","0.003074572","0.000028379","254"
"255","peanuts","0.0","-0.7193999938849408","0.94719999999999793","-0.58339999394454156","0.94719999999999949","-0.50139999004975488","0.94719999999999971","SIDE","0.0","-0.19420684210152411","-0.67936131558729018","0.70763825883318376","62.752598830445208","223.79134912377373","67.357274268405419","0.007780220","0.000023999","255"
"256","peanuts","0.0","-0.76139999587982921","0.94719999999999782","-0.60039999149236256","0.94719999999999882","-0.50339999014475123","0.94719999999999949","SIDE","3.9222830689503339e-17","-0.19420684210152409","-0.67936131558729007","0.70763825883318388","55.881189250534533","199.75424619973344","67.394869536628434","0.008735042","0.000031019","256"
"257","peanuts","0.0","-0.57639999361205851","0.94719999999999793","-0.72339999407493039","0.94719999999999949","-0.50839999038222938","0.9471999999999986","SIDE","0.50103421120700986","0.62397250536577509","-0.32952655575521744","-0.5010342112070103","219.68656314717981","70.335376103596531","66.85343649097986","0.006328687","0.000025332","257"
"258","peanuts","0.0","-0.44639999069701558","0.94719999999999815","-0.31639998778197043","0.94719999999999849","-0.8903999954877494","0.94719999999999949","SIDE","3.9119758166310537e-16","-0.67703334071862609","0.19552932562599268","0.70950274021713355","193.10525654643172","-57.785135836640016","10.044715871175169","0.005883858","0.000041186","258"
"259","peanuts","0.0","-0.41339998912959991","0.94719999999999815","-0.5793999937545522","0.94719999999999971","-0.75239999545235414","0.94719999999999949","SIDE","0.50149434904176093","0.65116034739853657","-0.27017963974766479","0.50149434904176116","-73.782638235361134","179.94353041637322","66.741607611781944","0.003882125","0.000017675","259"
"260","peanuts","0.0","-0.77139999635480461","0.9471999999999986","-0.79739999433011444","0.94719999999999938","-0.41739998931959138","0.94719999999999938","SIDE","0.50011740587893361","-0.25616351395109438","-0.65889712003777878","-0.50011740587893394","92.162529099782304","-205.95292475604677","31.059374776996936","0.000023599","0.000034642","260"
"261","peanuts","0.0","-0.59339999115990472","0.94719999999999405","-0.76839999621231247","0.94719999999999971","-0.51539999071471188","0.94719999999999938","SIDE","0.50103421120700975","0.62397250536577531","-0.32952655575521739","-0.5010342112070103","195.79978064841083","62.959001398285366","66.956964570962896","0.007330016","0.000022363","261"
"262","peanuts","0.0","-0.50139999004976621","0.94719999999999949","-0.69539999274498632","0.94719999999999949","-0.46039999136197518","0.94720000000000004","SIDE","-0.49848134630487406","0.61157979547235664","-0.35916966539805506","0.49848134630487406","-174.51469940276087","-47.103169900096994","31.974378877624332","0.006470216","0.000021423","262"
"263","peanuts","0.0","-0.27039998885672561","0.94719999999999793","-0.53139999147467565","0.9471999999999986","-0.86839999770242848","0.9472000000000016","SIDE","0.5033906833064079","-0.68520758456567599","0.15390323574989254","0.50339068330640835","107.61006903724414","-178.51905664100079","8.8533838361775086","0.007632949","0.000025655","263"
"264","peanuts","0.0","-0.71139999350495664","0.94719999999999394","-0.62539999267980317","0.94719999999999971","-0.50939999042973594","0.94720000000000271","SIDE","0.50098373440003496","-0.43474422146164299","0.55590292105627603","0.50098373440003474","-20.415743856807556","-187.67026890432169","47.062568307085769","0.007700859","0.000051425","264"
"265","peanuts","0.0","-0.62639999272731273","0.94719999999999949","-0.59739999134988431","0.94719999999999938","-0.58239999389704311","0.94719999999999904","SIDE","0.50134051002877478","0.66824107522899634","0.22532033060727208","-0.50134051002877511","104.92309503496244","214.26693437205827","46.585947693462693","0.002388499","0.000030336","265"
"266","peanuts","0.0","-0.59239999111239494","0.94719999999999815","-0.87039999779742316","0.94719999999999938","-0.38839998794216452","0.94719999999999938","SIDE","1.1740604318502215e-16","0.26939404188118138","-0.65148575268940534","0.70922010986832518","-70.831284937610036","176.5777487991551","10.268258804700729","0.006901350","0.000030196","266"
"267","peanuts","0.0","-0.56139999289959353","0.94719999999999904","-0.72239999402742083","0.94719999999999915","-0.52039999095220213","0.94719999999999949","SIDE","-0.49848134630487417","0.61157979547235652","-0.35916966539805506","0.49848134630487401","-198.70972431173195","-53.394256973118061","32.126013616232463","0.008797844","0.000030703","267"
"268","peanuts","0.0","-0.36639999015684932","0.94719999999999704","-0.59439999120738229","0.94719999999999938","-0.38439999101180627","0.94719999999999938","SIDE","0.50027496351071188","0.6855593980506125","-0.17163401036272935","-0.50027496351071232","225.85724068447678","135.93870817222165","67.397263718788949","0.000023207","0.000016685","268"
"269","peanuts","0.0","1.0326000306572749","1.570796326794897","-0.58939999096990248","0.94719999999999949","-0.48839998943228452","0.94719999999999949","SIDE","2.7098720852599885e-16","0.21041819640335555","0.53321835577993948","0.81939146180668543","-70.442701054243216","-177.48981269060414","33.754243992725868","0.001043998","0.000001540","269"
"270","peanuts","0.0","-0.41339998912959908","0.94719999999999849","-0.57739999365955708","0.94719999999999971","-0.74939999530986401","0.94719999999999938","SIDE","0.50149434904176093","0.65116034739853657","-0.27017963974766479","0.50149434904176116","-73.321274279114618","180.45894213697397","66.739811713125036","0.007221403","0.000042032","270"
"271","peanuts","0.0","-0.61239999206234408","0.94719999999999915","-0.83739999623000283","0.94719999999999949","-0.42739998979456811","0.94719999999999971","SIDE","1.1740604318502215e-16","0.26939404188118132","-0.65148575268940534","0.70922010986832529","-80.38426853665203","199.68008865415609","10.118600592618822","0.007483431","0.000044635","271"
"272","peanuts","0.0","-0.55739999270960805","0.9471999999999986","1.0986000337921089","1.5707963267948959","-0.53739999175966002","0.94719999999999949","SIDE","-5.0570989044185351e-17","0.19162879977307307","-0.53433313716366171","0.82326575394970181","-70.624558822562577","182.66042989452114","30.402334888694035","0.000090963","0.000000121","272"
"273","peanuts","0.0","-0.76539999606982168","0.94719999999999938","-0.53939999185465204","0.94719999999999949","-0.47739999216943968","0.94720000000000037","SIDE","-0.49958618041849506","0.63315847980223139","0.3161291446928684","-0.49958618041849545","170.64786096731009","-56.562373436983002","67.875453596131891","0.006567536","0.000024449","273"
"274","peanuts","0.0","-0.55639999266211049","0.94719999999999949","-0.69039999250750783","0.94719999999999915","-0.52339999109470148","0.94720000000000248","SIDE","-0.49848134630487406","0.61157979547235652","-0.359169665398055","0.49848134630487401","-222.90474922070192","-59.685344046138894","32.277648354840373","0.007077891","0.000027544","274"
"275","peanuts","0.0","-0.77939999673478544","0.9471999999999986","-0.77139999635480538","0.94719999999999949","-0.29339998668954093","0.94719999999999915","TOP","0.017138543300288495","0.89315153490472676","-0.44910230055569628","0.017138543300288224","-19.447035205795601","30.721021823677638","301.45474886445459","0.009621874","0.000030743","275"
"276","peanuts","0.0","-0.60139999153987622","0.94719999999999904","-0.69739999283999743","0.94719999999999849","-0.55239999247211902","0.94719999999999949","SIDE","1.5634517069968605e-16","-0.66338636416099228","-0.23592799172581067","0.71011021297083554","222.517401681976","79.518062899289959","45.971189758823975","0.009021226","0.000080512","276"
"277","peanuts","0.0","-0.62939999286980208","0.94719999999999938","1.098600033792094","1.570796326794897","-0.47639999212194262","0.94720000000000004","SIDE","0.56075878353401687","-0.42515481415451867","-0.4362826576660308","0.56075878353401754","199.97270293351653","3.0711813764451312","45.131655806194281","0.000190421","0.000000332","277"
"278","peanuts","0.0","-0.64939999381974312","0.94719999999999815","-0.66739999467469369","0.94719999999999938","-0.48739998938478901","0.94719999999999993","SIDE","1.667446252645061e-16","0.7074362737587595","0.019704179170986599","0.70650241605639208","-192.4891969805995","-3.1046291858212172","47.895861311874064","0.013065387","0.000036830","278"
"279","peanuts","0.0","-0.60039999149237822","0.94719999999999882","-0.46139999140948601","0.94719999999999949","-0.41039998898710822","0.94720000000000482","SIDE","-0.49958618041849506","0.6331584798022315","0.31612914469286851","-0.49958618041849551","242.03749141910788","-81.143818956861068","68.000375393310932","0.000006669","0.000013271","279"
"280","peanuts","0.0","-0.77239999640230084","0.94719999999999915","-0.54839999228213132","0.94719999999999949","-0.47239999193195381","0.94719999999999949","SIDE","-0.49958618041849501","0.6331584798022315","0.31612914469286851","-0.49958618041849551","170.89984465310027","-57.386297765675771","67.876280892853245","0.007235353","0.000028298","280"
"281","peanuts","0.0","-0.59539999125488496","0.94719999999999949","-0.82639999570753042","0.94720000000000115","-0.43839999031703569","0.94719999999999938","SIDE","1.1740604318502215e-16","0.26939404188118138","-0.65148575268940534","0.70922010986832518","-81.425024995374969","198.0594155233062","10.125185554361593","0.009239226","0.000056681","281"
"282","peanuts","0.0","-0.43139998998455681","0.94719999999999827","-0.60339999163486624","0.94720000000000126","-0.43239999003205482","0.94719999999999938","SIDE","0.7092201098683254","0.65148575268940534","0.26939404188118105","0.0","-99.040726783577341","241.02611678102554","66.345911300409668","0.000025303","0.000012819","282"
