ipa320/cob_manipulation/cob_grasp_generation/common/files/database/hotpot/hotpot.csv
"id","object","sdh_knuckle_joint","sdh_finger_12_joint","sdh_finger_13_joint","sdh_finger_22_joint","sdh_finger_23_joint","sdh_thumb_2_joint","sdh_thumb_3_joint","direction","qw","qx","qy","qz","pos-x","pos-y","pos-z","eps_l1","vol_l1"
"0","hotpot","0.75500000000000045","-1.017796316826951","1.5307963281546311","-0.68579631083669312","1.5707963267948959","-1.1097963179371011","1.496000025421389","SIDE","1.7623563789002876e-16","0.70871074525952527","-0.10197528614542566","0.69809033840130386","-143.96840482369154","36.29186940200433","89.192759342716414","0.006511842","0.000165688","0"
"1","hotpot","0.75500000000000056","-0.91579631524184046","1.4210000218590719","-0.6547963126238916","1.5707963267948959","-1.12479631864955","1.465000023948968","SIDE","0.72992531057170718","-0.10137018514839695","-0.67596828812435916","9.5063067459222708e-17","149.87860442106381","-40.800979571493016","77.067535999586809","0.006678896","0.000200641","1"
"2","hotpot","0.75499999999999967","-1.042796318014386","1.499000025563878","-0.62979631143644954","1.570796326794897","-1.110796317984591","1.498000025516371","SIDE","2.5359997346160515e-16","0.7114008690103516","-0.12018120241050168","0.69243431613293316","-142.11622954596771","43.232262337905084","91.235609186505656","0.010782486","0.000166403","2"
"3","hotpot","0.75500000000000156","-1.045796318156877","1.546796328914591","-0.48979630804644331","1.5707963267948959","-1.0987963174146249","1.4240000220015649","SIDE","2.5971587827770642e-16","-0.68933402079096251","0.066708951844923883","0.72136573492502165","150.56894679443556","4.9523619907260006","35.80256465955933","0.009383840","0.000125998","3"
"4","hotpot","0.0","1.0322037120906129","1.570796326794897","-1.277796319397408","3.37011963439686e-16","0.1102037008942464","0.0","TOP","0.48597989655591428","0.55035437442681845","0.47408558598239542","-0.48597989655591428","30.144386428531348","172.29613369075221","133.06034224369614","0.000335119","0.000003542","4"
"5","hotpot","0.75499999999999967","-1.0867963168446519","1.5057963269671919","-0.59379630972654118","1.570796326794897","-1.0587963187743481","1.5097963271571799","SIDE","0.69549656755429257","0.098865470086349577","0.71169526016744156","7.9815133274434818e-17","-149.93948249242982","-2.9419173634811857","54.755525698687137","0.011459026","0.000115297","5"
"6","hotpot","0.0","1.03220371209061","1.570796326794897","-1.1667963206444429","1.1970000209985321","-0.51679630932887843","0.97100001678337189","TOP","0.50020075591270774","0.55609198658784931","0.4363027733369233","-0.50020075591270774","36.171925833475164","172.87032533378968","85.750376180300051","0.004549021","0.000037957","6"
"7","hotpot","0.0","-1.127796318792043","1.4450000229990141","-1.0477963182518739","1.5397963285821079","-0.89279631414939209","1.570796326794897","SIDE","0.69549656755429257","0.098865470086349577","0.71169526016744156","7.9815133274434818e-17","-149.63182007639065","-2.9144131237272033","70.131829244897574","0.004602328","0.000120153","7"
"8","hotpot","0.0","-0.49979630852140772","0.98300001735333264","1.0982037152254609","1.570796326794897","-1.1737963177172881","1.116000017151235","SIDE","0.50279797593593556","-0.55327286756681671","-0.43390958136902724","-0.50279797593593578","-29.067621898814622","-180.30997023669147","104.35833573148163","0.003314504","0.000072905","8"
"9","hotpot","0.0","-0.97979631502207298","1.570796326794897","-0.91979631543183082","1.570796326794897","-1.0327963175394139","1.5577963294370589","SIDE","1.9298094995672187e-17","-0.69166916991304728","0.066705485598410386","0.71912734448279492","150.70407491190173","1.0448536249950491","45.997388097255069","0.003134921","0.000067819","9"
"10","hotpot","0.0","-1.0017963160669909","1.570796326794897","-0.88079631357941846","1.570796326794897","-1.058796318774347","1.509796327157181","SIDE","0.69549656755429257","0.098865470086349577","0.71169526016744156","7.9815133274434818e-17","-149.93948249242982","-2.9419173634811702","54.75552569868713","0.002847639","0.000094241","10"
"11","hotpot","0.0","1.032203712090612","1.570796326794897","-1.2597963218020749","0.39600000903010368","-0.064796304158165147","0.18100000533741251","SIDE","0.50279797593593556","-0.43390958136902696","0.55327286756681682","0.502797975935936","-29.055618774325382","-180.21069956305647","104.35945805339438","0.004890266","0.000031904","11"
"12","hotpot","0.0","1.0322037120906149","1.5707963267948959","-1.254796321564587","0.34800000675022791","-0.060796303968172247","0.1270000027725485","TOP","0.50020075591270752","0.55609198658784931","0.43630277333692336","-0.50020075591270774","36.171925833475157","172.88650520087882","105.75037618029741","0.004631353","0.000038046","12"
"13","hotpot","1.110223024625157e-16","-1.128796318839544","1.272000021301209","-1.0517963184418651","1.3600000222213611","-0.45879630983364822","0.67700001259800269","SIDE","1.3863006650155419e-16","-0.59402282292234654","0.075969622143918961","0.800852984235357","161.55515257042308","-0.39481904218324426","24.180962654744906","0.013803467","0.000187168","13"
"14","hotpot","0.0","1.032203712090616","1.570796326794897","-1.0847963167496439","1.070000018225987","-0.54379631061130307","0.95800001616590669","SIDE","0.48499756539306754","-0.43420568817323468","0.58396930012082171","0.48499756539306743","-32.245618454033405","-178.93115245453572","93.663870980183091","0.004735710","0.000028981","14"
"15","hotpot","0.0","-0.63379631162644801","1.570796326794897","-0.43279630859871882","1.570796326794897","-1.17079631757481","0.99400001787581338","SIDE","3.0977772335970006e-16","0.71678687065306834","-0.097375781381991211","0.69045965795231512","-142.22759644746816","33.932105623336774","111.92779836814528","0.002629680","0.000050170","15"
"16","hotpot","0.0","-0.8257963142266963","1.4770000245189301","-0.73879631335404827","1.570796326794897","-1.12479631864955","1.46500002394896","SIDE","0.72992531057170706","-0.10137018514839691","-0.67596828812435905","9.5063067459222696e-17","149.87860442106381","-40.800979571493109","77.067535999586809","0.005410548","0.000202510","16"
"17","hotpot","5.5511151231257827e-16","-0.92379631562181697","1.570796326794897","-0.80179631308674637","1.570796326794897","-1.109796317937094","1.4960000254213781","SIDE","1.5665390034669222e-16","0.70871074525952527","-0.10197528614542566","0.69809033840130386","-143.96840482369154","36.291869402004359","89.192759342716428","0.005139885","0.000073832","17"
"18","hotpot","0.75499999999999989","-1.0657963191068289","1.501796326777201","-0.62679631129397428","1.570796326794897","-1.032796317539411","1.557796329437056","SIDE","1.9298094995672187e-17","-0.69166916991304728","0.066705485598410386","0.71912734448279492","150.70407491190173","1.0448536249950067","45.997388097255062","0.011062393","0.000124755","18"
"19","hotpot","0.0","-0.59279630967904073","1.570796326794897","-0.43579630874120501","1.570796326794897","-1.1567963201694711","0.97200001683085857","SIDE","0.70481806243260181","-0.084865934198884274","-0.70429345594099035","2.0674381056456814e-16","147.08376649824294","-36.510893845574394","106.69505649022635","0.001782503","0.000063612","19"
"20","hotpot","0.0","-1.040796317919392","1.384000023361299","-0.99079631554451308","1.4680000240914559","-0.92179631552683117","1.570796326794897","SIDE","0.73063499413645483","-0.073880527672251922","-0.67875928942010966","-1.9943853381164145e-16","148.61535571535666","-35.264769871795899","56.897992434733361","0.014261615","0.000132770","20"
"21","hotpot","0.0","-0.92979631590680423","1.5607963295795519","-0.80979631346674219","1.570796326794897","-1.098796317414622","1.4750000244239361","SIDE","2.5359997346160515e-16","0.7114008690103516","-0.12018120241050168","0.69243431613293316","-142.90438699391547","43.365410488138011","91.268464737102278","0.004704283","0.000101508","21"
"22","hotpot","0.0","-0.63379631162644245","1.5707963267948959","-0.4317963085512172","1.5707963267948959","-1.1697963207869351","0.99200001778081248","SIDE","3.2913883106968126e-16","0.71678687065306845","-0.097375781381991211","0.69045965795231512","-142.07042875945609","35.089046903106109","111.92779836814516","0.001998603","0.000027836","22"
"23","hotpot","0.0","-0.70079631154915334","1.5707963267948959","-0.51079630904388007","1.570796326794897","-1.152796319979482","1.112000016961245","SIDE","3.0977772335970006e-16","0.71678687065306834","-0.097375781381991211","0.69045965795231512","-142.22759644746824","35.089046903105945","108.58439367426712","0.000935488","0.000026855","23"
"24","hotpot","0.0","-0.98079631506953502","1.570796326794897","-0.92079631547932705","1.570796326794897","-1.0307963174444219","1.556796329389569","SIDE","1.9298094995672187e-17","-0.69166916991304717","0.066705485598410372","0.71912734448279503","151.0838233308296","4.9824824157316128","45.997388097255062","0.012980108","0.000147125","24"
"25","hotpot","0.0","-0.122796303653394","0.49900001066270999","1.098203715225436","1.570796326794897","-1.2677963221820581","0.54500000958796835","SIDE","0.47430078995589742","-0.48083603492467475","0.56468949769970034","0.47430078995589769","-10.738369929698123","-190.37247869876026","24.617599962677271","0.005079125","0.000025786","25"
"26","hotpot","0.0","1.032203712090616","1.570796326794897","-1.570796326794897","0.11800000234506899","0.19220370152941429","0.0","SIDE","-0.47430078995589731","0.56468949769970023","0.48083603492467536","0.47430078995589758","-8.6217166606193594","-163.98102194435427","21.952474268760078","0.000119995","0.000004224","26"
"27","hotpot","1.6653345369377351e-16","-1.158796320264466","0.8430000139633147","-1.162796320454454","1.3500000217463839","-0.64779631229140922","1.570796326794897","SIDE","2.5472707851898429e-16","0.70825309405863679","-0.12761660851430948","0.69432813279289884","-142.78175630448848","53.04179364492088","55.209970904330454","0.004335087","0.000054816","27"
"28","hotpot","0.75500000000000123","-0.63479631167394479","1.570796326794897","-0.57979630906158652","1.5707963267948959","-1.060796318869341","0.71000001090578901","SIDE","0.67356713574764882","-0.11259624031672166","-0.73049941841677557","-2.6784448338818422e-16","150.87592897430758","-23.839545221401856","118.12695127638672","0.000374497","0.000040297","28"
"29","hotpot","1.110223024625157e-16","-0.8717963131519636","1.5707963267948959","-0.78979631251678428","1.570796326794897","-1.0987963174146149","1.4240000220015649","SIDE","2.6933498488058447e-16","-0.68933402079096251","0.066708951844923869","0.72136573492502165","150.56894679443559","4.9523619907260334","35.802564659559337","0.004164547","0.000109400","29"
"30","hotpot","4.4408920985006252e-16","1.0322037120906109","1.570796326794897","-1.224796320139663","0.55100000987295183","-0.14879630488832271","1.501796326777203","SIDE","9.7650236192290586e-17","0.71058649466482804","-0.053350765715792531","0.70158429956598301","-153.14523976113637","-31.14929780895563","32.527056442084415","0.003284478","0.000011752","30"
"31","hotpot","0.0","-1.111796318032086","1.36400002241135","-1.0557963186318511","1.5697963300070319","-0.89979631448188224","1.570796326794897","SIDE","2.1428369714254235e-16","0.71239981352576676","-0.10980538411210714","0.69313006233205998","-144.44782431524717","37.588179529947638","71.010439888763415","0.007809266","0.000150285","31"
"32","hotpot","0.0","-1.149796319836986","0.92900001478846872","-1.140796319409517","1.2950000223936611","-0.63579631172144602","1.570796326794897","SIDE","2.1455558155900452e-16","0.71149706186495776","-0.098955192110640966","0.69568656801168638","-145.97374302818224","35.784036676902794","54.731076130220984","0.005339444","0.000093984","32"
"33","hotpot","3.3306690738754691e-16","-0.24279630609345651","0.91300001402851028","1.09820371522544","1.570796326794897","-1.570796326794897","1.0940000193659041","SIDE","0.47430078995589742","-0.48083603492467475","0.56468949769970034","0.47430078995589769","-8.7640995828701005","-165.75632108759572","22.13175180562202","0.006841586","0.000041124","33"
"34","hotpot","0.75500000000000045","-0.07079630118352688","0.45600000862032147","0.1162037011792446","-1.0374322552752909e-15","-1.570796326794897","1.094000019365919","SIDE","0.47430078995589747","-0.48083603492467486","0.56468949769970034","0.47430078995589769","-8.7640995828701005","-165.75632108759578","22.131751805622027","0.002715505","0.000115303","34"
"35","hotpot","0.0","-1.061796318916836","1.1550000190036289","-1.0547963185843541","1.322000020416453","-0.41379630769625919","0.51800000830553505","SIDE","6.3248800055444989e-17","-0.56693944601391111","0.039552906967407014","0.82280935343727535","162.48267247308456","-0.81542831869421251","11.972075908576183","0.021539884","0.000214446","35"
"36","hotpot","0.75500000000000034","-0.80779631337173763","0.60600000922568131","-0.062796304063172936","0.40600000624544902","-1.097796317367105","1.377000023028824","SIDE","0.77561478602726652","-0.1234727834504515","-0.61901225791003156","0.0","155.04764249075961","-68.935002136378557","56.194650339729691","0.019879541","0.000241307","36"
"37","hotpot","0.75500000000000078","-0.03679630282823862","0.27200000640004968","0.10320370056180909","4.9307590398230733e-15","-1.2677963221820561","0.54500000958796646","SIDE","0.47430078995589747","-0.48083603492467475","0.56468949769970034","0.47430078995589769","-10.738369929698122","-190.37247869876037","24.617599962677271","0.001923882","0.000065298","37"
"38","hotpot","0.75500000000000012","-1.083796316702156","1.441000022809019","-0.071796301231029577","1.5707963267948959","-1.570796326794897","1.570796326794897","SIDE","0.77561478602726663","-0.1234727834504515","-0.61901225791003145","0.0","131.21473091399076","-64.181112544518584","61.236996968266368","0.005640163","0.000059476","38"
"39","hotpot","0.0","-1.266796322134558","0.0","-1.2447963210896089","0.40600000624544907","-0.083796301801015299","1.430000022286551","SIDE","0.69524200128416258","0.099118144543080364","0.71190880952038338","-1.5968871595422799e-16","-148.38117649999785","-2.8059801755296192","110.24143743135083","0.008544687","0.000118768","39"
"40","hotpot","0.75500000000000023","-0.45879630983365399","1.570796326794897","-0.32979630696609752","1.5707963267948959","-0.8067963133242434","0.0","SIDE","0.56210587737475926","-0.11161168399437996","-0.81949973436035406","1.7282244958619132e-16","143.6618607784672","-19.235069875455284","167.74144465555872","0.007504154","0.000045958","40"
"41","hotpot","0.755","-0.64079631195893005","1.3510000217938789","-0.74479631363903653","1.438000022666529","-1.1207963184595591","1.4500000232365009","SIDE","5.7338487792927387e-17","0.67897571878718621","-0.10850628623899551","0.72609803686833174","-152.4667225600864","19.254437341906943","78.354133250792984","0.024153457","0.000333405","41"
"42","hotpot","0.75500000000000023","-0.69179631112167772","1.570796326794897","-0.61079631053400196","1.570796326794897","-1.0097963164469661","0.63700001069810697","SIDE","1.8222861939688834e-17","0.7615591806459916","-0.084197770117584531","0.64260279324091973","-145.44870114408897","11.922261164363569","128.99649983987072","0.000346990","0.000072519","42"
"43","hotpot","0.75499999999999978","-1.2347963206146439","0.45400000852533112","-0.67979631055168854","1.5707963267948959","-0.1327963041283661","1.479000024613917","SIDE","0.49572566946498142","0.56529400686134612","0.4346893224748416","0.49572566946498109","-150.76612029015598","-3.9820949791578668","32.719303977624783","0.007605442","0.000089555","43"
"44","hotpot","0.0","-0.69379631121667207","1.5707963267948959","-0.58279630920408354","1.5707963267948959","-1.1477963197419869","1.222000018926336","SIDE","2.6933498488058447e-16","-0.68933402079096251","0.066708951844923869","0.72136573492502165","150.23235559883653","4.9427376797107607","25.153243852816594","0.003895063","0.000046493","44"
"45","hotpot","0.0","-0.62379631115148082","1.570796326794897","1.098203715225446","1.5707963267948959","-1.153796320026977","1.283000021823671","SIDE","2.1052556263150351e-16","-0.68856840594905577","0.0088812383353348758","0.7251170070646582","151.2346603451482","35.864000494218665","23.768790212564845","0.001342224","0.000006891","45"
"46","hotpot","0.0","-1.159796320311963","0.77700001408810515","-1.1637963205019479","1.344000021461405","-0.57879630901407453","1.570796326794897","SIDE","1.9463957571581748e-16","0.71299928376727706","-0.14362720298164461","0.68629676373345916","-142.58628448926314","63.938243173780869","58.251053609383902","0.005404527","0.000054215","46"
"47","hotpot","0.75499999999999989","-1.228796320329657","0.39200000884011582","-0.64479631214891675","1.570796326794897","-0.19579630386109501","1.570796326794897","SIDE","0.48822870627382636","-0.4379897815657246","0.57569993224281391","-0.48822870627382636","-142.52454391651904","35.129387334842406","108.59835295158548","0.003265559","0.000108017","47"
"48","hotpot","0.0","1.03220371209061","1.570796326794897","-0.41979630798124862","1.570796326794897","-1.1707963175747931","1.011000015423636","SIDE","0.71527241545693188","-0.044929602937466485","-0.69739995875128058","-2.1342311346990671e-16","154.43966500452544","29.108236002249367","102.8078345912339","0.002427005","0.000007655","48"
"49","hotpot","2.2204460492503141e-16","-0.69479631126415797","1.570796326794897","-0.58279630920407244","1.5707963267948959","-1.1467963196944979","1.2300000193063181","SIDE","2.7895409148346248e-16","-0.6893340207909624","0.066708951844923883","0.72136573492502165","150.66839918914488","9.4485762079863829","25.15324385281637","0.005990090","0.000066497","49"
"50","hotpot","0.75499999999999845","-1.0897963169871441","1.468000024091451","-0.4877963079514453","1.5707963267948959","-1.030796317444413","1.556796329389555","SIDE","1.9298094995672187e-17","-0.69166916991304717","0.066705485598410358","0.71912734448279503","151.0838233308296","4.9824824157315151","45.997388097255069","0.012852655","0.000124190","50"
"51","hotpot","0.755","-0.6157963107715051","1.1570000190986389","-0.65079631243390434","1.1710000197636039","-1.1137963181270709","1.3950000238837741","SIDE","0.76638787627448512","-0.070942287156144812","-0.63844875674758683","-2.5351266026527915e-16","159.17755576107595","-17.910797596368663","61.030535761635797","0.020509511","0.000302372","51"
"52","hotpot","1.6653345369377351e-16","1.032203712090612","1.570796326794897","-0.44779630931117759","1.570796326794897","-1.173796317717297","1.0820000187959531","SIDE","3.6811870648677541e-16","0.71628516481801563","-0.036867551902534657","0.69683308351307627","-151.29316527276274","-34.204059895507662","109.65470349387573","0.000060403","0.000005035","52"
"53","hotpot","2.2204460492503141e-16","-0.62579631124647372","-2.1252039709963529e-16","-0.1507963049833109","3.173858077061389e-16","-0.8247963141792034","0.95500001602340057","SIDE","-0.41948764042418174","0.57685078124011802","-0.5615188467410247","-0.41948764042418174","2.4159752917471975","-193.29132190240722","110.30319724090359","0.002665327","0.000071340","53"
"54","hotpot","0.0","1.032203712090616","1.570796326794897","-1.320796321439794","-1.184015105910221e-15","0.16820370038947929","5.2008126784436099e-16","SIDE","-0.47430078995589731","0.56468949769970023","0.48083603492467525","0.47430078995589769","-10.603145924901638","-188.68644040100682","24.447336379648196","0.000683597","0.000003136","54"
"55","hotpot","0.0","-1.19379631866725","0.93800001521594578","-1.153796320026977","1.129000017768705","-0.50379630871141223","1.570796326794897","SIDE","8.7269080799669721e-17","-0.69441736826834077","0.075474417351407308","0.71560333353942474","152.20473132591161","3.3796049538100776","82.6860051190571","0.003940750","0.000076696","55"
"56","hotpot","0.0","-1.1937963186672449","0.9160000141710013","-1.157796320216963","1.2300000193063161","-0.55779631127626972","1.570796326794897","SIDE","0.69257663023260041","0.089375347037872144","0.71578604247185207","-2.4045491346978255e-16","-148.45323888835793","-4.7780946318063231","91.1758322156887","0.005819715","0.000058571","56"
"57","hotpot","0.75499999999999989","-1.2307963204246519","0.2850000070175141","-0.52679630980385383","1.570796326794897","-0.22579630528600311","1.570796326794897","SIDE","0.48822870627382631","-0.4379897815657246","0.57569993224281391","-0.4882287062738262","-142.52454391651901","33.97244605507354","111.94175764546377","0.002994956","0.000084359","57"
"58","hotpot","0.75500000000000045","-0.17079630267363971","1.1700000197161049","-0.1347963042233622","1.570796326794897","-1.121796318507047","0.0","SIDE","0.66819843967319148","-0.035950074709619091","-0.7431140136928418","-1.6615169367473447e-16","148.09796197177815","-1.516291057993681","139.60780036877284","0.000539708","0.000039066","58"
"59","hotpot","0.0","-1.1947963187147459","0.86800001515075309","-1.1617963204069539","1.0680000181309861","-0.34079630748857742","1.0640000179410081","SIDE","6.3378165066319774e-17","-0.6384487567475865","0.070942287156144604","0.76638787627448557","159.5441087174778","-14.611997381245688","61.030535761636401","0.011571979","0.000153307","59"
"60","hotpot","0.75499999999999989","-0.56079631141876085","1.108000016771256","-0.67679631040920574","1.1750000199535899","-1.115796318222078","1.3980000240262569","SIDE","0.76638787627448535","-0.070942287156144798","-0.63844875674758661","-2.535126602652791e-16","159.44624883401289","-14.601123518806906","61.048005838105986","0.016835275","0.000226546","60"
"61","hotpot","0.0","-1.1217963185070601","1.430000022286547","-1.0687963192493231","1.5377963284871119","-0.8057963132767556","1.5127963272996761","SIDE","0.71402461143423035","0.087195854122066041","0.69466951659772713","-2.9154011470148228e-17","-149.7477641327003","14.176828428687546","63.228630920577174","0.014601793","0.000164093","61"
"62","hotpot","0.0","-0.53279631008884099","1.0200000158511049","1.098203715225452","1.5707963267948959","-1.16279632045445","1.2140000185463591","TOP","0.50020075591270696","0.43630277333692358","-0.55609198658784997","0.50020075591270752","36.171925833475179","172.88650520087864","105.75037618029783","0.006673558","0.000041555","62"
"63","hotpot","0.0","-1.5707963267948959","1.570796326794897","-0.80879631341923619","1.5707963267948959","-0.43079630850371581","0.0","SIDE","7.2794834429934428e-18","0.95321240280942798","-0.11497238464856044","0.27958445217590383","-66.084295544927386","3.9370710362272887","213.60840876997159","0.003846276","0.000033537","63"
"64","hotpot","0.0","1.0322037120906169","1.570796326794897","-1.254796321564587","0.41400000662543007","-0.080796301658512482","1.476000024471434","SIDE","0.69834060141567056","0.1131764914305252","0.70676126535194028","-9.9362601713845037e-17","-140.10526098159474","58.390588195066833","109.10563578489563","0.002412905","0.000011025","64"
"65","hotpot","0.0","-0.77379631175683283","1.5707963267948959","-0.83279631455917313","1.570796326794897","-1.074796316274683","0.0","SIDE","0.59823886035725882","0.13173269884788874","-0.79041556286089132","-1.8558189682999675e-16","132.51472643361348","16.185266934243682","139.47596014913896","0.003888234","0.000041202","65"
"66","hotpot","0.75500000000000056","-1.207796319332211","0.26500000606756757","-0.46879631030862312","1.570796326794897","-0.22679630533350531","1.47800002456643","SIDE","-0.49838163144885639","0.55801995620494549","0.43800140107742042","-0.49838163144885655","147.5801652782165","-36.570708892614071","106.69828798929768","0.002766193","0.000041581","66"
"67","hotpot","0.0","1.0322037120906129","1.570796326794897","-1.1497963198369889","1.3010000194190059","-0.63579631172144058","1.5707963267948959","SIDE","0.71677490961949442","-0.029332700552046547","-0.69668739160278303","-1.5489144635580607e-16","153.22494027919586","32.019809815728117","46.870700540718524","0.001593772","0.000008374","67"
"68","hotpot","0.0","-0.57879630901408086","1.5707963267948959","-0.40679630736377509","1.570796326794897","-1.0617963189168389","0.71400001109577838","SIDE","0.67356713574764859","-0.11259624031672166","-0.73049941841677568","-2.6784448338818422e-16","150.7775208879807","-23.824376995038257","118.11768981308069","0.001189122","0.000040663","68"
"69","hotpot","0.755","-0.45379630959615203","0.77000001375563543","-0.40579630731628152","0.63600001065060374","-1.1337963190770219","1.247000020113765","SIDE","0.79865927105417989","-0.0067294962320089604","-0.60174586217079162","-1.0208609143582949e-16","167.54573627309099","-4.1036597418024909","50.182598636179321","0.017549182","0.000190524","69"
"70","hotpot","0.0","1.032203712090614","1.5707963267948959","-1.2207963199496781","0.53900000930298408","-0.17479630286363751","1.570796326794897","SIDE","0.72511700706465765","-0.008881238335334881","-0.68856840594905611","-2.6794162516736816e-16","151.13480180658146","35.86528848169236","23.77394914767368","0.000060341","0.000001845","70"
"71","hotpot","0.0","-0.41779630788625349","0.84600001410581271","-0.35179630801105383","0.59900001215282994","-1.1337963190770259","1.247000020113763","SIDE","0.79865927105417989","-0.0067294962320089621","-0.60174586217079173","-1.0208609143582949e-16","167.54573627309097","-4.1036597418024829","50.182598636179314","0.012688603","0.000146158","71"
"72","hotpot","0.0","-0.11679630336840401","1.570796326794897","0.013203699546632759","1.471000024233948","-1.21679631975969","0.0","SIDE","0.70053490395612628","-0.080443830280635675","-0.70906955830084906","4.9525682908312329e-17","146.95366424917245","-35.622910428757734","128.26073366115443","0.004101248","0.000029220","72"
"73","hotpot","0.755","-0.73679631325905726","1.570796326794897","-0.64479631214891731","1.5017963267772021","-1.570796326794895","1.570796326794897","SIDE","0.79865927105418","-0.0067294962320089621","-0.60174586217079173","-1.0208609143582949e-16","143.60274687512739","-3.8358984374613909","57.050616004595803","0.002495098","0.000131123","73"
"74","hotpot","0.0","-0.67779631045671918","1.570796326794897","-0.58479630929907256","1.5377963284871099","-1.5707963267948959","1.570796326794897","SIDE","0.79865927105418","-0.0067294962320089621","-0.60174586217079173","-1.0208609143582949e-16","143.60274687512739","-3.8358984374614353","57.050616004595788","0.000839656","0.000104736","74"
"75","hotpot","0.0","-0.59279630967906338","0.83300001348834074","-0.30379630573117089","0.35700000717770031","-1.097796317367127","1.377000023028826","SIDE","0.77561478602726652","-0.1234727834504515","-0.61901225791003145","0.0","155.04764249075964","-68.9350021363786","56.194650339729705","0.004819914","0.000086847","75"
"76","hotpot","0.0","1.0322037120906149","1.570796326794897","-1.0487963182993729","1.530796328154634","-0.89779631438689156","1.570796326794897","SIDE","0.71677490961949442","-0.029332700552046547","-0.69668739160278303","-1.5489144635580607e-16","153.64864548451695","32.019809815728138","62.240490276714858","0.001011391","0.000009697","76"
"77","hotpot","0.0","-0.36479630862851681","1.570796326794897","-0.2507963064734382","1.570796326794897","-0.82979631441669355","0.0","SIDE","0.56210587737475926","-0.11161168399437996","-0.81949973436035406","1.7282244958619132e-16","140.5294703861133","-18.808454280647091","166.4899930956507","0.004006749","0.000013546","77"
"78","hotpot","0.0","-0.63379631162645211","1.570796326794897","-0.45879630983364611","1.5707963267948959","-1.0167963167794609","0.66500001202803383","SIDE","1.8222861939688834e-17","0.7615591806459916","-0.084197770117584531","0.64260279324091973","-144.86144503940298","11.857334293597997","128.89202585320868","0.001096967","0.000032594","78"
"79","hotpot","0.0","-1.108796317889587","1.2610000207787391","-1.0687963192493199","1.383000023313802","-0.47679630742898138","0.76800001366063841","SIDE","0.0","-0.59963366214815195","0.061532069569876481","0.7979055555848974","158.93045655728977","-16.785480466471736","25.980086956876693","0.017249089","0.000164898","79"
"80","hotpot","0.0","-1.52479632461001","1.570796326794897","-1.570796326794897","1.570796326794897","-0.60379631020151681","1.4000000241212469","SIDE","6.7465386725807995e-17","-0.56693944601391111","0.039552906967407001","0.82280935343727535","139.24248547666784","0.80593876140131071","20.790974771991543","0.003557205","0.000092186","80"
"81","hotpot","0.0","-1.191796318572252","0.87500001548323025","-1.161796320406953","1.071000018273476","-0.34379630763106928","1.071000018273486","SIDE","6.3378165066319774e-17","-0.6384487567475865","0.070942287156144604","0.76638787627448557","159.17755576107572","-17.910797596370905","61.030535761636422","0.011145153","0.000134919","81"
"82","hotpot","0.0","0.47020370495482833","-9.1906200350733398e-16","-1.16279632045445","1.2210000188788399","-0.55679631122877205","1.5707963267948959","SIDE","0.69600409143825204","0.11144839141637924","0.70933599989843665","0.0","-140.26684202023756","57.925971583895766","89.949491580420329","0.001644824","0.000034497","82"
"83","hotpot","-1.110223024625157e-16","-0.85479631560412328","1.4540000234264889","-0.24879630637844199","0.0","-1.5707963267948959","1.570796326794897","SIDE","-0.41948764042418174","0.57685078124011802","-0.5615188467410247","-0.41948764042418174","2.095555120703755","-169.50067820184009","102.92683613079959","0.001614554","0.000049312","83"
"84","hotpot","0.0","-0.14279630460334231","1.570796326794897","1.0982037152254489","1.570796326794897","-1.2177963198071839","-1.9198019486339779e-16","SIDE","0.70053490395612628","-0.080443830280635689","-0.70906955830084917","6.9335956071637264e-17","143.98924708854551","-55.544015228547202","128.24778247267156","0.000000219","0.000000351","84"
"85","hotpot","0.0","1.0322037120906129","1.570796326794897","-1.2507963213746001","0.38100000831764619","-0.069796304395657496","1.455000023473985","SIDE","1.3555938806882121e-16","-0.68951843487488063","0.10497940151701698","0.71661960147963011","145.12468759612452","-60.741467650152607","102.29624098978783","0.002196740","0.000010215","85"
"86","hotpot","0.0","-1.223796320092166","3.566381191732331e-16","-1.031796317491922","0.0","-0.034796302733246742","0.01500000071246094","TOP","0.49415193361605231","0.53135719886476207","0.47883949317242741","-0.4941519336160522","7.1807671508219491","174.18429664668611","108.85546821080824","0.002725200","0.000051659","86"
"87","hotpot","0.0","-0.65279631252890036","1.186000020476055","-0.58379630925157266","1.193000020808531","-1.113796318127076","1.395000023883787","SIDE","0.76638787627448512","-0.070942287156144826","-0.63844875674758683","-2.4445863668437633e-16","159.17755576107592","-17.910797596368656","61.03053576163579","0.016650878","0.000213163","87"
"88","hotpot","0.0","-0.90879631490935542","1.5557963293420709","1.0982037152254469","1.5707963267948959","-1.056796318679351","1.5637963297220421","SIDE","0.69385468548092277","0.046914287273270572","0.71858522465036179","9.0004501579289399e-17","-153.24545576905967","-32.377297168860061","55.387061690373997","0.002980343","0.000034447","88"
"89","hotpot","0.755","-0.33179630706110208","0.72700001171324424","0.076203699279344866","-3.2042825117322348e-15","-1.173796317717305","1.1160000171512381","SIDE","0.50279797593593556","-0.55327286756681671","-0.43390958136902713","-0.50279797593593578","-29.067621898814618","-180.30997023669138","104.35833573148163","0.005867933","0.000118121","89"
"90","hotpot","0.75500000000000078","-0.31779630639612949","1.481000024708923","0.19920370186190209","1.200000021141034","-1.214796319664692","0.0","SIDE","0.70053490395612628","-0.080443830280635675","-0.70906955830084906","5.94308194899748e-17","144.28728389209633","-55.577827457208897","128.25333298202136","0.000405123","0.000044623","90"
"91","hotpot","0.0","-1.1437963195520049","1.570796326794897","-1.4517963244023271","1.5707963267948959","-1.3677963236721711","1.4700000241864519","SIDE","0.6735671357476487","-0.11259624031672165","-0.73049941841677579","-2.6784448338818422e-16","126.26406811373283","-20.045972043609442","115.81065944750064","0.000731966","0.000049877","91"
"92","hotpot","0.755","-1.2437963210421159","1.5707963267948959","-1.570796326794897","1.570796326794897","-1.365796323577176","1.4670000240439589","SIDE","0.67356713574764859","-0.11259624031672168","-0.73049941841677568","-2.6784448338818422e-16","126.36247620005881","-20.061140269972906","115.81992091080667","0.000628337","0.000053816","92"
"93","hotpot","0.75500000000000078","-0.31079630606365538","0.94100001535843891","-0.054796303683186283","-1.2968655013781171e-15","-1.1717963176222961","1.2350000195438029","SIDE","0.49641523282247413","-0.50214861449013526","0.50496594163295294","0.49641523282247441","0.11264437395808172","-183.12804939399294","32.388840532842593","0.004060720","0.000113499","93"
"94","hotpot","0.755","-0.97179631464207328","1.5707963267948959","-0.62079631100897958","1.570796326794897","-0.97379631473707562","0.19500000600237449","SIDE","0.56210587737475959","-0.1116116839943799","-0.81949973436035384","1.4813352821673539e-16","120.71249613001071","-16.109483462648754","158.57272218139343","0.001638351","0.000068890","94"
"95","hotpot","0.75500000000000023","-1.275796319302406","0.0","-0.50079630856891677","1.570796326794897","0.15120369958201571","0.5770000111078889","SIDE","0.50672657973744739","-0.56179480775075097","-0.41333151435557497","0.50672657973744772","145.22351208749515","-60.756513710467281","102.29353225897442","0.001948510","0.000010943","95"
"96","hotpot","0.0","-0.54079631046881127","1.505796326967191","-0.1637963056007887","0.0","-1.1717963176223041","1.2350000195438029","SIDE","0.49641523282247413","-0.50214861449013526","0.50496594163295294","0.49641523282247441","0.11264437395808174","-183.12804939399294","32.388840532842593","0.008768914","0.000139815","96"
"97","hotpot","0.0","-0.649796312386409","1.570796326794897","1.098203715225446","1.570796326794897","-1.159796320311959","1.245000020018775","SIDE","0.70158429956598334","0.053350765715792781","0.71058649466482759","0.0","-152.24787431449082","-31.216671920431981","32.513053394125016","0.000067967","0.000005938","97"
"98","hotpot","0.0","-1.103796317652098","1.0710000182735","-1.570796326794897","1.5707963267948959","-0.79879631294426801","1.5707963267948959","SIDE","-0.41948764042418152","0.56151884674102481","0.57685078124011802","0.41948764042418174","1.9887912716013987","-161.57364699825916","100.469036105518","0.003547299","0.000036815","98"
"99","hotpot","0.75500000000000067","-1.570796326794895","1.570796326794897","-0.1287963039383766","0.4460000081453504","0.064203698709373355","0.0","SIDE","0.0068887542627108483","0.94764150022017757","-0.319187526682775","0.0068887542627105508","-0.43509330302424887","39.396118947428469","236.07951665973866","0.001087883","0.000042393","99"
"100","hotpot","0.0","1.0322037120906109","1.570796326794897","-1.140796319409507","1.236000019591303","-0.59879630996403588","1.570796326794897","SIDE","5.7937961977579868e-17","0.71858522465036201","-0.046914287273270419","0.69385468548092233","-153.54461202275371","-32.357766148815394","55.398201096333636","0.000045996","0.000004219","100"
"101","hotpot","0.0","-0.99979631597199592","1.554796329294567","-0.95579631714173718","1.570796326794897","-1.570796326794897","1.570796326794897","SIDE","0.79790555558489729","-0.061532069569876259","-0.59963366214815217","7.8267464987615772e-17","134.90264580148519","-14.319840165789437","32.842814462580314","0.002181777","0.000062035","101"
"102","hotpot","0.75500000000000045","-0.15479630517331111","0.85100001434328287","-0.0077963014508076259","0.79400001489556893","-1.277796319397412","-3.9682819533229652e-16","SIDE","0.76189465808326184","-0.060551782232311113","-0.64486433585110015","7.285935219825551e-17","163.38039691674001","-15.957871651135873","102.30604957635326","0.004891877","0.000078558","102"
"103","hotpot","0.0","-0.046796303303208032","0.89800001657566975","0.042203697664436671","0.72300001152325433","-1.2777963193974211","0.0","SIDE","0.76189465808326184","-0.060551782232311106","-0.64486433585110015","6.3751933173473577e-17","163.38039691674001","-15.957871651135862","102.30604957635325","0.010636404","0.000136143","103"
"104","hotpot","0.0","-0.88479631376942403","1.4270000221440591","1.098203715225458","1.5707963267948959","-1.089796316987129","1.4750000244239461","TOP","0.50020075591270696","0.43630277333692358","-0.55609198658785008","0.50020075591270741","36.183909565226777","172.96960466180056","85.750295861806322","0.007784533","0.000038284","104"
"105","hotpot","0.75499999999999989","0.0092036993566550779","0.75500001304316844","-0.08279630175349767","1.5707963267948959","-1.198796318904731","-7.3537938173598569e-16","SIDE","0.69448792987223329","-0.062722612541538603","-0.71676522595459657","-7.993105256915026e-17","150.74631381552516","6.2676068363091897","130.4327832537262","0.004093318","0.000036788","105"
"106","hotpot","0.75500000000000034","-0.48279630771395521","1.570796326794897","0.15620369981950849","1.2820000217761831","-1.1997963189522229","0.0","SIDE","0.71461024096210835","0.078434622236432133","0.69511165545306863","5.8260238990405043e-17","-151.5993091570711","-26.453947696129841","7.7227640381389842","0.000734421","0.000032132","106"
"107","hotpot","0.0","-1.0807963165596779","-1.340157741654466e-16","-1.245796321137113","0.57300001091789765","-0.15679630526830679","0.37200000789016979","SIDE","-0.49641523282247413","0.50496594163295305","0.50214861449013548","0.49641523282247413","0.11879805642389663","-180.92828242656071","32.357407664608218","0.008372950","0.000091794","107"
"108","hotpot","1.110223024625157e-16","-1.343796322532234","0.0","-1.3407963223897379","0.0","0.26720370183209491","0.20300000312272501","SIDE","1.2750386634694711e-16","-0.64486433585109981","0.06055178223231119","0.76189465808326207","163.8717156400713","-16.004005733435299","102.22556610131558","0.009781982","0.000042816","108"
"109","hotpot","0.0","-0.77079631161432227","1.326000020606442","-0.67079631012421514","1.42900002223905","-1.1207963184595711","1.4500000232364989","SIDE","3.8225658528618254e-17","0.6789757187871861","-0.10850628623899551","0.72609803686833174","-152.46672256008645","19.254437341906886","78.354133250792984","0.015442982","0.000158694","109"
"110","hotpot","0.75499999999999978","-0.35079630796355299","0.0","-0.61579631077148678","0.13000000291503799","-0.86179631593660699","1.484000024851424","SIDE","0.82280935343727524","-0.03955290696740707","-0.56693944601391144","-2.6564496023286908e-16","161.64300287846945","-0.75684821178193507","12.290703346247037","0.011213067","0.000123909","110"
"111","hotpot","0.0","-1.0037963161619929","1.570796326794897","-0.94379631657176621","1.570796326794897","-1.570796326794897","1.570796326794897","SIDE","0.76638787627448535","-0.070942287156144798","-0.63844875674758661","-2.6256668384618192e-16","135.15742727356462","-11.902231030389146","65.384078547447587","0.000006108","0.000044907","111"
"112","hotpot","0.0","-0.64979631238640112","1.1920000207610459","-0.58279630920406877","1.193000020808541","-1.115796318222082","1.3980000240262691","SIDE","0.76638787627448512","-0.070942287156144812","-0.63844875674758683","-2.5351266026527915e-16","159.44624883401292","-14.601123518807004","61.048005838105993","0.014217959","0.000175337","112"
"113","hotpot","0.0","-0.71579631226159901","0.67700001259799547","-0.65679631271888683","0.7000000136904555","-0.89779631438689933","1.5417963286771039","SIDE","0.79790555558489729","-0.061532069569876259","-0.59963366214815217","6.9571079988991796e-17","158.73907613321038","-16.76584175318353","26.034748270532088","0.010301136","0.000112515","113"
"114","hotpot","0.75500000000000023","0.1142037010842506","0.26500000606757179","-0.1677963057907777","1.5167963274896581","-1.238796320804628","0.36500000755768591","SIDE","2.1217323824119501e-16","-0.68925146616647925","0.085278194980303049","0.71948595945178817","143.19976811292713","-57.193594678450992","5.8164071904944699","0.005572575","0.000052739","114"
"115","hotpot","0.75500000000000034","0.1282037017492007","0.0","-0.63179631153144855","1.570796326794897","-1.1737963177172941","1.0820000187959471","SIDE","3.6811870648677541e-16","0.71628516481801563","-0.036867551902534657","0.69683308351307627","-151.29316527276271","-34.204059895507683","109.65470349387572","0.005428250","0.000033176","115"
"116","hotpot","0.0","-1.0357963176818989","1.338000021176414","-0.9737963147370674","1.4070000211941089","-0.91279631509936598","1.570796326794897","SIDE","-1.3605205352735854e-16","0.69466951659772769","-0.087195854122065763","0.71402461143422991","-149.54935966765518","14.151924432789343","63.23256337911576","0.001264089","0.000052204","116"
"117","hotpot","0.755","-0.83779631479667127","1.5707963267948959","-0.96279631747421945","1.5677963299120461","-1.570796326794897","1.570796326794897","SIDE","0.79790555558489729","-0.061532069569876259","-0.59963366214815217","6.087469499036782e-17","134.90264580148519","-14.319840165789568","32.842814462580321","0.002515116","0.000082614","117"
"118","hotpot","0.75500000000000034","-1.570796326794895","1.570796326794897","-1.453796324497322","1.570796326794897","-0.65879631281389139","1.5707963267948959","SIDE","6.7465386725808032e-17","-0.56693944601391133","0.039552906967407021","0.82280935343727535","134.29776453059299","1.1509105020950658","22.66733634937157","0.001032790","0.000055525","118"
"119","hotpot","0.755","-1.106796317794597","1.5637963297220441","-0.72179631254658849","1.5707963267948959","-0.42179630807624768","0.63400001055560817","SIDE","6.3248800055445026e-17","-0.56693944601391133","0.039552906967407028","0.82280935343727535","157.53795152701056","-0.47045657799997931","13.848437485956209","0.009413264","0.000088014","119"
"120","hotpot","0.755","-1.0807963165596579","1.545796328867092","-0.75679631420900062","1.570796326794897","-0.92279631557432695","1.570796326794897","SIDE","1.948033610386748e-16","0.71239981352576676","-0.10980538411210712","0.69313006233205998","-143.06522419294419","37.37507316099655","70.955641878607253","0.010306407","0.000098038","120"
"121","hotpot","0.0","1.0322037120906129","1.570796326794897","-1.171796317622307","1.277000021538701","-0.54079631046881071","1.057000017608509","SIDE","-0.48211480771165782","0.56924086618994119","0.45945126034175571","0.48211480771165793","-13.933235668113671","-185.05928136294668","60.055305477564502","0.010244641","0.000039901","121"
"122","hotpot","0.75499999999999712","-0.92079631547933061","1.5707963267948959","-0.82279631408420517","1.570796326794897","-0.41079630755377011","1.272621676752561e-15","SIDE","-1.3103070197388202e-16","0.95321240280942809","-0.11497238464856041","0.27958445217590383","-69.063802805046677","4.2964464007966212","218.32449588719152","0.008773704","0.000098370","122"
"123","hotpot","0.0","-0.71079631202413185","1.570796326794897","-0.5287963098988534","1.570796326794897","-1.124796318649554","1.0770000185584661","SIDE","0.70106196497385842","0.09235145798442608","0.707094993247119","-1.1877227835344287e-16","-151.16269423921256","-3.9302997002430988","32.72611367506407","0.000298003","0.000029377","123"
"124","hotpot","0.75500000000000034","0.099203700371775047","0.0","0.1002037004192811","0.0","-1.570796326794897","0.73600001214072552","SIDE","0.50649623077428041","-0.53722233112749496","-0.44532606409330472","-0.50649623077428019","-9.7910082337087054","-159.10678788483227","122.96840311964192","0.001134511","0.000027825","124"
"125","hotpot","0.0","-0.83579631470166826","4.35142742107422e-16","-1.0337963175869069","1.5707963267948959","-0.49079630809394748","0.89100001624320524","SIDE","-0.41948764042418157","0.56151884674102481","0.57685078124011802","0.41948764042418163","2.3092114426448438","-185.36429069882612","107.84539721562275","0.003646434","0.000024561","125"
"126","hotpot","0.0","1.032203712090612","1.5707963267948959","-1.0967963173196269","1.521796327727156","-0.12979630398587139","1.531796328202129","SIDE","0.47832349636728722","0.57860412509962422","0.45566493398510055","0.4783234963672871","-145.67218064884412","-5.6111568014575957","136.93385813135438","0.006927224","0.000021326","126"
"127","hotpot","0.0","1.0322037120906109","1.570796326794897","-1.570796326794897","0.93300001497845864","-0.1447963046983155","0.59300001186784557","SIDE","0.50279797593593556","-0.43390958136902696","0.55327286756681682","0.502797975935936","-26.065640650625998","-155.48237630353213","104.63902842426384","0.008816550","0.000050974","127"
"128","hotpot","0.0","-0.55679631122877205","0.0","-0.38579630636634432","-1.536419298989938e-16","-1.0337963175869109","1.463000023853968","TOP","0.50272395908225864","0.5339215254689843","0.45767351525972272","-0.50272395908225864","10.5741257708325","175.88221087518303","49.047925410165156","0.001057981","0.000038307","128"
"129","hotpot","0.0","-1.2247963201396741","0.0","-1.2167963197596861","0.55300000996794529","-0.18679630343358031","1.5407963286296009","SIDE","0.72136573492502121","-0.066708951844923661","-0.68933402079096295","-2.8857319808634064e-17","151.02797475650976","4.865743191588531","25.120654213142796","0.006607733","0.000124390","129"
"130","hotpot","0.0","1.032203712090614","1.570796326794897","-0.84079631493916474","1.382000023266313","-1.059796318821846","1.429000022239052","SIDE","0.48901633094284952","-0.46520117507667341","0.55255219015914581","0.48901633094284969","-24.503362337004557","-182.11705466578917","56.308306432217918","0.010280650","0.000063173","130"
"131","hotpot","0.75499999999999978","-0.31279630615865012","1.4800000246614211","0.21020370238437139","1.2100000183563651","-1.2037963191422221","0.0","SIDE","0.0","0.72879036374231543","-0.08331174816584469","0.67964973209285839","-138.39073906427512","52.319512885503421","135.79341221234367","0.000000298","0.000044314","131"
"132","hotpot","0.75500000000000023","-1.2617963218970709","0.0","-0.53079630999383787","1.5707963267948959","0.1672037003419809","0.63000001036561937","SIDE","0.49380137483891251","-0.41972781884891658","0.57978354797176723","-0.49380137483891251","-139.90783693443461","58.358973897460423","109.10070762282322","0.002256902","0.000026070","132"
"133","hotpot","0.0","-1.2617963218970709","-7.0317429043831504e-16","-0.80179631308675836","2.0837398237253848e-15","-0.14779630484082759","0.37400000798515809","TOP","-0.49535385202208604","-0.43091061816025428","0.56882788410072682","-0.49535385202208615","38.507470522851875","172.91614232750416","32.925641894121433","0.001417665","0.000092275","133"
"134","hotpot","0.0","-1.205796319237219","0.0","-1.2317963204721429","0.55500001006293997","-0.15779630531580471","1.570796326794897","SIDE","0.69045965795231534","0.097375781381991433","0.71678687065306823","2.0099346352792835e-17","-142.52454391651884","35.129387334847486","108.59835295158517","0.003092500","0.000015008","134"
"135","hotpot","0.0","-1.076796316369681","1.4540000234264889","1.0982037152254449","1.5707963267948959","-0.87579631334194841","1.436000022571539","SIDE","0.50089832580179561","-0.53852466161507972","-0.45628162712329351","-0.50089832580179572","-23.939279014223665","-180.22036478837543","65.380411309553693","0.008388134","0.000066157","135"
"136","hotpot","0.0","-1.227796320282156","0.0","-1.221796319997174","0.61300000955816547","-0.1937963037660857","1.570796326794897","SIDE","0.72470623729920536","-0.074800983190145581","-0.68498589951430044","1.914953548562438e-17","147.74451190737258","-16.640046138064953","23.893630796577586","0.000242171","0.000034851","136"
"137","hotpot","0.75500000000000012","-0.0097963015458054931","0.1190000023925671","0.058203698424387558","0.0","-1.570796326794897","1.128000017721202","TOP","0.49841353393178878","0.54744664313857927","0.45107656922472944","-0.49841353393178889","10.888024797844613","152.2204547114255","11.171826782051195","0.016566608","0.000171015","137"
"138","hotpot","2.7798943702528339e-16","-0.23779630585596959","0.91700001421850053","1.098203715225454","1.570796326794897","-1.570796326794897","1.1280000177212","TOP","0.49841353393178878","0.54744664313857938","0.45107656922472933","-0.49841353393178889","10.888024797844613","152.2204547114255","11.171826782051195","0.000245236","0.000043589","138"
"139","hotpot","0.0","-1.083796316702164","1.4940000253263981","1.09820371522544","1.570796326794897","-0.8957963142918951","1.475000024423931","TOP","0.50293026694658838","0.43348475893288746","-0.55336539189848388","0.5029302669465886","36.293679141170756","172.8720859370697","64.314378341328833","0.007386692","0.000060427","139"
"140","hotpot","0.75500000000000034","0.18020370095945229","0.067000003182335621","-0.61379631067650497","1.570796326794897","-1.1707963175748131","1.011000015423634","SIDE","0.71527241545693199","-0.044929602937466499","-0.69739995875128058","-2.1342311346990671e-16","154.43966500452544","29.108236002249409","102.8078345912339","0.005990886","0.000091666","140"
"141","hotpot","0.75500000000000045","-0.3917963066513212","1.1940000208560351","-0.093796302275971938","0.1180000023450709","-1.5707963267948959","1.570796326794897","TOP","0.49916136987576931","0.52876587743545855","0.47125630023098913","-0.49916136987576964","6.6622993447018795","152.10291107329888","30.846333534286757","0.001692425","0.000056362","141"
"142","hotpot","0.75499999999999945","-0.33779630734608368","1.570796326794897","-0.97279631468957062","1.570796326794897","-1.090796317034656","1.485000024898911","SIDE","-1.2602316250716951e-16","0.71578604247185218","-0.089375347037872033","0.69257663023260019","-148.55238623159894","-4.7657147756931408","91.179899738195175","0.004210507","0.000097996","142"
"143","hotpot","0.0","-0.681796310646687","0.0","-0.64679631224390211","0.68500001297799473","-0.90579631476686495","1.5517963291520811","SIDE","0.80085298423535667","-0.075969622143919238","-0.59402282292234676","0.0","160.98428259427109","-0.32181043930038905","24.350601268165487","0.007943611","0.000075978","143"
"144","hotpot","0.0","-1.229796320377164","0.0","-1.231796320472154","0.64600001112558192","-0.1737963028160949","1.5307963281546291","SIDE","0.72033928325925045","-0.097586323723101151","-0.68672281629181309","-3.853125361988576e-17","143.32671261509279","-59.514835870706371","25.502888734245317","0.006377253","0.000053221","144"
"145","hotpot","0.0","-0.85779631574661375","1.570796326794897","-0.83179631451167757","1.5707963267948959","-1.090796317034646","1.485000024898915","SIDE","-1.0663498365991267e-16","0.71578604247185218","-0.08937534703787206","0.69257663023260019","-148.55238623159894","-4.765714775693092","91.179899738195161","0.004420117","0.000059837","145"
"146","hotpot","0.0","-0.54879631084879776","1.570796326794897","-0.4207963080287363","1.570796326794897","-1.1737963177172841","0.98600001749582633","SIDE","3.1190034728552355e-16","0.7119088095203836","-0.09911814454308053","0.69524200128416236","-148.38117649999916","-2.8059801755336937","110.2414374313505","0.001592393","0.000019187","146"
"147","hotpot","0.75500000000000023","-0.31279630615864762","1.570796326794897","-0.57479630882410682","1.570796326794897","-1.173796317717273","0.98600001749583099","SIDE","2.9240657558017838e-16","0.7119088095203836","-0.099118144543080544","0.69524200128416236","-148.38117649999913","-2.8059801755337039","110.2414374313505","0.003538388","0.000047849","147"
"148","hotpot","0.0","1.032203712090612","1.570796326794897","-0.78279631218429657","1.568796329959534","-1.1067963177945901","1.497000025468882","SIDE","0.722035269527599","-0.0098435103453515145","-0.69178622049177041","-3.0632470811536806e-16","155.45880574966108","35.656087767339883","80.197489488157544","0.000472901","0.000054689","148"
"149","hotpot","0.0","-1.467796325162289","1.283000021823683","-1.570796326794897","1.479000024613927","-0.24379630614095449","1.3470000216038951","SIDE","2.5738727308820829e-16","-0.6017458621707914","0.0067294962320090974","0.79865927105418","146.4862862115933","-3.8681458832994529","56.2234762554029","0.007676787","0.000119055","149"
"150","hotpot","0.0","-1.570796326794897","1.5707963267948959","-0.47279630723899307","1.5707963267948959","-1.010796316494476","0.34800000675022358","SIDE","0.56210587737475937","-0.11161168399437996","-0.81949973436035406","1.7282244958619137e-16","117.58010573765657","-15.68286786784066","157.32127062148541","0.000222958","0.000027785","150"
"151","hotpot","0.0","-0.98079631506953657","1.387000023503802","-1.047796318251873","1.5517963291520771","-0.90879631490936741","1.570796326794897","SIDE","0.69313006233206009","0.10980538411210712","0.71239981352576653","-1.4015337082315415e-16","-143.65776710250339","37.466404461976452","70.979126740104761","0.003064414","0.000081326","151"
"152","hotpot","0.0","-1.2357963206621381","0.0","-1.2297963203771589","0.60100000898819439","-0.18579630338611861","1.570796326794897","SIDE","1.962648292004576e-16","0.70709499324711922","-0.092351457984425983","0.7010619649738582","-147.75347611367397","14.45211769812593","32.709089431467227","0.000229986","0.000041166","152"
"153","hotpot","0.0","1.0322037120906129","1.570796326794897","-1.2767963193498979","0.0","0.16720370034197901","1.2250000190688279","SIDE","0.72767743263803653","-0.058460945740965289","-0.68342364010355083","0.0","151.41707424425465","26.378277477964989","2.7411326731620149","0.001165697","0.000005523","153"
"154","hotpot","0.755","-1.039796317871893","1.3880000235512859","-0.64479631214891919","1.570796326794897","-0.92179631552683394","1.570796326794897","SIDE","0.73063499413645494","-0.073880527672251922","-0.67875928942010966","-2.0893560685029103e-16","148.61535571535666","-35.264769871796034","56.897992434733361","0.007480466","0.000122051","154"
"155","hotpot","0.0","1.0322037120906109","1.570796326794897","-1.0897963169871381","1.4720000242814351","-0.083796301800990583","1.570796326794897","SIDE","-0.49107712466486342","-0.46247796712934469","0.55118113645306155","0.49107712466486392","151.74188347360217","6.1804866361932298","130.46815628645714","0.004901415","0.000012658","155"
"156","hotpot","0.0","1.032203712090616","1.570796326794897","-0.89179631410188454","1.427000022144064","-1.0357963176819009","1.429000022239052","TOP","0.50293026694658882","0.55336539189848322","0.4334847589328874","-0.50293026694658893","36.353970743673756","173.18638416252574","48.938710898144421","0.008757080","0.000041454","156"
"157","hotpot","0.0","-0.78179631213681178","1.5707963267948959","-0.80479631322925627","1.570796326794897","-1.0977963173671139","1.4720000242814459","SIDE","0.71560333353942462","-0.075474417351407266","-0.69441736826834088","-7.7572516266373091e-17","152.20473132591118","3.3796049538102912","82.686005119056901","0.003194480","0.000031515","157"
"158","hotpot","0.0","-1.228796320329659","0.0","-1.2307963204246519","0.66400001198053338","-0.19779630395607789","1.5287963280596411","SIDE","0.71937524200637704","-0.092426463562554351","-0.68844506681476503","-1.73623003652415e-16","146.19622813384069","-38.49752762818401","25.872528563151239","0.004174750","0.000070019","158"
"159","hotpot","1.110223024625157e-16","0.22320370300181949","0.0","-1.158796320264462","1.083000018843459","-0.34079630748858181","0.94200001540593958","SIDE","1.9681892175865816e-16","-0.61901225791003123","0.1234727834504514","0.77561478602726686","154.08741231090727","-68.743467491394966","56.397806945014828","0.005823835","0.000062717","159"
"160","hotpot","0.755","-0.36879630881850739","0.74700001266319149","0.097203700276792246","-1.113230315985327e-16","-1.1627963204544549","1.2140000185463571","TOP","0.50020075591270707","0.43630277333692347","-0.55609198658784997","0.5002007559127073","36.171925833475171","172.88650520087864","105.75037618029785","0.006632886","0.000120849","160"
"161","hotpot","3.3306690738754701e-16","1.032203712090612","1.570796326794897","-1.0707963160846901","1.478000024566432","-0.85879631579411408","1.3930000237887861","SIDE","0.50089832580179561","-0.45628162712329323","0.53852466161507984","0.50089832580179605","-23.947518094395541","-180.32002415549906","65.380051656413769","0.008966306","0.000057668","161"
"162","hotpot","0.0","-1.1517963199319781","0.0","-1.1847963182397641","0.80400001211091976","-0.1217963036058711","0.38000000827014663","SIDE","2.5738727308820824e-16","-0.60174586217079129","0.0067294962320090983","0.79865927105418011","170.4292756095569","-4.1359071876404041","49.355458886987122","0.012098472","0.000081787","162"
"163","hotpot","0.0","-0.69279631116916551","0.0","-0.64079631195892839","0.34900000679772808","-0.86379631603160634","1.422000021906568","TOP","0.50272395908225842","0.53392152546898441","0.45767351525972283","-0.50272395908225886","10.528127726084696","175.45244129253609","64.424270456255357","0.005050467","0.000053066","163"
"164","hotpot","0.0","-0.61479631072399188","0.2450000051176158","-0.57979630906157109","0.3530000069877155","-0.86179631593660544","1.484000024851424","SIDE","0.82280935343727524","-0.039552906967407063","-0.56693944601391133","-2.6564496023286908e-16","161.64300287846945","-0.75684821178185069","12.290703346247033","0.004984696","0.000068618","164"
"165","hotpot","2.2204460492503141e-16","-0.97979631502204412","1.570796326794897","-0.89279631414938787","1.5707963267948959","-1.0377963177769021","1.522796327774653","SIDE","1.5468802531450468e-16","-0.68976225130189794","0.095444382154102558","0.71771749776228744","146.56840200990072","-39.000699166288655","46.506558702737777","0.003325986","0.000057081","165"
"166","hotpot","0.0","-1.1737963177172921","1.305000019608997","1.09820371522545","1.570796326794897","-0.56179631146626074","1.099000019603412","SIDE","-0.48901633094284919","0.55255219015914581","0.46520117507667391","0.48901633094284952","-24.494819121892107","-182.01751505628371","56.303961220717639","0.006769306","0.000055936","166"
"167","hotpot","1.110223024625157e-16","-1.112796318079587","1.4500000232364949","-1.0817963166071749","1.532796328249622","-0.80979631346674763","1.570796326794897","SIDE","9.4970730386495865e-17","-0.67875928942010921","0.073880527672251908","0.73063499413645527","148.714540779435","-35.275565812251159","56.891226935380736","0.004436187","0.000068584","167"
"168","hotpot","1.110223024625157e-16","-1.2297963203771549","0.0","-1.24279632099462","0.30000000772998309","-0.039796302970728351","1.484000024851414","SIDE","1.3650904257192755e-16","-0.70066993313723958","0.051364305090859409","0.71163428315391697","152.82571007920342","7.9714892374529791","104.17387926440391","0.008064331","0.000097188","168"
"169","hotpot","0.0","0.69120370893249672","1.004000015091147","-1.404796322169956","1.5707963267948959","-1.570796326794897","1.570796326794897","SIDE","0.68629676373345938","0.14362720298164458","0.71299928376727695","-2.022126365906083e-16","-117.52284789361666","58.889442456451732","56.765839964854543","0.000973263","0.000005195","169"
"170","hotpot","0.0","-0.90579631476687339","1.5667963298645451","1.0982037152254489","1.5707963267948959","-1.022796317064437","1.4020000209566219","SIDE","-0.48499756539306715","0.58396930012082171","0.43420568817323496","0.48499756539306726","-32.202037459005084","-178.63486500176737","93.646138145203125","0.008104925","0.000056496","170"
"171","hotpot","0.75499999999999978","-1.570796326794897","1.540796328629602","-1.053796318536854","1.5707963267948959","0.1142037010842511","1.570796326794897","SIDE","0.54844247478843311","-0.52501620767557178","-0.35039932273598695","0.54844247478843366","127.95955092268926","-63.531810161533144","61.925697792817928","0.010339341","0.000090013","171"
"172","hotpot","0.0","-0.501796308616418","1.5707963267948959","-0.43379630864621549","1.570796326794897","-1.153796320026979","0.98300001735334086","SIDE","0.71163428315391652","-0.051364305090859451","-0.70066993313724002","2.1451420975588629e-16","152.52653761317811","7.9934207990811705","104.17773327641888","0.003169786","0.000030565","172"
"173","hotpot","0.75500000000000056","-0.28779630497120418","1.570796326794897","-0.6187963109139919","1.5707963267948959","-1.153796320026975","0.98300001735333775","SIDE","0.71163428315391641","-0.051364305090859444","-0.70066993313724002","2.1451420975588624e-16","152.52653761317814","7.9934207990811199","104.17773327641888","0.005340271","0.000041652","173"
"174","hotpot","0.0","-1.0487963182993689","0.0","-1.222796320044669","0.56800001068040962","-0.1737963028161327","1.5367963284396251","SIDE","1.9626482920045755e-16","0.70709499324711911","-0.092351457984425969","0.7010619649738582","-150.76612029015402","-3.9820949791624165","32.719303977624797","0.005543040","0.000047109","174"
"175","hotpot","3.8337388819087452e-16","0.82220371189502828","1.87766518852314e-15","-0.49279630818893738","0.9630000164033764","-1.163796320501951","1.178000020096077","TOP","0.49535385202208593","0.56882788410072649","0.43091061816025439","-0.49535385202208654","38.767078365039346","174.79799485374215","32.960788562094876","0.006509979","0.000107742","175"
"176","hotpot","3.2005648131772091e-16","-1.1387963193145161","1.290000022156168","1.0982037152254429","1.570796326794897","-0.6367963117689367","1.196000020951014","TOP","0.50293026694658838","0.43348475893288757","-0.55336539189848399","0.5029302669465886","36.269562500170103","172.49154058545946","48.946939688208452","0.007433182","0.000119576","176"
"177","hotpot","0.0","1.0322037120906169","1.570796326794897","-1.060796318869341","1.462000023806475","-0.86379631603160467","1.3900000236462831","TOP","0.50293026694658882","0.55336539189848311","0.4334847589328874","-0.50293026694658904","36.329854102673536","173.16987604152567","64.31085171701605","0.008089514","0.000039065","177"
"178","hotpot","0.0","-1.2867963198248671","0.0","-1.243796321042121","0.0","0.25320370116712798","1.0250000160886019","SIDE","0.67487763238637766","0.089877160926529018","0.7324358519681734","2.0563413486890036e-17","-148.53578876056832","-25.066919773372291","137.53394868873707","0.004589992","0.000064751","178"
"179","hotpot","0.75500000000000045","-0.8487963153191399","1.570796326794897","-0.31079630606365422","1.570796326794897","-0.99279631563950965","1.474000024376442","SIDE","0.49096413106645248","0.59104913487771304","0.41057199633271829","0.49096413106645248","-142.58505227287822","53.006350522110651","55.202807526276075","0.013367143","0.000075653","179"
"180","hotpot","0.75499999999999867","-1.225796320187166","0.42600000719540088","-0.6477963122914101","1.570796326794897","-0.069796304395658829","1.5187963275846581","SIDE","0.51008260288109986","0.44026240838848585","-0.53460311281927086","-0.5100826028811003","150.53071278296511","4.9138647466664995","25.141022737936733","0.006978383","0.000081940","180"
"181","hotpot","0.0","-1.3087963208698321","0.0","-1.2917963200623741","0.0","0.17720370081695391","1.0890000191284399","SIDE","0.71948595945178773","-0.085278194980303118","-0.6892514661664797","-1.4466357152808759e-16","143.79485625298537","-57.267222439768489","5.7952151341539171","0.005434291","0.000135840","181"
"182","hotpot","0.75500000000000023","-0.45379630959616313","1.570796326794897","-1.007796316351985","1.543796328772099","-1.037796317776895","1.522796327774647","SIDE","1.5468802531450463e-16","-0.68976225130189783","0.095444382154102531","0.71771749776228755","146.56840200990072","-39.000699166288726","46.506558702737792","0.013365691","0.000114496","182"
"183","hotpot","0.0","1.032203712090612","1.570796326794897","-1.2707963190649221","0.0","0.18220370105443551","1.2100000183563651","SIDE","2.4275099579335437e-16","0.69511165545306863","-0.078434622236432092","0.71461024096210846","-151.99669630794529","-26.409107545895466","7.7142298004160264","0.000899813","0.000003192","183"
"184","hotpot","0.0","-0.36079630843853228","1.4990000255638729","-0.4907963080939366","0.76500001351813995","-0.82379631413169974","0.0","SIDE","0.59823886035725882","0.13173269884788866","-0.79041556286089121","-1.3918642262249755e-16","156.07247739534412","20.111462544237579","146.55589359918852","0.005950329","0.000092549","184"
"185","hotpot","0.0","-1.13779631926702","1.570796326794897","-0.50879630894888728","0.53600000916048929","-1.5707963267948959","1.5707963267948959","TOP","0.50272395908225842","0.53392152546898441","0.45767351525972283","-0.50272395908225886","8.6644403988866667","151.04701138635164","49.320080017246426","0.000831964","0.000027780","185"
"186","hotpot","0.0","-1.114796318174575","1.570796326794897","-1.000796316019491","1.5707963267948959","-0.25279630656843372","8.3471547271875301e-16","SIDE","-0.22528824537915484","0.10077246435515605","0.96906662150843392","-3.5801944623302849e-17","64.057392146936948","13.009924883846315","218.15027141386645","0.000319538","0.000031574","186"
"187","hotpot","0.0","-0.1137963032259177","0.44300000800285783","-1.570796326794897","1.570796326794897","-0.33079630701360507","0.77300001389812212","SIDE","0.0051819066834498809","0.96703613936095179","0.25458643524938629","-1.7265862956590735e-16","0.20504099296527459","-19.906689985538417","236.80120332981903","0.013149411","0.000133204","187"
"188","hotpot","0.0","0.77020370942516603","-8.7980969204023968e-16","-1.520796324420022","1.5707963267948959","-1.570796326794897","1.5707963267948959","SIDE","0.69243431613293349","0.12018120241050174","0.71140086901035116","0.0","-116.57354115882477","55.347859860483048","70.249532038063165","0.002799721","0.000006457","188"
"189","hotpot","0.0","1.0322037120906149","1.570796326794897","-0.78779631242179082","1.5707963267948959","-0.74779631378153222","1.570796326794897","SIDE","0.4764146649182317","0.585858272953103","0.45036453913924612","0.47641466491823142","-141.80504624653983","22.652111896544138","137.8674745228079","0.000004914","0.000000013","189"
"190","hotpot","0.75499999999999934","-1.115796318222088","1.4500000232365009","-0.59079630958405427","1.570796326794897","-0.8937963141969042","1.570796326794897","SIDE","0.69549656755429257","0.098865470086349577","0.71169526016744156","7.9815133274434818e-17","-149.53282374809484","-2.9281652436040364","70.12857233979031","0.001328239","0.000068971","190"
"191","hotpot","0.0","-0.96179631742672134","0.0","-1.145796319646992","1.262000020826237","-0.63679631176894147","1.570796326794897","SIDE","1.9499620953706226e-16","0.711695260167442","-0.098865470086349605","0.69549656755429223","-150.53346046220088","-2.859404644218507","54.775067129330445","0.004499713","0.000030625","191"
"192","hotpot","0.0","-1.151796319931979","1.047000017133539","-1.153796320026973","1.28600002196617","-0.64979631238640534","1.570796326794897","SIDE","1.9499620953706223e-16","0.71169526016744189","-0.098865470086349591","0.69549656755429223","-147.66488030122281","15.611244591810788","54.765296414008752","0.008778898","0.000107058","192"
"193","hotpot","0.0","1.032203712090616","1.570796326794897","-1.5707963267948959","1.5707963267948959","-1.477796322377648","1.5707963267948959","SIDE","0.47641466491823181","0.58585827295310311","0.45036453913924612","0.47641466491823159","-117.21031997024359","19.436171023193953","135.57285828186116","0.000005013","0.000000006","193"
"194","hotpot","0.75500000000000045","-0.54179631051630661","0.77800001413561748","-0.6677963132413598","0.74900001275819228","-0.89779631438689855","1.541796328677107","SIDE","0.79790555558489729","-0.061532069569876266","-0.59963366214815217","6.9571079988991796e-17","158.73907613321035","-16.765841753183395","26.034748270532084","0.013517709","0.000193530","194"
"195","hotpot","0.0","-1.03379631758691","0.0","-1.131796318982035","1.2940000223461621","-0.64079631195892883","1.570796326794897","SIDE","0.71912734448279458","-0.066705485598410372","-0.6916691699130475","7.7192379982688786e-17","152.17809946863369","4.8769489839605349","45.959670992217866","0.005098157","0.000048445","195"
"196","hotpot","0.0","0.74720370833272487","0.0","-1.541796325417468","1.5707963267948959","-1.570796326794897","1.570796326794897","SIDE","1.1632984792415144e-16","-0.68985633705682714","0.10842232628986199","0.71578127482103915","119.2890618375789","-57.499614409166121","63.226736405022052","0.004559453","0.000015387","196"
"197","hotpot","0.0","1.032203712090616","1.570796326794897","-1.2587963217545779","0.0","0.15520369977200951","1.262000020826237","SIDE","0.73517983270223242","-0.07360278463909839","-0.67386441045753998","-2.0764397919466414e-16","150.18395976103105","18.37242441956683","-0.11439808298695581","0.001254141","0.000007199","197"
"198","hotpot","0.0","-1.1307963189345309","1.2750000214437021","-1.127796318792037","1.286000021966178","-0.63979631191143504","1.570796326794897","SIDE","0.71912734448279458","-0.066705485598410386","-0.6916691699130475","8.6841427480524884e-17","151.79835104970672","0.93932019322445182","45.95967099221776","0.006953603","0.000072465","198"
"199","hotpot","0.75500000000000023","-1.160796320359458","1.3420000213664021","-0.70579631178662361","1.3900000236462871","-0.60079631005902967","1.53479632834462","SIDE","0.51342884567583713","-0.40338280421446721","0.5568338658163916","-0.51342884567583746","-150.79051247141615","18.986564240342915","78.44667567765805","0.026447546","0.000400050","199"
"200","hotpot","0.0","-0.88379631372192147","0.0","-1.0427963180143851","-1.6992016939158349e-15","-0.17779630300609581","1.261000020778726","SIDE","-1.0534550527510455e-16","0.7904155628608911","0.1317326988478891","-0.59823886035725904","150.49276084187406","19.181532574563274","144.8789923562417","0.000803478","0.000057013","200"
"201","hotpot","0.0","-1.2917963200623639","0.0","-1.2797963194923869","0.0","0.23020370007468979","1.098000019555899","SIDE","0.67645157576433546","0.086931135710668669","0.73133866525023894","-4.1031134540957153e-17","-145.67218064884369","-5.6111568014570716","136.93385813135427","0.008963243","0.000113742","201"
"202","hotpot","0.75500000000000045","-0.45179630950116367","1.5707963267948959","-0.69679631135915754","1.5707963267948959","-1.1397963193620191","1.140000018291172","SIDE","1.7362300365241492e-16","-0.68844506681476481","0.092426463562554143","0.71937524200637726","146.49337835431101","-38.537421216430268","25.862028119209572","0.004327433","0.000069230","202"
"203","hotpot","1.110223024625157e-16","-1.2357963206621361","0.0","1.0982037152254469","1.570796326794897","-0.015796301830797041","1.452000023331488","SIDE","2.9103151836805449e-16","-0.69739995875128036","0.04492960293746659","0.7152724154569321","155.13802838235534","29.063244331576271","102.7915741105795","0.001261997","0.000017737","203"
"204","hotpot","0.0","1.0322037120906149","1.5707963267948959","-0.54179631051631227","1.5707963267948959","-0.91279631509935855","1.5707963267948959","SIDE","0.4764146649182317","0.585858272953103","0.45036453913924612","0.47641466491823153","-140.96321345640291","34.466285301856175","137.93195591457396","0.000001957","0.000000007","204"
"205","hotpot","0.0","-1.2347963206146431","0.0","-1.2317963204721389","0.61200000951066613","-0.17879630305360611","1.497000025468864","SIDE","0.0","0.71392040385089384","-0.10016350929532146","0.6930259218608078","-146.97946454546675","35.991708658729081","35.725989418389346","0.004057139","0.000046618","205"
"206","hotpot","0.0","1.0322037120906129","1.570796326794897","-1.0577963187268531","1.541796328677101","-0.18179630319611409","1.570796326794897","SIDE","0.50201708308413218","-0.42328181814885002","0.56284118453432519","-0.50201708308413251","-145.08811558670939","35.882978701311252","9.4274483026146676","0.003441275","0.000004557","206"
"207","hotpot","0.755","0.12820370174920859","3.37011963439686e-16","-0.94379631657177132","1.352000021841377","-1.106796317794591","1.4970000254688749","SIDE","0.72203526952759911","-0.0098435103453515145","-0.6917862204917703","-3.0632470811536806e-16","155.45880574966108","35.656087767339855","80.197489488157544","0.011552808","0.000238239","207"
"208","hotpot","0.0","0.7602037089501944","-2.9102502003382402e-16","-0.97379631473706429","1.570796326794897","-1.570796326794897","1.570796326794897","SIDE","0.51993891110657997","-0.52825753885772631","-0.42458336057196749","0.51993891110658019","124.06559647445773","6.0927776452313953","1.8476037363513562","0.002771805","0.000006425","208"
"209","hotpot","0.0","-1.516796324230034","1.474000024376438","-1.5707963267948959","1.5707963267948959","-1.13979631936201","1.570796326794897","SIDE","2.3356749085898095e-16","0.71299928376727717","-0.14362720298164461","0.68629676373345905","-118.2079086777549","59.027441703487845","56.806435420310954","0.000009750","0.000028201","209"
"210","hotpot","0.0","1.032203712090616","1.5707963267948959","-1.570796326794897","1.5707963267948959","0.056203698329392773","0.0","SIDE","-1.2587532488493164e-17","-0.44438406635192884","0.89578339552703268","-0.0097421697061808223","-0.43673842377348054","39.399435159603954","236.26948060022593","0.000210663","0.000001365","210"
"211","hotpot","0.75500000000000067","-0.75679631420900417","1.570796326794897","-0.97779631492705021","1.4210000218590679","-0.91279631509934689","1.570796326794897","SIDE","-1.3605205352735849e-16","0.69466951659772747","-0.08719585412206575","0.71402461143422979","-149.54935966765512","14.151924432789381","63.23256337911576","0.000669972","0.000046713","211"
"212","hotpot","0.75500000000000023","-1.170796317574804","1.386000023456287","-0.62079631100897648","1.171000019763595","-0.48979630804644148","1.1420000183861669","SIDE","0.54191806433284562","-0.50161521765733241","-0.4012876730153454","0.54191806433284551","158.88397611068061","-17.878176009053643","61.082945991047126","0.012419367","0.000229479","212"
"213","hotpot","0.0","1.0322037120906109","1.570796326794897","-1.282796319634889","0.0","0.2492037009771462","1.025000016088601","SIDE","-1.1743097115383109e-16","0.70906955830084883","-0.080443830280635661","-0.7005349039561265","145.77746790985023","-55.746888600517586","128.2810855287716","0.000277657","0.000007586","213"
"214","hotpot","0.0","1.032203712090616","1.5707963267948959","-1.27979631949241","0.0","0.2392037005021683","1.0950000194134359","SIDE","0.67964973209285884","0.083311748165844871","0.72879036374231509","8.1676117285180467e-17","-139.1832545944749","52.410109382869528","135.85433420281311","0.001058728","0.000005865","214"
"215","hotpot","0.755","-0.26979630737588889","1.387000023503806","0.011203699451631801","1.4600000237114741","-1.2167963197596869","0.0","SIDE","0.70053490395612628","-0.080443830280635675","-0.70906955830084906","5.94308194899748e-17","146.95366424917245","-35.62291042875767","128.26073366115443","0.001763381","0.000030877","215"
"216","hotpot","0.0","-0.075796301421011944","1.570796326794897","-0.042796303113226672","1.507796327062181","-1.1367963192195201","0.0","SIDE","0.66819843967319148","-0.035950074709619091","-0.7431140136928418","-1.6615169367473447e-16","146.4096999433051","-1.4346169878856256","139.42586348367837","0.005250249","0.000068573","216"
"217","hotpot","0.75500000000000056","-1.152796319979476","1.4680000240914459","-0.58579630934656224","1.170000019716098","-0.54279631056380795","1.167000019573609","SIDE","0.5419180643328454","-0.50161521765733252","-0.40128767301534551","0.54191806433284551","159.1526691836176","-14.56850193149279","61.100416067517479","0.010126913","0.000224675","217"
"218","hotpot","0.0","-0.73779631330655127","0.0","-1.1597963203119579","1.2380000196862959","-0.57079630863414377","1.5707963267948959","SIDE","0.69243431613293349","0.12018120241050174","0.71140086901035116","0.0","-141.62363114099824","43.149044744009522","91.215074467383673","0.003106057","0.000015461","218"
"219","hotpot","0.755","-1.1707963175748111","0.0","-0.92579631571681442","1.4810000247089199","-0.22779630538099679","1.5017963267772021","SIDE","0.51613513686495094","-0.54966130572836347","-0.40630221507122888","0.51613513686495116","148.39838524076308","-40.579001566008714","77.165908882765166","0.019724438","0.000218494","219"
"220","hotpot","0.0","1.0322037120906149","1.570796326794897","-1.3147963211548119","1.5707963267948959","0.16020370000949871","0.0","TOP","7.7763747665145586e-17","-0.10207537266299316","-0.69282607933521934","0.71384356976070007","35.727300126989959","145.2860116012302","8.4833180579300809","0.001075226","0.000001441","220"
"221","hotpot","0.0","1.032203712090608","1.570796326794897","-1.1467963196944959","0.94600001559593216","0.24420370073965561","1.0870000190334399","SIDE","-0.49468100402293447","-0.472281632951291","0.53621960771178845","0.49468100402293508","154.54706693651633","29.241536270743431","128.63207469154767","0.002441426","0.000003513","221"
"222","hotpot","0.0","-1.291796320062359","0.0","-1.2807963195398939","0.0","0.17720370081695341","1.2030000180238869","SIDE","2.5411488287277554e-16","0.69729426228131342","-0.098683374349267508","0.70995936744056065","-147.22550817432412","15.784893034751917","9.4331075277520711","0.002076190","0.000042376","222"
"223","hotpot","0.0","1.0322037120906169","1.570796326794897","-1.056796318679351","1.5627963296745491","-0.20979630452604339","1.5247963278696439","SIDE","0.51759805994959907","-0.52874024924482865","-0.4296722535856124","0.51759805994959918","144.88623324463438","-34.426135968236636","1.0877352126610196","0.006935897","0.000014789","223"
"224","hotpot","0.755","-0.19279630371858","0.5710000108228982","-0.06179630401567935","0.018000000854954731","-1.1667963206444429","1.251000020303763","TOP","0.49916136987576931","0.52876587743545855","0.47125630023098908","-0.49916136987576964","8.0924601309388944","176.97168203958637","30.929824563004782","0.018317021","0.000189840","224"
"225","hotpot","0.75500000000000034","-0.0057963013558084966","1.561193427319692e-15","-0.26079630694841349","0.60900000936817322","-1.152796319979476","1.015000015613625","TOP","-0.49415193361605192","-0.47883949317242741","0.5313571988647624","-0.49415193361605214","7.2119092237450397","174.78332546250698","108.86942149128602","0.014549849","0.000156985","225"
"226","hotpot","0.0","-0.1047963027984405","0.47900000971275941","1.0982037152254369","1.570796326794897","-1.570796326794897","0.78500001446811074","SIDE","0.50649623077427997","-0.53722233112749507","-0.44532606409330477","-0.50649623077428019","-23.29444874285792","-157.44222309211204","122.97886460263271","0.007160067","0.000034262","226"
"227","hotpot","0.755","-0.041796303065714212","0.21700000378768189","0.17420370067447169","0.0","-1.570796326794897","0.78500001446809831","SIDE","0.50649623077428008","-0.53722233112749518","-0.44532606409330483","-0.50649623077428019","-23.294448742857917","-157.44222309211207","122.97886460263271","0.003464326","0.000109920","227"
"228","hotpot","0.0","-0.46279631002364052","1.570796326794897","-1.2947963202048609","1.570796326794897","-1.0337963175869149","1.570796326794897","SIDE","-0.39746887763650629","-0.50055244073470428","0.65839519795885659","0.39746887763650668","120.34397961326205","-16.059293392670828","158.42549258611118","0.000801743","0.000008285","228"
"229","hotpot","0.0","1.032203712090614","1.570796326794897","-1.173796317717305","1.0700000182259779","0.2342037002646816","1.0430000169435529","SIDE","0.47721055033152943","0.58146310767578535","0.45435760774589834","0.47721055033152948","-148.63464968146724","-25.054788555501133","137.54285672555278","0.002908987","0.000003874","229"
"230","hotpot","0.0","-1.209796319427207","0.91500001412350707","-1.1517963199319821","1.152000018861143","-0.4327963085987182","1.2910000222036491","SIDE","0.72609803686833208","0.10850628623899569","0.67897571878718577","-1.3378980485016384e-16","-152.7625243404396","19.301709065712146","78.337802234288205","0.009554437","0.000087123","230"
"231","hotpot","0.75499999999999967","0.14020369905955041","-3.3027733150091851e-16","-0.9717963146420644","1.480000024661428","-1.090796317034622","1.5107963272046809","SIDE","2.0803657144716666e-16","0.71711535090306466","-0.040863285312942692","0.69575553566795822","-151.55235781773445","-33.499316251120689","90.040401955073108","0.007844265","0.000106085","231"
"232","hotpot","0.0","-0.70679631183413216","1.5707963267948959","-0.57079630863409514","1.570796326794897","-1.129796318887031","1.171000019763595","SIDE","-7.659814194249747e-17","-0.6849858995143","0.074800983190145609","0.72470623729920591","148.14164277522534","-16.683413132030743","23.873471491016925","0.002963346","0.000084832","232"
"233","hotpot","0.755","-0.78379631223180779","1.570796326794897","-0.68379631074168157","1.570796326794897","-1.129796318887037","1.1710000197635899","SIDE","-7.6598141942497458e-17","-0.68498589951429989","0.074800983190145609","0.72470623729920591","148.14164277522534","-16.683413132030669","23.873471491016915","0.002983901","0.000061041","233"
"234","hotpot","0.0","-0.204796304288555","1.570796326794897","-0.083796301800996328","1.5507963291045861","-1.2087963193796969","0.31300000508781511","SIDE","1.9906820673005596e-16","-0.67769997992537578","0.070051651529191281","0.73199419623872553","144.19173176836253","-34.354347600459654","1.1378769204480825","0.001701949","0.000033148","234"
"235","hotpot","0.75500000000000045","-1.174796317764788","0.0","-1.0207963169694401","1.5487963290095841","-0.19779630395606099","1.570796326794897","SIDE","0.4936244121643738","-0.42902675752591302","0.57324159021965093","-0.49362441216437392","-143.86945599272096","36.277631808716166","89.190225366671015","0.000929437","0.000069964","235"
"236","hotpot","0.755","-1.2257963201871629","0.24800000526011229","-0.64679631224391609","1.5707963267948959","0.018203699784112772","1.418000021716582","SIDE","0.51008260288110008","0.44026240838848557","-0.53460311281927075","-0.5100826028811003","151.16566116269107","9.4004546529119999","25.132875328018656","0.010846026","0.000170248","236"
"237","hotpot","0.0","0.79620371066010542","-1.340157741654466e-16","-1.556796326129932","1.5707963267948959","-1.570796326794897","1.570796326794897","SIDE","0.5020170830841324","-0.42328181814885002","0.56284118453432508","-0.5020170830841324","-122.364067362968","12.266420270578458","9.6361120054338265","0.001797879","0.000003850","237"
"238","hotpot","0.0","-1.13779631926701","0.0","-1.164796320549448","1.229000019258822","-0.54079631046881216","1.5707963267948959","SIDE","0.69809033840130419","0.1019752861454257","0.70871074525952504","1.9879644573789637e-17","-143.86945599272096","36.277631808714624","89.190225366670006","0.001671678","0.000014719","238"
"239","hotpot","0.0","-1.234796320614642","4.0693014324044778e-16","-1.243796321042119","0.65700001164805066","-0.15579630522078819","1.547796328962086","SIDE","1.3706863306100179e-16","0.70872899572484571","-0.12724686877241337","0.69391025717052768","-142.10579674027861","60.833948219508386","35.363004182155997","0.004566346","0.000037736","239"
"240","hotpot","0.0","-0.3397963074410823","0.0","-1.046796318204372","1.551796329152072","-0.90779631486185963","1.570796326794897","SIDE","0.69313006233206009","0.10980538411210712","0.71239981352576653","-1.4015337082315415e-16","-142.62483031737005","46.135753714084473","70.99086917085242","0.003886607","0.000030868","240"
"241","hotpot","0.0","-1.1487963197894899","1.0120000154711311","-1.1617963204069539","1.3550000219838769","-0.67379631026670872","1.5707963267948959","SIDE","0.71771749776228722","-0.095444382154102655","-0.68976225130189817","3.8672006328626177e-17","146.37038022272142","-38.973298323327462","46.512606065752898","0.007562738","0.000092386","241"
"242","hotpot","0.0","-0.1687963058382741","1.570796326794897","0.0072036992616274836","1.5617963296270501","-1.207796319332217","0.0","SIDE","1.7046083095320115e-16","0.73272017725069372","-0.095808537988062881","0.67375208044079671","-138.98852635797047","34.208080478573322","137.74772336667439","0.003216349","0.000026111","242"
"243","hotpot","0.0","1.0322037120906129","1.570796326794897","-1.146796319694495","1.2750000214437029","0.12020370136923821","1.3200000203214559","SIDE","0.49934983126364463","-0.41978902477790764","0.57015494973730829","-0.49934983126364441","-142.47061926134847","53.808624921408828","10.825930359976706","0.002759228","0.000004801","243"
"244","hotpot","0.0","0.79920371080260133","0.0","-0.02179630211577404","1.5707963267948959","-1.570796326794897","1.5707963267948959","SIDE","0.50530574728965927","-0.4360565119894857","0.54697981851585808","-0.50530574728965971","-127.84549375768306","-29.134267502174296","8.232898064861855","0.001979433","0.000004994","244"
"245","hotpot","4.4408920985006271e-16","-1.2327963205196459","2.8917320883916469e-16","-1.24279632099462","0.65000001131557217","-0.1727963027686405","1.5547963292945639","SIDE","1.3706863306100176e-16","0.70872899572484582","-0.1272468687724134","0.69391025717052757","-142.79079708538944","57.018685901850361","35.363004182156224","0.005158505","0.000038413","245"
"246","hotpot","0.75499999999999978","-0.91779631533683736","1.570796326794897","0.12520370160672409","1.300000022631143","-1.159796320311959","1.2450000200187721","SIDE","0.70158429956598323","0.053350765715792794","0.71058649466482771","0.0","-152.24787431449082","-31.216671920431942","32.513053394125016","0.003115075","0.000090962","246"
"247","hotpot","0.755","-0.64779631229141055","1.546796328914587","0.084203699659314291","0.0100000004749798","-1.570796326794897","1.570796326794897","SIDE","0.50279797593593567","-0.5532728675668166","-0.43390958136902702","-0.50279797593593567","-26.077643775115245","-155.58164697716609","104.63790610235111","0.005866430","0.000076747","247"
"248","hotpot","0.75500000000000034","-1.570796326794897","1.5707963267948959","-0.22779630538099649","0.67800001264550036","-0.017796301925789709","0.0","SIDE","0.0068887542627108509","0.94764150022017757","-0.31918752668277495","0.006888754262710549","-0.43249574386871087","19.390882822786342","236.12871431297489","0.005434522","0.000072932","248"
"249","hotpot","0.0","-1.570796326794897","1.570796326794897","-0.39479630679381239","1.057000017608515","-0.01779630192579151","8.2275338829765916e-16","SIDE","0.0068887542627108483","0.94764150022017757","-0.31918752668277489","0.0068887542627105499","-0.42643477250570277","19.378665198621125","235.42884714312248","0.006335539","0.000048800","249"
"250","hotpot","0.0","-1.191796318572262","0.0","-1.169796320786934","1.183000020333572","-0.4737963072864777","1.5467963289145941","SIDE","1.3308829444291172e-16","-0.67596828812435861","0.10137018514839703","0.7299253105717074","148.9904729128848","-40.667792768201892","77.126559729493877","0.005155030","0.000040391","250"
"251","hotpot","0.0","1.032203712090614","1.570796326794897","-0.45479630964365869","0.95800001616589958","0.090203699944306964","0.0","SIDE","0.69850923100749662","-0.70942150085353872","0.093840227642671067","-1.5894178277698972e-16","-30.071784468737704","-177.59574786313374","13.622951510437314","0.002809866","0.000004601","251"
"252","hotpot","0.0","-1.548796325749952","1.570796326794897","-0.089796302085954849","2.4526862222403269e-14","-0.24279630609345901","0.60000001220035648","SIDE","0.040016952414959783","0.71436016565705385","0.69748608642844223","0.040016952414959589","-24.862361754751014","-20.82983192319746","233.98326765232139","0.004476335","0.000104120","252"
"253","hotpot","0.75500000000000067","-0.56979631184623614","1.570796326794897","-0.1887963035286008","1.5707963267948959","-1.076796316369673","1.486000024946408","SIDE","0.50935679194767314","0.41658240893979426","-0.55459031145113535","-0.50935679194767358","142.80424428803374","-59.33206817683746","45.551999313127006","0.006837262","0.000032199","253"
"254","hotpot","0.0","0.76620370923518177","-2.1252039709963529e-16","-1.570796326794897","1.5707963267948959","-1.3327963220097621","1.570796326794897","SIDE","0.51993891110658019","-0.52825753885772631","-0.42458336057196749","0.51993891110658019","121.19590190883848","-13.831756414944714","1.9045458594960267","0.002420026","0.000008089","254"
"255","hotpot","0.0","1.0322037120906149","1.5707963267948959","-1.148796319789487","1.1590000191936229","0.17420370067446189","1.223000018973833","SIDE","0.49934983126364463","-0.41978902477790758","0.57015494973730829","-0.49934983126364452","-142.05462046431032","57.213282412674523","10.826190258399706","0.002240986","0.000003657","255"
"256","hotpot","0.0","-1.1777963179072879","0.0","-1.12079631845956","0.049000002327376342","-0.097796302465954832","1.570796326794897","SIDE","-4.3694643901499162e-16","0.73049941841677568","-0.11259624031672159","-0.67356713574764893","147.5300540392146","-23.323825525036636","117.8120615239807","0.001297748","0.000027617","256"
"257","hotpot","0.75499999999999989","-1.1777963179072639","0.0","-1.0517963184418639","1.5197963276321551","-0.1157963033209026","1.5707963267948959","SIDE","0.48962500046386664","-0.41805543542360385","0.5880173218148409","-0.48962500046386664","-141.52511146000577","43.132401225230552","91.210967523558409","0.000778000","0.000063900","257"
"258","hotpot","0.75499999999999989","0.088203699849325023","1.303000019514001","-0.7007963115491469","1.5707963267948959","-1.1567963201694691","1.1570000190986329","SIDE","1.3485938766960011e-16","-0.68672281629181287","0.097586323723101248","0.7203392832592509","142.7331044725091","-59.430481550459092","25.525555155268304","0.007935832","0.000087187","258"
"259","hotpot","0.0","-0.7027963116441357","1.5707963267948959","-0.52679630980384462","1.570796326794897","-1.1277963187920379","1.0580000176560149","SIDE","0.70106196497385842","0.09235145798442608","0.707094993247119","-1.3856765807901669e-16","-148.74491098631768","14.581605895417077","32.726113675063843","0.000000561","0.000041413","259"
"260","hotpot","0.0","1.032203712090616","1.570796326794897","-1.1517963199319809","1.2150000185938561","0.16120370005699211","1.1600000192411231","SIDE","0.50875340089686871","-0.54767517562700863","-0.42707359571116682","0.50875340089686905","142.80304268621947","-57.144509504240048","5.8305352280540719","0.003126164","0.000007308","260"
"261","hotpot","0.0","1.032203712090612","1.570796326794897","-0.15579630522081031","0.31000000494532259","-0.047796303350712943","0.22600000421516439","SIDE","0.67076260979990299","-0.73929819402237273","0.059293352154193749","-8.2758267113036477e-17","-9.7043040366003908","-177.47924498041041","23.315584360425099","0.004786338","0.000014742","261"
"262","hotpot","0.755","0.049203697996909837","1.401000020909122","-0.6107963105340084","1.570796326794897","-1.1647963205494469","1.0950000194134151","SIDE","0.69391025717052801","0.12724686877241342","0.70872899572484527","-1.9999398574106963e-16","-142.39736160508849","56.948047571496438","35.348213337238931","0.006470653","0.000056872","262"
"263","hotpot","0.75499999999999912","-0.66579631314636645","1.570796326794897","-0.076796301468518208","1.5177963275371571","-1.0367963177294131","1.346000021556395","SIDE","0.48528509554231075","0.60572639772417081","0.40260685934181545","0.48528509554231075","-140.13963883162873","63.445388720077879","58.106069839894325","0.009593438","0.000096387","263"
"264","hotpot","0.75500000000000034","-1.196796318809729","0.82900001329835282","-0.9167963152893378","1.5707963267948959","-0.073796301326023883","1.500000025611367","SIDE","0.51008260288109997","0.44026240838848574","-0.53460311281927075","-0.5100826028811003","151.36456595210902","4.8753675026055232","35.769975019884541","0.001656309","0.000076418","264"
"265","hotpot","0.755","0.1102037008942552","1.3080000197514849","-0.61079631053400463","1.570796326794897","-1.1677963206919391","1.1110000169137459","SIDE","0.69391025717052812","0.12724686877241342","0.70872899572484538","-1.9999398574106966e-16","-141.81072013005246","60.780969471742424","35.35191104846858","0.006267934","0.000076073","265"
"266","hotpot","0.0","0.75920370890269206","-7.6205275763895669e-16","-0.18679630343361009","1.5707963267948959","-1.570796326794897","1.570796326794897","SIDE","0.51985064509534018","-0.52853912236732081","-0.42444906610228217","0.5198506450953404","125.99796916369718","21.014137247240434","1.8622937591236337","0.000917250","0.000004487","266"
"267","hotpot","0.0","-0.96579631761671436","1.570796326794897","-0.74079631344904684","1.515796327442168","-0.62379631115147305","1.570796326794897","SIDE","0.51342884567583724","-0.40338280421446726","0.5568338658163916","-0.51342884567583758","-149.01570211070276","18.702933948875906","78.544661758946916","0.004538278","0.000065129","267"
"268","hotpot","0.75500000000000056","-0.85979631584161309","1.5567963293895679","-1.030796317444421","1.570796326794897","-0.48279630771396781","0.79900001513306118","SIDE","-8.6963849986239745e-18","-0.59963366214815206","0.061532069569876481","0.7979055555848974","157.97355474880993","-16.687286932039964","26.253393436100879","0.003628927","0.000085087","268"
"269","hotpot","0.0","-0.5517963109912849","1.570796326794897","-0.2197963050010199","1.570796326794897","-1.013796316636963","1.516796327489665","SIDE","0.49096413106645248","0.59104913487771293","0.41057199633271818","0.49096413106645237","-141.1097720357952","52.740527101015502","55.149082190886901","0.007410498","0.000040806","269"
"270","hotpot","0.0","-0.31779630639613438","1.570796326794897","-0.090796302133474754","1.520796327679659","-1.076796316369665","1.4860000249464069","SIDE","0.50935679194767314","0.41658240893979426","-0.55459031145113535","-0.50935679194767358","142.80424428803374","-59.332068176837417","45.55199931312702","0.008147608","0.000045739","270"
"271","hotpot","0.0","1.032203712090614","1.570796326794897","-0.38679630641382912","0.86600001505576196","0.057203698376888767","-3.6756228375680237e-15","SIDE","2.9061651214380269e-16","0.064980473585605866","0.69476663310458742","0.71629383885184006","-11.7282158380968","-179.81927473908027","122.42414405572984","0.004259182","0.000007240","271"
"272","hotpot","0.0","-0.37079630565386801","1.5707963267948959","-0.042796303113229871","1.4570000235689871","-1.0287963173494199","1.330000020796432","SIDE","0.48528509554231075","0.60572639772417081","0.40260685934181539","0.48528509554231086","-140.62896796315471","63.543959610818824","58.13506659379253","0.006332132","0.000056334","272"
"273","hotpot","0.75500000000000234","-0.047796303350723372","-1.632963418315113e-15","-1.570796326794897","1.5707963267948959","0.120203701369229","0.0","TOP","0.64764243989055259","0.75550661825218668","-0.098838352018619152","-2.1428163061950837e-16","13.439952558267475","143.8329661366819","142.15909823127132","0.000492728","0.000007972","273"
"274","hotpot","0.0","-0.1077963029409344","-2.9225165476717068e-16","-0.92179631552682462","1.5707963267948959","0.11720370122673759","0.0","TOP","0.64764243989055259","0.75550661825218679","-0.09883835201861918","-2.1428163061950837e-16","13.811221667880197","146.67089558144073","142.62634202673183","0.000234977","0.000014445","274"
"275","hotpot","0.0","-1.125796318697055","1.415000021574087","-1.0467963182043789","1.523796327822146","-0.19879630400355389","1.570796326794897","SIDE","0.49362441216437375","-0.42902675752591302","0.57324159021965093","-0.49362441216437392","-143.77050716174898","36.263394215425144","89.187691390626654","0.009125365","0.000061854","275"
"276","hotpot","0.75500000000000023","-1.140796319409507","1.379000023123808","-0.40879630745877399","1.570796326794897","-0.90979631495685431","1.5707963267948959","SIDE","1.9480336103867485e-16","0.71239981352576676","-0.10980538411210711","0.69313006233206009","-142.22980171099613","46.074866180096933","70.975212596520407","0.001543621","0.000036179","276"
"277","hotpot","0.0","0.11520370113174799","1.340935828013125e-15","0.078203699374309668","1.106000016676262","-1.2657963220870609","3.4037927940906972e-16","SIDE","0.50649623077428019","-0.53722233112749507","-0.44532606409330483","-0.50649623077428019","-12.10988575714334","-183.90006255089315","122.31691377623051","0.000303492","0.000009825","277"
"278","hotpot","0.0","-0.64579631219641442","1.570796326794897","-0.50979630899639694","1.5707963267948959","-1.154796320074474","1.0940000193659141","SIDE","0.69302592186080814","0.10016350929532182","0.7139204038508935","0.0","-146.28679301782375","35.89452638095144","35.698388316386954","0.001356378","0.000027083","278"
"279","hotpot","0.75500000000000012","0.057203698376889621","0.0","-1.570796326794897","1.5707963267948959","0.056203698329394813","0.0","SIDE","-1.1619260758609075e-17","-0.44438406635192884","0.89578339552703268","-0.0097421697061808223","-0.43509330302394811","39.396118947428434","236.07951665973894","0.001521691","0.000019395","279"
"280","hotpot","0.75499999999999989","-1.1667963206444421","1.1200000173412279","-1.082796316654657","1.494000025326379","-0.13079630403337009","1.4490000231890039","SIDE","0.49179033920960785","0.57315298892597599","0.43333610027946878","0.49179033920960785","-150.23647147731589","-2.9006610038478589","54.765296414009292","0.014595528","0.000169079","280"
"281","hotpot","0.0","-1.100796317509612","1.4420000228565191","-0.98679631535453693","1.466000023996463","-0.23179630557098641","1.5377963284871119","SIDE","0.51613513686495094","-0.54966130572836347","-0.40630221507122888","0.51613513686495116","147.70761628995598","-40.475411830115782","77.21181622824821","0.010609049","0.000090916","281"
"282","hotpot","0.0","0.4182037057445781","-1.340157741654466e-16","-1.0377963177769001","1.5387963285346109","-0.90479631471936428","1.5707963267948959","SIDE","0.69243431613293327","0.12018120241050177","0.71140086901035127","0.0","-141.11479216294143","59.493760129673483","71.272571680927513","0.003559042","0.000050323","282"
"283","hotpot","0.75500000000000056","-1.1397963193620111","1.136000018101186","-1.065796319106828","1.498000025516379","-0.17179630272111551","1.570796326794897","SIDE","0.50849982182045816","0.44191605917420868","-0.53625186159216398","-0.50849982182045872","150.80355456079332","1.0352596766543183","45.993959269523543","0.016904919","0.000121765","283"
"284","hotpot","0.0","-1.098796317414612","1.425000022049062","-1.056796318679351","1.51079632720468","-0.1717963027211446","1.5707963267948959","SIDE","0.50849982182045828","0.44191605917420868","-0.53625186159216387","-0.50849982182045872","150.80355456079332","1.0352596766544711","45.993959269523536","0.008134888","0.000050297","284"
"285","hotpot","0.75500000000000023","-1.059796318821844","1.5097963271571819","-0.75379631406651282","1.570796326794897","-0.68879631097918004","1.570796326794897","SIDE","0.71771749776228722","-0.095444382154102655","-0.68976225130189817","3.8672006328626177e-17","145.47928218041849","-38.849994529990909","46.539819199320476","0.013628732","0.000153885","285"
"286","hotpot","0.0","-1.2807963195398899","0.0","-1.263796321992066","0.0","0.2182037027643452","1.0860000189859349","SIDE","0.67375208044079682","0.095808537988062964","0.73272017725069361","-8.2391064670167838e-17","-143.77583036783201","14.492105784186691","137.95037916936394","0.002120058","0.000043921","286"
"287","hotpot","0.0","-1.140796319409511","0.9790000171633404","-1.107796317842096","1.340000021271412","-0.64779631229141577","1.570796326794897","SIDE","0.72033928325925045","-0.097586323723101151","-0.68672281629181309","0.0","143.8925258827708","-59.486717763956747","45.510444207919278","0.005762125","0.000061217","287"
