ipa320/cob_manipulation/cob_grasp_generation/common/files/database/fruittea/fruittea.csv
"id","object","sdh_knuckle_joint","sdh_finger_12_joint","sdh_finger_13_joint","sdh_finger_22_joint","sdh_finger_23_joint","sdh_thumb_2_joint","sdh_thumb_3_joint","direction","qw","qx","qy","qz","pos-x","pos-y","pos-z","eps_l1","vol_l1"
"0","fruittea","0.0","-0.98339999990500537","1.3752000072903929","1.098600033792116","1.570796326794897","-0.98540000000000028","1.50020000996795","SIDE","1.1748872667075047e-16","-0.68852921533967781","0.15375979950215637","0.70872099142101341","152.83575259647972","-11.585023796709264","49.277718140525685","0.014429015","0.000164840","0"
"1","fruittea","0.0","-0.60939999191984984","0.94719999999999693","-0.4783999922169378","0.94719999999999949","-0.98540000000000028","0.94719999999999971","SIDE","0.7130586188624789","0.1701412656994199","0.68014656933056239","-2.7247273109095279e-16","-189.27395897431657","28.554699896198144","27.177739799068014","0.009332574","0.000066560","1"
"2","fruittea","0.0","-0.79639999428260511","0.94719999999999815","1.098600033792118","1.5707963267948959","-0.74639999516736999","0.94719999999999938","SIDE","1.1748872667075047e-16","-0.68852921533967781","0.15375979950215637","0.70872099142101341","177.14667248291249","-17.014048570344499","49.163857336348983","0.000618080","0.000003114","2"
"3","fruittea","0.0","-0.95139999838509282","1.3602000065779281","-0.84839999675247846","1.4752000087805099","-0.98540000000000028","1.432200009997749","SIDE","0.70603758922547522","0.16824575612152082","0.68789845773033764","0.0","-163.84890876599303","21.472235441907493","50.286089141293523","0.025062442","0.000297611","3"
"4","fruittea","0.0","-0.75239999545235914","0.94719999999999815","-0.5793999937545522","0.94719999999999938","-0.78539999376014413","0.94719999999999904","SIDE","0.70772212171472337","-0.21929607549599975","-0.67159409594461383","0.0","159.37946585843775","-78.750190880724432","82.869877086306104","0.011563611","0.000079629","4"
"5","fruittea","0.0","-0.93839999776762062","0.94719999999999882","-0.75539999559484183","0.94719999999999915","-0.63539999315478102","0.94720000000000026","SIDE","3.1327827618298686e-16","-0.69017853282074548","0.14590406493714697","0.70877753679713917","183.49626404286613","-16.50717523743883","62.36972225629934","0.009405266","0.000049495","5"
"6","fruittea","0.0","1.0326000306572749","1.570796326794897","-0.80139999452010058","1.570796326794897","-0.98540000000000016","1.570796326794897","TOP","0.011540486872397809","-0.62133660744275232","0.78337376428945282","-0.011540486872397617","-30.748149969423164","-9.8492749591139095","237.03678048218242","0.000183676","0.000001037","6"
"7","fruittea","0.0","-0.72739999426491853","0.94719999999999638","-0.59339999115989028","0.94719999999999915","-0.83639999618251104","0.94719999999999938","SIDE","7.9053782646113798e-17","0.67922590459904708","-0.21348232246207219","0.70219475113233798","-179.92310038080527","65.846578932093905","85.386137748281399","0.008645699","0.000033478","7"
"8","fruittea","0.0","-0.88039999827239734","1.324200008127661","-0.67339999495968272","1.296200006797724","-0.98539999999999994","1.2802000060377601","SIDE","7.905378264611381e-17","0.67922590459904708","-0.21348232246207219","0.70219475113233798","-156.16150792438509","58.378253727406218","85.041257229838394","0.024943821","0.000258700","8"
"9","fruittea","0.0","-0.56439999304208754","0.94719999999999949","-0.42839998984206767","0.94719999999999949","-0.90439999615271316","0.94719999999999949","SIDE","1.1961227301065387e-16","0.68480546509969409","-0.2154818973378658","0.6961386549310884","-222.90697004626537","79.58919357290894","109.53834151099339","0.009432163","0.000074399","9"
"10","fruittea","0.0","-0.60539999172985748","0.94719999999999338","-0.49239998962226839","0.94719999999999949","-0.95539999857507518","0.9472000000000016","SIDE","0.7130586188624789","0.17014126569941987","0.68014656933056228","-2.5301039315588476e-16","-213.43588045465856","34.598896967487633","26.756631569272884","0.009510655","0.000047310","10"
"11","fruittea","0.0","-0.60739999182485893","0.94719999999999827","1.098600033792112","1.570796326794897","-0.91139999648519543","0.94719999999999949","SIDE","1.7542945952232628e-16","-0.68665436564722149","0.14699634949464382","0.7119675943277618","182.1386250062944","-16.724545552228019","27.64335695778297","0.000675504","0.000006602","11"
"12","fruittea","0.0","-0.566399993137088","0.94719999999999849","-0.4353999901745495","0.94719999999999971","-0.98540000000000016","0.94719999999999971","SIDE","1.1961227301065394e-16","0.68480546509969431","-0.21548189733786582","0.69613865493108851","-199.15680179803286","72.115930614241492","108.77156323061652","0.011398787","0.000107197","12"
"13","fruittea","0.0","-0.77539999654479608","0.94719999999999793","-0.65239999396223725","0.94720000000000093","-0.77139999635480405","0.94719999999999949","SIDE","0.70603758922547522","0.16824575612152082","0.68789845773033764","-1.9655876711944501e-17","-188.04559441201408","27.390245035331382","50.36136330525931","0.009290143","0.000060693","13"
"14","fruittea","0.0","-0.98540000000000016","1.570796326794897","-0.88839999539274261","0.94719999999999949","-0.64639999367725354","1.570796326794897","SIDE","0.66889141042956013","-0.31086994131116968","-0.092349562512754613","-0.66889141042956035","-56.136388023922663","-83.770579817361778","-76.745246601999185","0.007087093","0.000053926","14"
"15","fruittea","0.0","-0.98540000000000016","0.94719999999999938","-0.93139999743514146","0.94719999999999938","-0.49739998985976269","0.94720000000000304","SIDE","0.69650594906576213","0.16228639318573315","0.69895821727966523","1.9924866150000615e-17","-228.50263323116437","34.968224952813728","89.096316543984742","0.000009973","0.000040407","15"
"16","fruittea","0.0","-0.66739999467470357","1.190200005022624","1.0986000337920989","1.5707963267948959","-0.98540000000000028","1.1082000043874509","SIDE","1.9492162169147365e-16","-0.68665436564722149","0.14699634949464382","0.71196759432776191","157.78283978230047","-11.510551880713328","27.987008112458987","0.008698650","0.000105660","16"
"17","fruittea","0.0","-0.56239999294709564","0.94719999999999938","-0.42839998984206579","0.94719999999999949","-0.98540000000000028","0.94719999999999949","SIDE","0.70069303342540701","-0.20962905594390088","-0.68197135703280853","0.0","199.75710641591235","-78.283795435069223","106.65044793174529","0.007823181","0.000036408","17"
"18","fruittea","0.0","-0.82439999561254296","1.232200007017505","-0.62739999277479819","1.2012000055450911","-0.98540000000000028","1.233200007065004","SIDE","0.71338849276972627","-0.21924914377643645","-0.66558746332622387","3.8906676932603807e-17","146.53911417010275","-64.2223408651532","80.652474935433517","0.019749456","0.000222655","18"
"19","fruittea","0.0","-0.98539999999999994","1.1482000030277311","-0.95239999843258383","1.3402000088876129","-0.78739999385513759","1.334200008602624","SIDE","0.70516394326317089","0.15101035922898573","0.69277679271686621","-3.9360457778355774e-17","-168.18413293182985","18.995018009747252","63.895797996682951","0.021147276","0.000233815","19"
"20","fruittea","0.0","-0.98540000000000028","0.9872000018998961","-0.9303999973876419","1.3232000080801529","-0.74939999530986179","1.299200006940213","SIDE","0.71233089572740749","-0.25411107205895755","-0.65422645777225841","-1.9482220820483916e-16","138.75353974545675","-80.003746086497628","61.104275481166233","0.019044992","0.000259911","20"
"21","fruittea","0.0","-0.60039999149236833","0.94719999999999815","-0.48539998928978612","0.9471999999999986","-0.98539999999999994","0.94719999999999949","SIDE","0.71005715287765159","0.19442169983761079","0.67677104125364096","-3.9089213457175631e-17","-204.5197921385392","46.801614112349277","28.38153149643","0.007415314","0.000032464","21"
"22","fruittea","0.0","-0.8433999965149952","1.288200006417749","-0.65639999415222683","1.248200004517845","-0.98540000000000016","1.2382000073024839","SIDE","1.1858067396917073e-16","0.67922590459904708","-0.21348232246207216","0.70219475113233787","-159.14980491655396","52.87227749109389","85.0578713064331","0.018475366","0.000211345","22"
"23","fruittea","0.0","-0.96339999895505768","1.3892000079553579","-0.81039999494757653","1.4142000091428011","-0.98540000000000028","1.392200008097852","SIDE","0.70303380048620512","0.21060978678473452","0.67925473357527022","1.5791886874533583e-16","-160.30227628874206","37.014512007886715","51.424983470237201","0.021354149","0.000251872","23"
"24","fruittea","0.0","-0.60339999163486224","0.94719999999999427","-0.49339998966976628","0.94719999999999938","-0.98540000000000016","0.94719999999999949","SIDE","1.7326488864814789e-16","-0.66870036706759839","0.18220225572830742","0.72086209297699622","191.4925861149031","-49.928672098411738","22.827330759769236","0.007882951","0.000045750","24"
"25","fruittea","0.0","-0.77639999659229142","0.94719999999999782","-0.65539999410472771","0.94719999999999949","-0.78739999385513848","0.94719999999999949","SIDE","1.5543826637447886e-16","-0.67290075459692755","0.1924752623120507","0.71425334991219513","171.68917563130924","-46.442905994582006","46.654236754431359","0.009112955","0.000052743","25"
"26","fruittea","0.0","-0.71939999388493381","0.94719999999999949","-0.5813999938495451","0.94719999999999949","-0.8553999970849625","0.94719999999999938","SIDE","0.71338849276972627","-0.21924914377643645","-0.66558746332622387","3.8906676932603807e-17","170.19476799483036","-72.014677909219884","80.207924020111463","0.008714646","0.000037536","26"
"27","fruittea","0.0","-0.98539999999999994","0.94719999999999938","-0.88139999831989502","0.94719999999999949","-0.53839999180715103","0.94719999999999949","SIDE","0.71233089572740771","-0.2541110720589575","-0.65422645777225819","-1.558577665638713e-16","196.51615656989372","-102.52153576001945","46.922359339459959","0.005443878","0.000049837","27"
"28","fruittea","0.0","-0.77239999640230339","0.94719999999999882","-0.64639999367724976","0.94719999999999882","-0.7883999939026326","0.94720000000000326","SIDE","0.70303380048620512","0.21060978678473452","0.67925473357527022","1.9739858593166977e-16","-184.09327110429351","44.391150105241636","51.711123413365925","0.007291903","0.000030033","28"
"29","fruittea","0.0","-0.61039999196734185","0.94719999999999427","-0.56139999289959763","0.94719999999999949","-0.95639999862257552","0.94719999999999949","SIDE","0.5340896229728529","-0.34864026872968956","0.55492928584236867","0.53408962297285312","-39.971489959791825","-186.40298947975742","8.0968343325022971","0.007733513","0.000056233","29"
"30","fruittea","0.0","-0.98540000000000028","1.0972000038649941","-0.90839999634269397","1.253200004755336","-0.75039999535735902","1.2362000072074899","SIDE","1.5774768060296844e-16","0.67756470397785384","-0.21348589793277278","0.70379673436812784","-158.59801955082875","59.163933956722346","64.444733349331742","0.019479330","0.000208970","30"
"31","fruittea","0.0","-0.97739999962002144","1.4102000089528011","-0.83739999623000594","1.4462000106627171","-0.9854000000000005","1.404200008667819","SIDE","1.5543826637447886e-16","-0.67290075459692755","0.1924752623120507","0.71425334991219513","147.74460661610709","-39.593846648660168","47.160300734855916","0.023793399","0.000269558","31"
"32","fruittea","-1.110223024625157e-16","-0.93539999762512782","1.480200009017987","-0.89439999567772743","1.443200010520227","-0.98540000000000016","1.428200009807765","SIDE","0.50416540748709626","-0.38083389827189301","0.58872746301983703","0.50416540748709648","-33.700132338014775","-167.21154071248375","47.665706325549962","0.019820198","0.000345003","32"
"33","fruittea","0.0","-0.7103999934574704","0.94719999999999938","-0.5933999911598844","0.94719999999999949","-0.85539999708495895","0.94719999999999938","SIDE","1.185806739691707e-16","0.67922590459904697","-0.21348232246207222","0.70219475113233809","-182.91139737297433","60.340602695781797","85.402751824875892","0.007901966","0.000035429","33"
"34","fruittea","0.0","-0.59339999115989772","0.94719999999999815","-0.48339999245442322","0.94720000000000126","-0.91439999662768012","0.94720000000000326","SIDE","0.71005715287765159","0.19442169983761079","0.67677104125364096","-3.9089213457175631e-17","-228.37410147093618","53.654441857853726","28.173978696521161","0.008667311","0.000037188","34"
"35","fruittea","0.0","-0.98540000000000016","1.1892000049751299","-0.93339999753012848","1.3182000078426661","-0.82739999575503742","1.3702000070529079","SIDE","1.3787744752958726e-16","-0.68846788089634736","0.17202044418604065","0.70457146107128854","152.26375019531497","-36.008048016739146","64.12387448220457","0.020063051","0.000238592","35"
"36","fruittea","0.0","-0.59939999144487843","0.94719999999999849","-0.49239998962227421","0.94719999999999949","-0.91039999643769376","0.94719999999999938","SIDE","1.7326488864814789e-16","-0.66870036706759839","0.18220225572830748","0.72086209297699622","215.50785608953271","-56.472165382989942","21.848758493486887","0.009244575","0.000041132","36"
"37","fruittea","0.0","-0.54539999213964119","0.94719999999999915","-0.4353999901745465","0.94719999999999949","-0.98540000000000016","0.94719999999999949","SIDE","7.9741515340435957e-17","0.68480546509969431","-0.21548189733786582","0.6961386549310884","-214.95786938274574","68.853665657086282","109.20558868939011","0.007687556","0.000035416","37"
"38","fruittea","0.0","-0.91439999662769045","0.94719999999999938","-0.8893999954402525","0.94719999999999938","-0.55439999256711614","0.94719999999999949","SIDE","1.174459636342748e-16","0.66242706724057387","-0.24194854377515748","0.70897904253379229","-211.20797613318152","85.003896479684883","48.835144138960061","0.009042990","0.000071503","38"
"39","fruittea","0.0","-0.89739999582022645","0.94719999999999616","-0.78439999697227081","0.94720000000000026","-0.65539999410472849","0.94719999999999938","SIDE","0.70516394326317089","0.15101035922898573","0.69277679271686621","-3.9360457778355774e-17","-192.52225986081007","24.30020335825245","64.032494766397818","0.009757391","0.000052343","39"
"40","fruittea","0.0","-0.79839999437760856","1.3322000085076371","-0.64839999377224478","1.225200006685037","-0.98540000000000016","1.1922000051176089","SIDE","0.70728524308216223","-0.18947593762978243","-0.68106273865006117","-7.8484814682906282e-17","150.80250237106529","-47.411368836064121","83.071888604139318","0.018981617","0.000314017","40"
"41","fruittea","0.0","-0.92339999705516096","0.94719999999999938","-0.91039999643768954","0.94719999999999949","-0.55939999280460206","0.94719999999999949","SIDE","3.9673350662939304e-17","0.68104488505136729","-0.21618093269369187","0.69960250777499022","-208.38555189567185","70.537658582210838","53.898029230059038","0.006177042","0.000035987","41"
"42","fruittea","0.0","-0.98539999999999994","1.2072000058300789","-0.91839999681766737","1.281200006085264","-0.7863999938076407","1.2802000060377641","SIDE","0.70379673436812795","0.21348589793277267","0.67756470397785362","1.5774768060296837e-16","-163.75509899886967","38.803332307504412","64.4335249725697","0.018363580","0.000349525","42"
"43","fruittea","0.0","-0.98540000000000016","1.2132000061150701","-0.9253999971501482","1.293200006655234","-0.78839999390263182","1.2832000061802531","SIDE","1.1831076045222633e-16","0.67756470397785395","-0.2134858979327727","0.70379673436812773","-158.93662778297582","53.763524591696388","64.432590941173686","0.016556339","0.000232883","43"
"44","fruittea","0.0","-0.89539999572524076","0.94719999999999949","-0.85139999689497492","0.94719999999999971","-0.56339999299459609","0.94719999999999938","SIDE","0.71038529694181696","-0.20665064087345847","-0.67279138112454706","-3.9071157208793131e-17","214.80841520769121","-80.986013650759205","47.930547367517562","0.001126749","0.000039735","44"
"45","fruittea","0.0","-0.98540000000000016","1.139200005859885","-0.90139999601021548","1.250200004612843","-0.76939999625980993","1.244200007587478","SIDE","0.71038529694181662","-0.20665064087345858","-0.67279138112454751","-3.9071157208793144e-17","147.69592480330797","-60.79189062756911","61.842569221945908","0.019903619","0.000252617","45"
"46","fruittea","0.0","-0.67139999486468682","0.94719999999999827","-0.59239999111238983","0.9472000000000006","-0.88339999841488992","0.94719999999999949","SIDE","0.70728524308216212","-0.1894759376297824","-0.68106273865006139","-1.1772722202435947e-16","174.80107659164236","-54.087923130070159","83.059313284764457","0.007500129","0.000056995","46"
"47","fruittea","0.0","-0.98539999999999994","0.94719999999999949","-0.90839999634270108","0.94719999999999971","-0.56439999304209054","0.94719999999999949","SIDE","0.71038529694181696","-0.20665064087345847","-0.67279138112454706","3.9071157208793131e-17","190.99738935359892","-73.672359090592167","48.162074364453233","0.008725036","0.000050943","47"
"48","fruittea","0.0","-0.97439999947752964","0.94719999999999915","-0.7753999965447943","0.94720000000000026","-0.64939999381974678","0.94719999999999938","SIDE","0.7123308957274076","-0.2541110720589575","-0.6542264577722583","-1.1689332492290349e-16","161.97094104976961","-89.021722455034705","60.734844985677057","0.007873860","0.000038785","48"
"49","fruittea","-1.110223024625157e-16","-0.71239999355244987","0.94719999999999394","-0.66939999476969148","0.94719999999999949","-0.76239999592732943","0.94719999999999938","SIDE","0.50416540748709615","-0.38083389827189285","0.58872746301983703","0.50416540748709648","-38.921903233387837","-191.56451817866892","47.248936307805351","0.006992787","0.000043130","49"
"50","fruittea","0.0","-0.78639999380764936","1.4002000084778179","-0.49739998985977429","0.94719999999999949","-0.98539999999999994","1.11520000471994","SIDE","0.53408962297285278","-0.34864026872968956","0.55492928584236878","0.53408962297285312","-34.48248061934153","-162.36049902529203","11.609316248098319","0.012912962","0.000200971","50"
"51","fruittea","0.0","-0.45439999107699858","0.9472000000000016","-0.63339999305978867","1.188200004927632","-0.98540000000000016","1.1572000034552059","SIDE","0.71007166647939113","-0.18654190284176439","-0.67897006336609145","-7.817682897627484e-17","154.05020581647341","-39.759150728060732","81.967962069414938","0.011508699","0.000145587","51"
"52","fruittea","0.0","-0.66539999457970256","0.94719999999999849","-0.65439999405722704","0.94719999999999938","-0.81139999499507853","0.94720000000000126","SIDE","2.3358864500324647e-16","-0.67359133358367074","0.19493283371290421","0.71293471346374304","170.94433677435995","-54.876274527833608","47.225835091415426","0.006989062","0.000042206","52"
"53","fruittea","0.0","-0.96239999890756089","1.3692000070054029","-0.98539999999999994","1.395200008240344","-0.82539999566003208","1.3142000076526741","SIDE","0.49528311344123221","-0.40159715294665038","0.59000762861598965","0.49528311344123221","-31.13911074984442","-170.57990454146162","65.678647389051093","0.019539147","0.000274808","53"
"54","fruittea","0.0","-0.98540000000000028","1.0802000030575309","-0.73939999483488006","0.94719999999999938","-0.7433999950248783","1.314200007652671","SIDE","3.5243806070586023e-16","-0.69017853282074548","0.14590406493714694","0.70877753679713917","159.2132179152776","-11.373727918248431","62.487150474909726","0.017358278","0.000219127","54"
"55","fruittea","1.0469999999999999","-0.70699999629519972","1.570796326794897","-0.58399999697227045","1.0469999999999999","-0.63399999608751612","1.5707963267948959","SIDE","0.66889141042956013","-0.31086994131116974","-0.092349562512754585","-0.66889141042956024","-56.399487255131589","-84.256057382657815","-77.455942388802256","0.014949286","0.000153167","55"
"56","fruittea","0.0","-0.98539999999999994","0.94719999999999915","-0.92739999724514999","0.94719999999999949","-0.56239999294709309","0.94719999999999949","SIDE","1.174459636342748e-16","0.66242706724057387","-0.24194854377515743","0.70897904253379229","-187.81016718256581","76.457950694720637","48.967231045671333","0.006704564","0.000064791","56"
"57","fruittea","0.0","-0.92439999710265908","0.94719999999999938","-0.78639999380764158","0.94719999999999949","-0.6593999942947194","0.94719999999999938","SIDE","1.1831076045222633e-16","0.67756470397785395","-0.21348589793277276","0.70379673436812773","-182.35557464128794","66.649422724655466","64.677400555765104","0.007285032","0.000030241","57"
"58","fruittea","0.0","-0.82439999561254107","0.94719999999999571","-0.78339999692477291","0.94719999999999949","-0.66139999438971675","0.94720000000000215","SIDE","0.4952831134412321","-0.40159715294665033","0.59000762861598965","0.49528311344123227","-35.788140124708214","-195.04775719860669","66.146421073532736","0.006902845","0.000043685","58"
"59","fruittea","0.0","0.27560002077873541","0.94719999999999793","-0.98540000000000016","1.405200008715314","-0.83339999604001991","1.387200007860363","SIDE","0.70877753679713895","-0.14590406493714689","-0.6901785328207457","-1.1747935356862013e-16","155.70088347122388","-10.631218772516938","62.504135460020038","0.016472189","0.000229363","59"
"60","fruittea","0.0","-0.52739999128468507","0.94719999999999815","-0.42839998984206218","0.94719999999999949","-0.98540000000000016","0.94720000000000004","SIDE","0.70953981708898084","-0.19056984764161525","-0.67840723841597328","0.0","212.19982858161279","-64.998592067989065","101.74667671470058","0.007335019","0.000038962","60"
"61","fruittea","0.0","-0.90739999629519341","0.94719999999999938","-0.77939999673478111","0.94719999999999949","-0.67139999486469182","0.94719999999999938","SIDE","0.71038529694181662","-0.20665064087345858","-0.67279138112454739","0.0","171.50695065740027","-68.105545187736155","61.611042225010237","0.007752883","0.000043607","61"
"62","fruittea","0.0","-0.58539999077991445","0.94719999999999793","-0.4893999894797777","0.94719999999999915","-0.98540000000000028","0.94720000000000037","SIDE","3.4824879424376526e-16","-0.66945397305458687","0.19314929065011585","0.71730379162721947","196.06105616784899","-62.134617997839243","24.444632539787669","0.006939046","0.000032294","62"
"63","fruittea","0.0","-0.88939999544025139","0.94719999999999882","-0.78639999380763581","0.94719999999999949","-0.67339999495968428","0.94719999999999971","SIDE","1.1831076045222633e-16","0.67756470397785384","-0.21348589793277276","0.70379673436812784","-182.69418287343498","61.249013359629281","64.665258147606821","0.006784916","0.000048561","63"
"64","fruittea","0.0","-0.74739999521486478","0.94719999999999704","-0.77939999673478411","0.94720000000000026","-0.65439999405723326","0.94719999999999938","SIDE","0.49916494838249403","0.59838412054388657","0.37895270535189907","-0.49916494838249414","29.057820418214583","187.67465619257661","63.674838553667847","0.006039688","0.000047401","64"
"65","fruittea","0.0","-0.89239999558274585","0.94719999999999427","-0.78239999687727579","0.94720000000000004","-0.6773999951496732","0.94719999999999949","SIDE","1.3787744752958724e-16","-0.68846788089634725","0.17202044418604062","0.70457146107128843","176.43017776476989","-42.046266676228683","64.302183064274047","0.007546001","0.000046372","65"
"66","fruittea","0.0","1.032600030657272","1.570796326794897","-0.43639999022204612","0.94720000000000093","-0.98540000000000016","0.94719999999999938","SIDE","0.71367368702926115","-0.1569954078274442","-0.68265826762967918","-5.8336693898224628e-17","223.43515844696432","-28.509322271139141","99.331613851411021","0.000172647","0.000000794","66"
"67","fruittea","0.0","-0.86939999774992449","0.94719999999999815","-0.77839999668728521","0.94719999999999938","-0.66939999476969314","0.94720000000000126","SIDE","0.70379673436812806","0.21348589793277267","0.67756470397785351","1.9718460075371046e-16","-187.51265408932883","46.288821075437312","64.66619217900282","0.006701120","0.000032351","67"
"68","fruittea","0.0","0.12560001691374831","0.94719999999999938","-0.78739999385513726","0.94719999999999938","-0.67039999481718993","0.94719999999999949","SIDE","0.70877753679713895","-0.14590406493714692","-0.69017853282074582","-1.1747935356862013e-16","180.07198254609216","-15.78328052598299","62.386281434009383","0.006304322","0.000028071","68"
"69","fruittea","0.0","-0.98539999999999994","0.94719999999999915","-0.93339999753013692","0.94719999999999938","-0.55939999280460562","0.94719999999999949","SIDE","0.0","0.68104488505136729","-0.21618093269369187","0.69960250777499022","-184.64827934891687","63.002845780004705","53.372112813912324","0.006885567","0.000038543","69"
"70","fruittea","0.0","1.03260003065728","1.570796326794897","-0.98539999999999983","0.94719999999999949","-0.40339998865463572","0.94719999999999971","SIDE","0.71196759432776136","-0.14699634949464385","-0.68665436564722171","-1.1695297301488423e-16","224.66103012379705","-25.827579970590104","27.043381490606446","0.000000412","0.000000002","70"
"71","fruittea","1.0469999999999999","-0.78500000000000048","1.046999999999999","-0.36399999304208752","1.0469999999999999","-0.48899999246002668","1.0469999999999999","SIDE","2.3461814505834548e-16","0.28914949402895052","0.64231416638356842","0.70980636920626694","-117.15412353490217","-230.88750322720631","28.204796454098854","0.000003721","0.000023682","71"
"72","fruittea","0.0","-0.67639999510217763","0.94719999999999882","-0.65239999396223458","0.94719999999999993","-0.77239999640229995","0.94719999999999938","SIDE","0.49916494838249398","0.59838412054388668","0.37895270535189912","-0.49916494838249426","28.575877515575996","185.57346047719392","50.408044054085941","0.005707313","0.000045641","72"
"73","fruittea","0.0","-0.40639998879712352","0.94719999999999938","-0.44739999074451969","0.94719999999999938","-0.98540000000000016","0.94719999999999949","SIDE","-1.9794451802966568e-17","0.7007934693948461","-0.13173668277113587","0.70109482929628841","-227.60402912238536","26.325651709843072","106.49592892531786","0.007216124","0.000046799","73"
"74","fruittea","0.0","-0.70439999317249091","0.94719999999999938","-0.77839999668728754","0.94719999999999938","-0.69839999288748655","0.94719999999999993","SIDE","0.71038529694181696","-0.20665064087345847","-0.67279138112454706","3.9071157208793131e-17","168.68458423423124","-56.860317775291755","61.666809469825175","0.004034216","0.000065160","74"
"75","fruittea","0.0","-0.98540000000000016","1.4882000093979759","-0.75439999554734771","1.526200011202888","-0.93039999738764223","1.345200009125088","SIDE","0.70772212171472337","-0.21929607549599975","-0.67159409594461383","-3.9218182905432696e-17","135.69992029252009","-71.018092812127463","82.913250456244086","0.008723317","0.000202078","75"
"76","fruittea","0.0","-0.87139999784491906","1.481200009065498","-0.85739999717995807","1.404200008667827","-0.98540000000000016","1.409200008905314","SIDE","0.49916494838249403","0.59838412054388657","0.37895270535189907","-0.49916494838249414","23.118969808472645","161.26865957619","50.324908991006048","0.019471286","0.000462575","76"
"77","fruittea","1.0469999999999999","-0.46099999438971162","1.0469999999999999","-0.42199999253731207","1.0469999999999999","-0.7850000000000007","1.0469999999999999","SIDE","0.50358893233595514","0.62020497666594909","0.32884975501930219","-0.50358893233595525","57.425320932233319","238.23385978808304","26.772019362442858","0.000016983","0.000031016","77"
"78","fruittea","0.0","-0.86539999755993524","0.94719999999999949","-0.90139999601020759","0.94719999999999938","-0.51139999052472518","0.9472000000000016","SIDE","1.5635365795254968e-16","-0.67897006336609134","0.18654190284176445","0.71007166647939113","221.55628520191416","-58.30593678150931","81.379630015136598","0.003939952","0.000054008","78"
"79","fruittea","0.0","-0.7383999947873936","1.387200007860363","-0.81239999504256821","1.3942000081928441","-0.98540000000000016","1.3502000061029571","SIDE","2.7252008583712078e-16","-0.67359133358367063","0.19493283371290412","0.71293471346374293","147.01944535034468","-47.952570719554949","47.638140711477945","0.016832534","0.000227581","79"
"80","fruittea","0.0","-0.93639999767262572","0.94719999999999815","-0.98539999999999994","0.94720000000000004","-0.5113999905247304","0.94719999999999971","SIDE","1.5635365795254968e-16","-0.67897006336609145","0.18654190284176439","0.71007166647939102","197.53719611550429","-51.70687325212235","81.588962273100975","0.007399133","0.000039878","80"
"81","fruittea","0.0","-0.36239998996686179","0.94719999999999915","-0.32039998797196811","0.94719999999999949","-0.98540000000000016","1.570796326794897","TOP","0.016320713051333702","0.11457757241049056","0.99328022945491823","-4.3661482040389818e-19","-30.556859677120251","-9.871340813915376","231.13992355496802","0.000269217","0.000065057","81"
"82","fruittea","1.0469999999999999","-0.59299999414013116","1.046999999999997","-0.43799999329726291","1.046999999999997","-0.78500000000000103","1.0469999999999999","SIDE","0.7130586188624789","0.17014126569941992","0.6801465693305625","-2.5301039315588476e-16","-244.27118772433167","42.312467017922529","26.219215632793166","0.000083832","0.000083993","82"
"83","fruittea","1.046999999999999","-0.48399999548215528","1.0469999999999999","-0.41299999210983229","1.046999999999999","-0.78500000000000059","1.0469999999999999","SIDE","0.5340896229728529","-0.34864026872968956","0.55492928584236867","0.53408962297285312","-51.714135967164196","-237.83712577497005","0.58257644298005906","0.000703718","0.000028406","83"
"84","fruittea","0.0","-0.38439999101180677","0.94719999999999882","-0.63139999296479388","1.1732000042151649","-0.98539999999999994","1.133200005574897","SIDE","1.1858067396917073e-16","0.67922590459904708","-0.21348232246207219","0.70219475113233798","-165.5000270079191","39.33765315381563","85.085561429573502","0.014495640","0.000215158","84"
"85","fruittea","1.047000000000001","-0.78500000000000125","1.046999999999999","-0.46299999448470452","1.0469999999999999","-0.52599999421741983","1.0469999999999999","SIDE","0.49663392617994429","0.63296269941867001","0.32568037687097073","0.4966339261799444","-235.75506353624826","79.905885673261864","32.822363770553821","0.000348701","0.000070499","85"
"86","fruittea","3.3306690738754701e-16","-0.60439999168236314","0.94719999999999882","-0.57939999375455142","0.94719999999999938","-0.78139999682977845","0.94719999999999938","SIDE","0.50230075289931519","0.30582944854598976","-0.6339213324030184","0.50230075289931508","64.30443322942314","169.54768121263243","81.73608714079927","0.005462540","0.000048056","86"
"87","fruittea","0.0","-0.83439999608751803","1.5402000118678469","-0.81439999513756123","1.5242000111078851","-0.98539999999999994","1.368200006957913","SIDE","0.50230075289931508","0.30582944854598976","-0.63392133240301851","0.50230075289931519","56.094057359396864","146.03077172667795","81.965861600430372","0.001919640","0.000234804","87"
"88","fruittea","1.0469999999999999","-0.7850000000000007","1.046999999999999","-0.52099999397993257","1.0469999999999999","-0.31999999095220483","1.0469999999999999","SIDE","0.71218229797049437","0.67108303649182077","-0.20601925296045356","-4.6767085946489771e-16","58.100247993344368","240.43235383693326","26.738882682881901","0.000041822","0.000029185","88"
"89","fruittea","0.0","0.48160002404395919","0.94719999999999815","-0.98540000000000016","1.0742000027725449","-0.55839999275710683","1.084200003247513","SIDE","0.70872099142101341","-0.15375979950215632","-0.68852921533967781","-9.7907272225625397e-17","161.91208985569904","-13.611917886457141","49.235208886900551","0.012600828","0.000114127","89"
"90","fruittea","1.0469999999999999","-0.78500000000000048","1.046999999999999","-0.43699999324977712","1.0469999999999999","-0.56199999592732797","1.0469999999999999","SIDE","0.49728837303984158","0.63947782031569089","0.31060693070675","0.49728837303984141","-232.72055294707653","88.875856623381566","32.251236753638544","0.000020177","0.000060729","90"
"91","fruittea","1.0469999999999999","-0.28099999235943002","1.0469999999999999","-0.52199999402743436","1.046999999999999","-0.78500000000000092","1.0469999999999999","SIDE","0.50108382455946043","0.63466417693298216","0.30827160759257011","-0.5010838245594611","85.475824839067798","231.89437767624042","28.935022892262381","0.000018628","0.000041922","91"
"92","fruittea","1.0469999999999999","-0.52799999431241418","1.046999999999999","-0.47999999529216347","1.046999999999999","-0.7850000000000007","1.0469999999999999","SIDE","0.71005715287765159","0.19442169983761079","0.67677104125364096","0.0","-240.7625807087968","57.213384314028765","28.066188380038678","0.000182865","0.000052647","92"
"93","fruittea","0.0","1.0326000306572689","1.5707963267948959","-0.98539999999999905","1.507200010300441","0.042600016231086127","0.94720000000000004","SIDE","-0.49333993586515185","-0.36296495256373751","0.6176470339696768","0.4933399358651524","151.83221511966121","-15.820210500338112","126.62409694941016","0.008869782","0.000017329","93"
"94","fruittea","0.0","1.032600030657278","1.5707963267948959","-0.76139999587982721","0.94720000000000126","-0.15739998674914221","0.94720000000000026","SIDE","-0.49333993586515185","-0.36296495256373751","0.6176470339696768","0.4933399358651524","175.93388833709201","-22.079836514172115","127.28328606270198","0.000210327","0.000000332","94"
"95","fruittea","1.046999999999999","-0.78500000000000036","1.0469999999999999","-0.47699999514967167","1.0469999999999999","-0.54699999521486375","1.0469999999999999","SIDE","0.50672818396233632","0.33106979238866557","-0.61387774656212368","-0.50672818396233665","222.54683177710737","-80.374325398970626","23.98434933278449","0.000060891","0.000061188","95"
"96","fruittea","0.0","-0.80639999475758617","0.94719999999999915","-0.98539999999999961","1.095200003769996","-0.6063999917773607","1.1542000033127111","SIDE","0.71293471346374282","-0.19493283371290418","-0.67359133358367085","-3.8931440833874416e-17","151.53357577631286","-49.258929919573823","47.560347198799931","0.012722970","0.000193898","96"
"97","fruittea","1.0469999999999999","-0.27499999207444598","1.046999999999999","-0.52099999397992891","1.0469999999999999","-0.78500000000000103","1.0469999999999999","SIDE","0.50190889699515351","-0.24972513469747532","0.65864427070653564","0.50190889699515395","-117.56452455767075","-227.85153949027372","28.224686880522331","0.000017703","0.000024308","97"
"98","fruittea","0.0","-0.44139999045952599","0.94719999999999793","-0.48839998943227841","0.94719999999999949","-0.98540000000000016","0.94719999999999938","SIDE","0.0","-0.66817881265764212","0.19997542216954653","0.71662187019622503","198.4137214713233","-73.151664592847311","24.667113341653614","0.007659717","0.000037063","98"
"99","fruittea","1.0469999999999999","-0.28899998947977568","1.0469999999999959","-0.51599999374244487","1.0469999999999999","-0.7850000000000007","1.046999999999999","SIDE","0.5019088969951534","-0.24972513469747543","0.65864427070653564","0.50190889699515395","-115.96373057604271","-228.24317468148982","28.226981929725007","0.000043477","0.000028994","99"
"100","fruittea","1.0469999999999999","-0.78500000000000103","1.0469999999999999","-0.38099999384954669","1.0469999999999999","-0.44799999377224681","1.046999999999999","SIDE","5.9086376247156984e-17","-0.14349627409733642","-0.69492543434178433","0.7046186628418698","38.276485961587014","245.67132945416139","104.67746526291501","0.001796852","0.000032572","100"
"101","fruittea","3.3306690738754701e-16","-0.60839999187235638","0.94719999999999827","-0.78239999687727557","0.94719999999999949","-0.64539999362975631","0.94720000000000448","SIDE","0.50072062249628868","-0.66329348526581733","-0.24207327158896144","-0.5007206224962889","-96.119634230885211","-174.06361590299537","62.68436065948535","0.003935215","0.000058613","101"
"102","fruittea","0.0","-0.90439999615270517","0.94719999999999793","-0.98539999999999994","0.94720000000000037","-0.51139999052472696","0.94719999999999971","SIDE","0.70219475113233842","0.21348232246207219","0.67922590459904664","-3.9526891323056886e-17","-204.70522420631514","51.65994017765118","85.654593524554215","0.007927656","0.000038790","102"
"103","fruittea","1.0469999999999999","-0.53099999445490975","1.046999999999997","-0.52799999431241729","1.0469999999999999","-0.78500000000000092","1.0469999999999999","SIDE","0.71338849276972638","-0.21924914377643651","-0.66558746332622387","3.8906676932603807e-17","221.8459535284907","-89.028937983621319","79.237264659917884","0.000053665","0.000039868","103"
"104","fruittea","0.0","-0.43139998998455148","0.94719999999999782","-0.47739999216943868","0.94719999999999949","-0.98539999999999994","0.94720000000000037","SIDE","0.70234643393827589","0.21728141401222983","0.67786301998193776","-1.185550645996509e-16","-213.09295693269362","72.641800714847619","32.502992200822767","0.006540853","0.000032387","104"
"105","fruittea","1.0469999999999999","-0.78500000000000103","1.0469999999999999","-0.5219999940274338","1.046999999999999","-0.48099999533966142","1.0469999999999999","SIDE","0.50721037523042889","0.33679827083910635","-0.6099526172392431","-0.50721037523042933","225.25733022500333","-70.55825853287898","23.561528982181436","0.000155389","0.000069653","105"
"106","fruittea","0.0","-0.85339999698996527","0.94719999999999882","-0.98540000000000016","0.94719999999999949","-0.49339998966977522","0.94719999999999827","SIDE","0.49890830824250398","0.5845375941218186","0.40062051993311698","-0.49890830824250432","27.581246683553289","211.2295873890549","83.93831058270564","0.007759287","0.000039597","106"
"107","fruittea","1.0469999999999999","-0.4559999941522298","1.046999999999999","-0.5239999941224277","1.0469999999999999","-0.78500000000000147","1.0469999999999999","SIDE","3.4824879424376526e-16","-0.66945397305458687","0.1931492906501158","0.71730379162721947","225.35337060563398","-70.585967878314037","23.558624036102639","0.000018022","0.000054541","107"
"108","fruittea","0.0","-0.83939999632500628","0.94719999999999616","-0.91239999653268344","0.94719999999999949","-0.51239999057222574","0.94719999999999938","SIDE","0.7021947511323382","0.21348232246207219","0.67922590459904675","0.0","-228.46681666273659","59.128265382338959","85.999474042997235","0.005251612","0.000042250","108"
"109","fruittea","0.0","-0.80539999471008783","0.94719999999999793","-0.9113999964851881","0.94719999999999949","-0.49039998952728248","0.94719999999999915","SIDE","0.49890830824250398","0.5845375941218186","0.40062051993311693","-0.49890830824250432","32.152618104431816","235.71629514853544","84.046967999377927","0.006245690","0.000037880","109"
"110","fruittea","1.0469999999999999","-0.31299999061971651","1.046999999999999","-0.46299999448470802","1.0469999999999999","-0.78500000000000092","1.0469999999999999","SIDE","-0.4982406346460837","-0.38991929855285251","0.59285367553131285","-0.4982406346460837","38.256263929769844","245.5733979619844","104.67676275487591","0.000293688","0.000040034","110"
"111","fruittea","1.0469999999999999","-0.7850000000000007","1.0469999999999999","-0.47599999510217539","1.0469999999999999","-0.30599999028724062","1.0469999999999999","SIDE","0.70778728802034785","-0.6518628919437216","0.27223505472949105","1.1764371620713951e-16","-111.53185953569066","-233.57859288408147","102.72014612258251","0.000012354","0.000020292","111"
"112","fruittea","1.046999999999999","-0.78500000000000092","1.0469999999999999","-0.54799999526236842","1.0469999999999999","-0.52799999431240885","1.047000000000003","SIDE","0.50209649049600991","-0.6120093805036767","-0.34819929155396928","0.50209649049601013","229.74263907659684","-60.555075751716402","81.308283931407672","0.000061687","0.000055307","112"
"113","fruittea","-2.2204460492503131e-16","-0.86439999751244045","0.94719999999999582","-0.98540000000000016","0.94720000000000126","-0.48639998933729001","0.94720000000000204","SIDE","0.50097845820550546","-0.38473338176737354","0.59162605907947385","0.50097845820550591","-44.482122822370144","-219.90987624337197","82.413206988602667","0.007512911","0.000040666","113"
"114","fruittea","0.0","-0.94139999791011619","0.9471999999999986","-0.98540000000000016","0.94720000000000026","-0.39539998827464767","0.94719999999999949","SIDE","0.71434778552110534","-0.26143886479684503","-0.64912014396013751","-3.8854429422471939e-17","199.54089893006937","-106.57119326985783","25.676985450486093","0.000331587","0.000062849","114"
"115","fruittea","1.0469999999999999","-0.72699999724514397","1.046999999999995","-0.31899999090470332","1.0469999999999999","-0.67599999808240796","1.0469999999999999","SIDE","0.50498830884057067","-0.59075522431882954","-0.3754755395610872","0.50498830884057133","178.86933347946729","-17.236994272515126","79.961483940148142","0.008105552","0.000027648","115"
"116","fruittea","0.0","-0.98540000000000016","1.5707963267948959","-0.46739999169446339","0.94719999999999882","-0.41439998917710308","0.94719999999999915","TOP","-0.030970595261195968","-0.44911630873358122","0.89239911793314608","0.030970595261196263","24.143439547240067","-13.593067026034353","245.76451929544535","0.015347777","0.000103583","116"
"117","fruittea","1.0469999999999999","-0.72199999700766537","1.2060000042924619","-0.12299998811445639","1.0469999999999999","-0.78500000000000092","1.4200000079376689","SIDE","0.50498830884057078","-0.59075522431882943","-0.37547553956108731","0.50498830884057133","154.56039985248734","-11.820876546145998","80.460998397570634","0.011595724","0.000119219","117"
"118","fruittea","1.047000000000001","-0.78499999999999936","1.046999999999999","-0.49499999274499018","1.0469999999999999","-0.27999999231193301","1.0469999999999999","SIDE","0.70765897269101263","-0.65168963241910949","0.27298241952064672","7.8443365199151963e-17","-114.70232033172825","-232.24127131838273","102.79970918801656","0.000025896","0.000026030","118"
"119","fruittea","1.046999999999999","-0.78500000000000103","1.570796326794897","-0.41099999201482768","1.0469999999999999","-0.4549999941047278","1.0469999999999999","TOP","-0.030970595261195971","-0.4491163087335811","0.89239911793314608","0.030970595261196263","23.794440289494624","-13.477745675043559","241.58063354563251","0.007143033","0.000085182","119"
"120","fruittea","1.0469999999999999","-0.56999999630730402","1.0469999999999999","-0.49199999260250837","1.0469999999999999","-0.7850000000000007","1.0469999999999999","SIDE","1.5810756529222767e-16","0.67922590459904719","-0.21348232246207222","0.70219475113233787","-232.18715784716406","82.27329689685665","86.144708760219345","0.000107821","0.000060012","120"
"121","fruittea","1.0469999999999999","-0.49499999274499279","1.1860000033425191","-0.41399999215732702","1.0469999999999999","-0.78500000000000036","1.570796326794897","TOP","1.6639436945817461e-16","-0.17097931891026921","0.98519781056061817","0.012302299441354473","-5.4893779830276985","-12.786255714994255","230.09702376376495","0.009202743","0.000117748","121"
"122","fruittea","1.0469999999999999","-0.39099999106488947","1.046999999999999","-0.56499999606982254","1.0469999999999999","-0.78500000000000103","1.046999999999999","SIDE","0.0","-0.66817881265764223","0.19997542216954659","0.71662187019622503","222.64259809315345","-80.402986752965461","23.981639951647271","0.000038096","0.000044774","122"
"123","fruittea","0.0","-0.55039999237712545","0.9471999999999986","-0.98540000000000016","1.402200008572831","-0.82839999580253665","1.361200006625426","SIDE","0.7045714610712881","-0.17202044418604076","-0.68846788089634758","-1.1818066931107484e-16","149.83837594025414","-35.402044500453002","64.105979199867804","0.016335641","0.000206074","123"
"124","fruittea","1.0469999999999999","-0.78500000000000092","1.046999999999999","-0.59099999404512649","1.0469999999999999","-0.46799999472219872","1.0469999999999999","SIDE","0.50012619161657268","-0.61556380128263788","-0.34760436054324106","0.50012619161657279","226.81565073769104","-68.558704817924365","83.032057503814968","0.000076224","0.000050181","124"
"125","fruittea","1.0469999999999999","-0.78500000000000048","1.0469999999999999","-0.5569999956898366","1.0469999999999999","-0.40699999182483793","1.0470000000000039","SIDE","0.5020862278298005","0.61602629494612049","0.34107249021613983","0.50208622782980061","-240.37814378984541","57.102943892222036","28.069533308528982","0.000002377","0.000062195","125"
"126","fruittea","1.0469999999999999","-0.78500000000000048","1.0469999999999999","-0.45999999434221273","1.0469999999999999","-0.58799999390265401","1.0469999999999999","SIDE","0.50132388869479039","0.63949012728895116","0.29732321528570255","0.50132388869479028","-226.41514349472723","90.55824680748519","48.749295600711257","0.013815557","0.000074663","126"
"127","fruittea","0.0","-0.47839999221693869","0.94719999999999915","-0.59039999101739871","0.94720000000000026","-0.89439999567773043","0.94719999999999938","SIDE","0.71007166647939113","-0.18654190284176439","-0.67897006336609134","-7.817682897627484e-17","178.06929490288326","-46.358214257447912","81.758629811450547","0.007826702","0.000046003","127"
"128","fruittea","1.0469999999999999","-0.40799999187235242","1.046999999999997","-0.78500000000000014","1.570796326794897","-0.51799999383744821","1.201000004054972","TOP","-0.012302299441354499","0.98519781056061817","0.17097931891026941","-8.3637381473685681e-17","-5.4557229618261376","-12.980178894783199","238.09460239179049","0.011049930","0.000112833","128"
"129","fruittea","1.0469999999999999","-0.50999999345746083","1.046999999999997","-0.442999993534758","1.0469999999999999","-0.78500000000000048","1.046999999999999","SIDE","7.9741515340435957e-17","0.68480546509969431","-0.21548189733786582","0.69613865493108851","-234.40802712331984","74.973880969400611","109.83354038848955","0.000020076","0.000035816","129"
"130","fruittea","0.0","1.0326000306572729","1.570796326794897","-0.61339999210983631","0.9471999999999986","-0.229399986909334","0.94720000000000204","SIDE","0.47789837220036313","0.65002890822747872","0.3474028067892927","0.47789837220036291","-172.81552990126704","32.427662197075826","135.9022544280335","0.000185558","0.000000361","130"
"131","fruittea","0.0","-0.14439998613166449","0.94719999999999438","-0.90939999639018676","0.94719999999999827","-0.52139999099970469","0.94720000000000149","SIDE","2.7452728033802871e-16","-0.6715940959446135","0.21929607549599972","0.70772212171472371","209.09605574757961","-94.98418268554822","82.778812161128585","0.006030477","0.000041004","131"
"132","fruittea","0.0","-0.98540000000000016","1.5432000120103331","-0.75039999535735558","0.94719999999999949","-0.68339999543465657","1.570796326794897","SIDE","0.9695238108383154","-0.071153595181391055","-0.23443708347937006","-1.3956174114918767e-16","60.208947119444623","-24.268093453279612","-88.893117743355418","0.012864324","0.000122808","132"
"133","fruittea","0.0","-0.46539999159947237","1.0172000033248141","1.098600033792112","1.570796326794897","-0.98539999999999994","1.5707963267948959","SIDE","0.70705241982705747","0.012349713339550756","-0.0011116716399055789","0.70705241982705802","12.166295414617931","19.53110611862726","-120.0129596384955","0.003991954","0.000059215","133"
"134","fruittea","0.0","-0.14839998632166421","0.94719999999999405","-0.98539999999999994","0.94720000000000004","-0.52439999114219493","0.94719999999999949","SIDE","3.1374546324346137e-16","-0.6715940959446135","0.21929607549599978","0.70772212171472371","185.41651018166107","-87.252084616951265","82.822185531066566","0.005976492","0.000027689","134"
"135","fruittea","0.0","1.0326000306572769","1.570796326794897","-0.55939999280459962","1.071200002630053","-0.25739998823926491","0.94719999999999993","SIDE","-0.48986288876998751","-0.34869429404560687","0.63125350669274005","0.48986288876998785","156.44634431844051","-42.367451935891857","128.88551512438173","0.009106116","0.000021341","135"
"136","fruittea","1.0469999999999999","-0.47399999500717749","1.0469999999999999","-0.5839999969722699","1.0469999999999999","-0.7850000000000007","1.046999999999999","SIDE","0.70728524308216223","-0.18947593762978235","-0.68106273865006117","-3.9242407341453141e-17","226.43028621391829","-68.451493983550222","83.03225943589392","0.000160391","0.000039608","136"
"137","fruittea","0.0","-0.75339999549985137","0.94719999999999882","-0.59639999130237908","0.95320000028498264","-0.49839998990726397","0.9472000000000016","TOP","-0.16591320183185446","0.85170355959085342","0.46855807056977927","0.16591320183185457","-44.290784266014064","-89.364872772823404","244.19045020286268","0.003678881","0.000061251","137"
"138","fruittea","1.0469999999999999","-0.39099999106489458","1.0469999999999999","-0.62199999551753893","1.0469999999999999","-0.78500000000000103","1.0469999999999999","SIDE","1.1858067396917073e-16","0.67922590459904708","-0.21348232246207216","0.70219475113233787","-239.99944077825609","62.752996658924836","86.166860862345288","0.000060899","0.000064523","138"
"139","fruittea","1.0469999999999999","-0.78500000000000036","1.046999999999999","-0.62199999551754792","1.0469999999999999","-0.38999999101740968","1.0470000000000039","SIDE","0.50444184085792387","-0.625673965124388","-0.31560885245706272","0.50444184085792421","221.08623758145887","-88.778682262052882","79.251541687394578","0.000065850","0.000043058","139"
"140","fruittea","1.0469999999999999","-0.6369999962300148","1.046999999999997","-0.43299999305978948","1.0469999999999999","-0.78500000000000036","1.0469999999999999","SIDE","0.70772212171472337","-0.21929607549599975","-0.67159409594461383","-7.8436365810865391e-17","200.05581233947296","-92.032265876126246","82.79537100177447","0.011918426","0.000039225","140"
"141","fruittea","0.0","-0.8123999950425681","1.449200007545576","-0.98539999999999961","1.4262000097127661","-0.88839999539275027","1.4432000105202161","SIDE","0.71038529694181696","-0.20665064087345847","-0.67279138112454706","0.0","144.87355838013897","-49.546663215124511","61.898336466760831","0.016941450","0.000228190","141"
"142","fruittea","0.0","-0.6623999944372112","0.94719999999999793","-0.78239999687727624","0.94719999999999971","-0.68839999241251815","0.94720000000000126","SIDE","3.5164041487913823e-16","-0.67279138112454717","0.20665064087345855","0.71038529694181685","169.16252536911404","-57.007119361335633","61.662162199423989","0.008976711","0.000048786","142"
"143","fruittea","0.0","-0.98539999999999994","1.5707963267948959","-0.45639999117199281","1.026200003752294","-0.3743999905368311","0.94720000000000149","SIDE","0.99999458542782083","0.0022252384416967539","-0.0024243409245486309","-4.4408907330356227e-16","-5.363001018614086","-9.7479536608180943","-116.03662270549445","0.011677859","0.000069418","143"
"144","fruittea","0.0","-0.53839999180715925","0.94719999999999849","-0.78339999692477247","0.94719999999999971","-0.65339999400973403","0.94720000000000004","SIDE","0.50072062249628868","-0.66329348526581733","-0.24207327158896144","-0.5007206224962889","-93.957340506612098","-174.84903023899133","62.68493757295569","0.010215426","0.000056824","144"
"145","fruittea","0.0","0.0076000178283121191","0.94719999999999949","-0.98540000000000016","0.94719999999999949","-0.41439998917709858","0.94719999999999949","SIDE","0.29977787926625049","-0.38192461109878612","0.82121862962447445","0.29977787926625049","-63.209405277317344","-122.37486560682561","204.93149900333199","0.002525793","0.000057863","145"
"146","fruittea","1.0469999999999999","-0.78500000000000048","1.0469999999999999","-0.53299999454989888","1.046999999999999","-0.31899999090470188","1.0469999999999999","SIDE","3.85842799294979e-16","0.14586836288468302","0.63892015931161084","0.75531678833094151","-51.603959136916814","-237.35453862212785","0.6530798981143211","0.000060390","0.000035489","146"
"147","fruittea","0.0","-0.90139999601022003","0.94719999999999938","-0.98540000000000028","0.94719999999999949","-0.41539998922458821","0.94720000000000004","SIDE","0.7166218701962247","-0.19997542216954653","-0.66817881265764234","7.7462262233299987e-17","209.33108047490515","-76.419058641209489","24.358243920964757","0.001809452","0.000054537","147"
"148","fruittea","0.0","-0.47839999221693641","1.0932000036749989","-0.352399989491886","0.94719999999999938","-0.98539999999999994","1.570796326794897","TOP","5.5495542739950759e-17","0.84007996165275556","0.54245084097788188","0.0035697551587719483","-6.6321277362131852","16.791592812300276","243.87268783780493","0.008502849","0.000138220","148"
"149","fruittea","0.0","1.032600030657272","1.5707963267948959","-0.54439999209214063","1.046200004702232","-0.26539998861923858","0.94720000000000126","SIDE","0.48238795583664762","0.64631819588486872","0.34187206641609291","0.48238795583664762","-165.54666187088696","39.073054036810717","132.99699259133521","0.007531687","0.000018182","149"
"150","fruittea","1.0469999999999999","-0.78500000000000014","1.0469999999999999","-0.62599999570753051","1.0469999999999999","-0.41299999210984151","1.0469999999999999","SIDE","0.49652667023927638","-0.32933044522316873","0.63124004097593744","-0.49652667023927649","-234.50772638660814","76.557452014638841","86.151631292135036","0.000077941","0.000055145","150"
"151","fruittea","1.0469999999999999","-0.59499999423510841","1.046999999999995","-0.46199999443720863","1.046999999999999","-0.78500000000000092","1.0469999999999999","SIDE","0.70603758922547522","0.16824575612152079","0.68789845773033764","-3.9311753423889003e-17","-241.16951087168886","40.383257873860465","50.526628021948426","0.014128706","0.000066662","151"
"152","fruittea","0.0","-0.38839998794216363","0.94719999999999882","-0.29739998687952768","0.94719999999999949","-0.98539999999999994","1.570796326794897","SIDE","0.9999862070818385","-0.0035728368634917475","-0.0038497380203339213","-2.3592225865746285e-16","14.956189551785858","-3.5725267295462149","-114.46827282141756","0.000146831","0.000055879","152"
"153","fruittea","1.0469999999999999","-0.78500000000000125","1.0469999999999999","-0.43999999339226947","1.0469999999999999","-0.52499999416993492","1.047000000000001","SIDE","0.50172041618548102","-0.61445959024704666","-0.34495312713290011","0.50172041618548124","229.61729937690404","-61.785993390225535","101.63706999540432","0.000171844","0.000067661","153"
"154","fruittea","1.046999999999999","-0.78500000000000103","1.0469999999999999","-0.45499999410472908","1.0469999999999999","-0.45699999419972398","1.0469999999999999","SIDE","0.70849053005098928","-0.69039038149831145","0.14629521510522597","3.9175647998613868e-17","-50.783968347658529","-249.64928729122565","82.29411005266472","0.004895386","0.000019187","154"
"155","fruittea","1.0469999999999999","-0.78500000000000103","1.570796326794897","-0.43599999320227728","1.0469999999999999","-0.41399999215733257","1.0469999999999999","SIDE","0.99999458542782083","0.0022252384416967543","-0.0024243409245486305","-4.4408992034109586e-16","-5.3634858842038753","-9.7483987061244814","-115.93662486507742","0.007511523","0.000042530","155"
"156","fruittea","1.0469999999999999","-0.78500000000000081","1.0469999999999999","-0.45599999415222442","1.0469999999999999","-0.46099999438971162","1.0469999999999999","SIDE","-5.900730277277977e-17","-0.13004901033482011","-0.69661198298919513","0.70556289589716603","33.69231332095864","243.96372536906301","84.083565179806982","0.008103526","0.000029952","156"
"157","fruittea","0.0","1.032600030657278","1.570796326794897","-0.47339999197943411","1.174200004262667","-0.30839998740199959","0.98420000175740829","SIDE","-0.48930261938223707","-0.35377513954918194","0.62929249476560556","0.48930261938223751","149.09322632287103","-47.311659769206031","128.958240541599","0.014552879","0.000031534","157"
"158","fruittea","0.0","-0.21839998638685709","0.94719999999999949","-0.69139999255501472","1.299200006940215","-0.98539999999999994","1.215200006210047","SIDE","0.0","0.69895821727966545","-0.16228639318573304","0.69650594906576191","-166.48067493754894","20.567764866710323","87.200672962445381","0.013784679","0.000164918","158"
"159","fruittea","1.0469999999999999","-0.78500000000000025","1.0469999999999999","-0.51399999364745474","1.0469999999999999","-0.54499999511987152","1.0469999999999999","SIDE","0.49469367738281","0.63443445998317693","0.32870845304129226","0.49469367738281","-231.91318241645047","78.005925684273336","54.419300875718243","0.006485182","0.000055145","159"
"160","fruittea","0.0","1.032600030657272","1.570796326794897","-0.98539999999999994","1.570796326794897","-0.021399983549123518","1.206200005782581","SIDE","0.47789837220036313","0.65002890822747872","0.34740280678929264","0.47789837220036291","-149.15358180936568","25.248500961597504","133.75650130821975","0.005986460","0.000011028","160"
"161","fruittea","0.0","1.0326000306572749","1.570796326794897","-0.98539999999999961","1.5707963267948959","-0.04239998454656338","0.94719999999999949","SIDE","-3.916741026474357e-17","-0.23079439910950575","-0.66675628746147519","0.70863954057777001","51.163026498923102","132.67414693309101","9.3902885791196358","0.000210160","0.000000939","161"
"162","fruittea","0.0","-0.59839999139738687","1.1342000056223911","-0.58639999082740057","0.94719999999999938","-0.77239999640229817","0.94719999999999938","SIDE","0.50048119099682387","-0.65343592457319344","-0.2684374180213655","-0.50048119099682398","-83.442310861878482","-166.27683578515715","82.86050968204006","0.001417336","0.000088739","162"
"163","fruittea","0.0","1.032600030657276","1.570796326794897","-0.48939998947977331","1.051200001680104","-0.25539998814426329","0.94719999999999949","SIDE","0.70461203487465163","-0.66159834951891605","0.25653363175936433","-7.8782576061354256e-17","-76.378017389717385","-157.81351702400138","10.841761038181687","0.008663691","0.000012895","163"
"164","fruittea","0.0","-0.98539999999999994","1.570796326794897","1.0986000337921149","1.570796326794897","-0.50639999028723981","1.1142000046724381","SIDE","0.70693399180621819","-0.011119706392752556","0.01910535494540969","-0.70693399180621852","-32.254758326685639","-1.401622455909415","-118.59382843861965","0.004430131","0.000029613","164"
"165","fruittea","1.0469999999999999","-0.7850000000000007","1.0469999999999999","-0.50099999302998122","1.0469999999999999","-0.55899999578483561","1.0469999999999999","SIDE","0.50231826072277763","0.32961127841886179","-0.6218594174151989","-0.50231826072277797","219.00473821080237","-82.274931526689357","47.88974433496233","0.008242104","0.000038198","165"
"166","fruittea","1.0469999999999999","-0.38499999077989949","1.0469999999999999","-0.46899999476969267","1.0970000023748709","-0.78500000000000103","1.570796326794897","SIDE","0.70710295250584221","0.0032877490995368843","-0.00014078671577571052","-0.70710295250584243","-5.3581523627175258","-9.7435032077557953","-117.03660110966256","0.010167369","0.000123074","166"
"167","fruittea","0.0","-0.74039999488238617","1.38820000790786","-0.98539999999999928","1.4172000092852861","-0.86839999770242948","1.421200009475281","SIDE","3.5164041487913823e-16","-0.67279138112454717","0.20665064087345855","0.71038529694181685","145.35149951502194","-49.693464801168588","61.893689196359666","0.017812127","0.000383174","167"
"168","fruittea","1.0469999999999999","-0.70299999610521902","1.046999999999993","-0.34499999213963589","1.0469999999999999","-0.78500000000000125","1.046999999999999","SIDE","1.1748872667075047e-16","-0.68852921533967781","0.15375979950215637","0.70872099142101341","192.84971195932761","-20.520793306334532","49.090311756372202","0.013147724","0.000036230","168"
"169","fruittea","0.0","1.03260003065727","1.570796326794897","-0.67639999510217486","0.94719999999999915","-0.18939998500943461","0.94720000000000604","SIDE","0.51122399365123739","-0.62016152781407496","-0.30446631348947445","0.51122399365123772","152.00521010263657","-78.876456895645703","3.0451778313851308","0.000573061","0.000000738","169"
"170","fruittea","1.046999999999999","-0.78500000000000036","1.570796326794897","-0.35499999261461029","1.0469999999999999","-0.51599999374245575","1.138000004322256","SIDE","0.70693399180621819","-0.011119706392752556","0.019105354945409686","-0.70693399180621852","-32.233391202087979","-1.4072677826699214","-118.0943170699076","0.003835569","0.000086703","170"
"171","fruittea","1.0469999999999999","-0.78500000000000092","1.570796326794897","-0.33699999175965739","1.0469999999999999","-0.51799999383744411","1.1330000040847801","SIDE","0.70709702812058339","-0.0052485530342179223","-0.00019579868572147657","0.70709702812058317","14.994686403396917","-3.6082546076121531","-119.46799727692868","0.007416403","0.000153725","171"
"172","fruittea","0.0","1.03260003065728","1.570796326794897","-0.47239999193195098","1.2992000069402201","-0.38139999086931498","1.2082000058775839","SIDE","0.48238795583664762","0.64631819588486872","0.34187206641609286","0.48238795583664762","-153.46303351054291","44.750982479047515","132.31183891261722","0.014367612","0.000032447","172"
"173","fruittea","1.0469999999999999","-0.78500000000000059","1.0469999999999999","-0.5689999962598089","1.0469999999999999","-0.311999990572222","1.0469999999999999","SIDE","0.70778728802034796","-0.6518628919437216","0.27223505472949094","7.8429144138093021e-17","-110.95380596634773","-232.15271197721646","82.723034658012239","0.000181234","0.000032150","173"
"174","fruittea","1.0469999999999999","-0.78500000000000103","1.0469999999999999","-0.48299999543465588","1.0469999999999999","-0.46699999467469588","1.0470000000000019","SIDE","0.50172041618548091","-0.61445959024704666","-0.34495312713289999","0.50172041618548135","227.60325156040398","-69.325532884657875","101.63638064495447","0.000009781","0.000038760","174"
"175","fruittea","1.0469999999999999","-0.78500000000000025","1.0469999999999999","-0.68099999831989477","1.0469999999999999","-0.30499999023974961","1.0470000000000079","SIDE","0.50043511146021236","-0.6299544815181034","-0.31982299737646647","0.50043511146021225","217.35680483692533","-97.681570686557606","82.76368110528685","0.000055197","0.000083183","175"
"176","fruittea","0.0","1.0326000306572769","1.5707963267948959","-0.50039999000224611","1.000200002517359","-0.24039998743180349","0.94719999999999949","SIDE","-3.916741026474357e-17","-0.23079439910950575","-0.66675628746147519","0.7086395405777699","59.311089339915696","156.21359221783274","9.2821792553305951","0.010496962","0.000030188","176"
"177","fruittea","1.0469999999999999","-0.36199999294709673","1.0469999999999979","-0.664999997559934","1.0469999999999999","-0.78500000000000092","1.0469999999999999","SIDE","0.0","0.69895821727966545","-0.16228639318573304","0.69650594906576191","-242.90302250766899","38.311754191580768","89.536451074634897","0.000472035","0.000052271","177"
"178","fruittea","1.0469999999999979","-0.76599999909755134","1.570796326794897","-0.48499999227002588","1.0710000011399421","-0.43099999296478991","1.0469999999999999","SIDE","0.94595530438435249","-0.28511924546057171","0.15451724167581221","-9.5359284241766253e-17","-53.388459545362778","-78.700030499439166","-69.322415363840278","0.009167293","0.000156066","178"
"179","fruittea","0.0","-0.31439998768698563","0.94719999999999793","-0.76039999583232731","1.301200007035209","-0.98540000000000016","1.2892000064652469","SIDE","0.69960250777499033","0.21618093269369199","0.6810448850513674","-1.9836675331469657e-16","-158.15706389012931","54.593861597355584","52.785180803673356","0.016110638","0.000202195","179"
"180","fruittea","0.0","-0.87339999793991474","1.4422000104727191","-0.98540000000000016","1.3982000083828381","-0.79939999442510323","1.285200006275248","SIDE","0.49916494838249403","0.59838412054388668","0.37895270535189918","-0.49916494838249426","23.600912711111238","163.36985529157266","63.591703490587946","0.021984142","0.000272503","180"
"181","fruittea","1.0469999999999999","-0.6309999959450211","1.0469999999999999","-0.36799999323207783","1.046999999999999","-0.7850000000000007","1.0469999999999999","SIDE","0.71180984788638568","-0.22296711365721111","-0.66604234601062184","0.0","201.26653585729522","-93.901934114339682","100.46614284333199","0.002103974","0.000038787","181"
"182","fruittea","0.0","1.0326000306572729","1.5707963267948959","-0.15439998660665219","1.4332000100452451","-0.90539999620020795","1.5707963267948959","SIDE","0.68914419715993436","0.69555380886465579","-0.20318753528368655","-1.2082627582157888e-16","42.971613922943384","124.22261048405315","128.31792031014814","0.008457362","0.000012644","182"
"183","fruittea","1.0469999999999999","-0.77699999962002175","1.570796326794897","-0.30799999038223053","1.0469999999999999","-0.7850000000000007","1.570796326794897","TOP","-1.5017414572507618e-16","0.85480451113928646","-0.51703083359183355","-0.04459108488542432","22.915451806211326","-8.1012917202272465","240.89545148400333","0.000024527","0.000047772","183"
"184","fruittea","0.0","1.032600030657274","1.570796326794897","-0.25139998795427432","0.94719999999999949","-0.40139998855963471","1.0132000031348301","SIDE","0.68914419715993436","0.69555380886465579","-0.20318753528368655","-1.2082627582157888e-16","49.947684874784848","148.10317340681655","129.56741963659414","0.006814049","0.000014260","184"
"185","fruittea","1.0469999999999999","-0.78500000000000059","1.570796326794897","-0.39699999134987568","1.0469999999999999","-0.44899999381974087","1.0469999999999999","TOP","-0.0086990393591690491","0.57573941681344409","0.81754068850166139","0.0086990393591691844","-5.4397368261035153","-13.0722924089382","241.89345239489415","0.005371002","0.000032726","185"
"186","fruittea","0.0","-0.98540000000000028","1.570796326794897","1.0986000337920969","1.570796326794897","-0.53439999161716856","1.17320000421516","SIDE","0.70709702812058339","-0.0052485530342179223","-0.00019579868572147657","0.70709702812058317","14.988526907138544","-3.602538147121408","-118.66804136404673","0.005901687","0.000028652","186"
"187","fruittea","1.0469999999999999","-0.61599999523256721","1.4040000071777079","-0.78500000000000048","1.5707963267948959","-0.38199999389704392","1.046999999999999","TOP","0.0029701788914004434","0.24570281100234725","0.96933610514632684","0.0029701788914002483","-6.6998017376505627","-3.2133421395450652","233.28615394107013","0.004679202","0.000093423","187"
"188","fruittea","0.0","-0.43839999031703852","0.94719999999999949","-0.59139999106488739","0.94719999999999949","-0.90139999601021326","0.94719999999999915","SIDE","1.1858067396917073e-16","0.67922590459904708","-0.21348232246207222","0.70219475113233798","-189.26161946433925","46.80597835850331","85.430441948016295","0.008067849","0.000036046","188"
"189","fruittea","0.0","-0.37639999063182611","1.570796326794897","-0.28939998649954818","0.94719999999999938","-0.7193999938849357","1.570796326794897","SIDE","2.9362322892782343e-16","0.31062777943420272","0.85075074425417652","0.42394994255777546","-56.598535448270255","-104.26894334360537","188.85412281820123","0.000216046","0.000044257","189"
"190","fruittea","0.0","-0.79239999409262618","1.2852000062752551","-0.98540000000000016","1.4002000084778261","-0.80339999461509426","1.317200007795166","SIDE","-0.49923346266229057","-0.32030024739838742","0.63161669629053563","-0.49923346266229046","55.81574245674625","153.31164581566836","63.553290594390617","0.020297214","0.000246164","190"
"191","fruittea","0.0","1.032600030657278","1.570796326794897","-0.27939998928420001","0.94719999999999938","-0.5043999901922519","1.1272000052899109","SIDE","-0.48930261938223707","-0.35377513954918194","0.62929249476560556","0.48930261938223751","147.98844082927707","-57.917658432903082","129.03443776234624","0.007817796","0.000012969","191"
"192","fruittea","0.0","0.34960002103392329","0.94719999999999938","-0.27039998885672401","0.94719999999999949","-0.34739998925439852","0.94719999999999949","SIDE","3.9847432719314964e-17","-0.19337654669403656","-0.69096235804384531","0.6965461441679065","28.905453911626129","156.42051870617956","13.71574995158409","0.002629489","0.000006512","192"
"193","fruittea","0.0","-0.59839999139737876","1.0142000031823259","-0.35939998982436872","0.94719999999999882","-0.43439999012704289","0.94719999999999938","SIDE","0.49652667023927632","-0.32933044522316857","0.63124004097593733","-0.49652667023927655","-169.61132593123151","40.629844215055499","85.145233646696255","0.005912257","0.000054788","193"
"194","fruittea","1.0469999999999999","-0.40999999196733861","1.0610000006649629","-0.7850000000000007","1.570796326794897","-0.31699999080971297","1.0469999999999999","SIDE","0.70687888814331656","-0.013602229257828011","0.021434886371367121","-0.70687888814331734","-11.414722491396132","18.473830140467371","-110.37779186987788","0.007140934","0.000076222","194"
"195","fruittea","0.0","-0.98540000000000028","1.5707963267948959","-0.50939999042972173","1.570796326794897","-0.70839999336246173","1.5707963267948959","SIDE","0.49652667023927632","-0.32933044522316873","0.63124004097593744","-0.49652667023927655","-145.84973347481093","33.161519010367712","84.800353128253448","0.000114117","0.000021497","195"
"196","fruittea","0.0","0.53060002311169829","0.94719999999999793","-0.32239998806696057","1.5707963267948959","-0.98540000000000016","1.570796326794897","SIDE","0.48593448713518356","0.63811690226521012","0.34719183093613321","0.48593448713518356","-134.73301757631273","50.01385995988614","129.57035213532023","0.000036979","0.000015447","196"
"197","fruittea","0.0","1.032600030657276","1.5707963267948959","-0.98539999999999961","1.5707963267948959","-0.0093999829791466816","0.9471999999999986","SIDE","0.70461203487465152","-0.66159834951891605","0.25653363175936422","-3.9391288030677128e-17","-67.372719378501543","-134.58891968646785","10.666300961147435","0.000008301","0.000000015","197"
"198","fruittea","0.0","0.20160002052354559","0.94719999999999827","-0.6083999918723566","0.99720000237487127","-0.22939998690932989","0.94719999999999882","SIDE","0.51152364166358133","-0.32112780575768751","0.61119887140578821","-0.51152364166358122","-164.61008326273333","60.603111946486095","3.0703795985160838","0.011615724","0.000043859","198"
"199","fruittea","0.0","-0.27739998918920622","0.94719999999999938","-0.47939999226443331","1.1452000061448691","-0.98540000000000016","1.570796326794897","TOP","-0.031530658502948346","0.97003407493076022","0.238842057900122","-0.031530658502948422","23.037425127476389","-8.1750676153537185","242.48908881591922","0.002837118","0.000078376","199"
"200","fruittea","0.0","0.28160002106372162","0.94719999999999405","-0.98539999999999983","1.570796326794897","-0.26339998852424218","1.570796326794897","SIDE","0.51152364166358133","-0.32112780575768751","0.61119887140578821","-0.51152364166358122","-138.44048504193529","45.826250641974958","4.4416427251889399","0.006944852","0.000019137","200"
"201","fruittea","0.0","-0.98539999999999994","1.570796326794897","-0.68539999227003112","1.5707963267948959","-0.38239999091681048","1.510200010442929","SIDE","0.50012619161657279","-0.61556380128263788","-0.34760436054324106","0.50012619161657279","137.70010887676997","-43.76620055473024","83.078754294627345","0.012805100","0.000086411","201"
"202","fruittea","0.0","-0.66639999462720212","0.94719999999999949","-0.47439999202694649","0.94719999999999949","-0.36039998987186389","0.94719999999999993","SIDE","0.50012619161657257","-0.61556380128263777","-0.34760436054324106","0.50012619161657279","161.69868309734613","-50.442754848736513","83.066178975252484","0.000101237","0.000013571","202"
"203","fruittea","1.0469999999999999","-0.78500000000000081","1.046999999999999","-0.46299999448470652","1.0469999999999999","-0.44999999386724238","1.0469999999999999","SIDE","0.0","0.20156645086939384","0.8618687082634624","-0.46535287213058774","24.666802798308066","162.21409165975251","215.59083105595874","0.004005874","0.000037461","203"
"204","fruittea","1.0469999999999999","-0.78500000000000025","1.046999999999999","-0.51399999364744919","1.0469999999999999","-0.4239999926323022","1.0469999999999999","SIDE","0.49224436354785472","-0.33186187733505301","0.63659929899614964","-0.49224436354785461","-234.50337104034776","75.003882026907789","109.8366185833053","0.000077589","0.000044280","204"
"205","fruittea","0.0","-0.59239999111239783","1.0062000028023499","-0.36739999020434638","0.94719999999999949","-0.41139998903460429","0.94720000000000182","SIDE","0.50209649049600991","-0.61200938050367659","-0.34819929155396928","0.50209649049600991","159.17029178607092","-41.165855722897604","81.923339263232592","0.006653955","0.000081549","205"
"206","fruittea","0.0","0.11360001960341209","0.94719999999999793","-0.59339999115988584","0.94719999999999949","-0.88139999831989502","0.94719999999999949","SIDE","0.71416131520218873","-0.15222572494390169","-0.68322832533054689","5.8296861699455674e-17","185.21249166938935","-18.65027270096364","79.831140944843355","0.004367287","0.000024331","206"
"207","fruittea","0.0","-0.98540000000000016","1.570796326794897","-0.56239999294709531","1.5707963267948959","-0.68539999227002235","1.570796326794897","SIDE","0.50209649049601002","-0.61200938050367659","-0.34819929155396939","0.50209649049601013","135.15120269966104","-34.566792193510594","82.132671521196968","0.001558267","0.000019839","207"
"208","fruittea","0.0","0.29260002158619097","0.94719999999999427","-0.98540000000000028","1.570796326794897","-0.27539998909421087","1.570796326794897","SIDE","0.51009483651009513","-0.6056416740013093","-0.33586407703767629","0.51009483651009535","126.82794055942115","-47.334379655997644","5.0944185048665673","0.010197052","0.000017439","208"
"209","fruittea","0.0","0.23960001906882811","0.94719999999999915","-0.63839999329727271","1.18620000483263","-0.98539999999999994","1.1892000049751199","SIDE","0.71416131520218873","-0.15222572494390169","-0.68322832533054689","7.7729148932607569e-17","160.90355804240849","-13.234154974594347","80.330655402265847","0.013415540","0.000176627","209"
"210","fruittea","0.0","-0.86639999760743458","0.94719999999999949","-0.98540000000000016","0.94720000000000004","-0.41039998898711211","0.94719999999999938","SIDE","3.9518354866550305e-17","0.6778630199819381","-0.21728141401222983","0.70234643393827567","-223.09094470718011","75.846543940070077","32.643891416660473","0.000101109","0.000038841","210"
"211","fruittea","1.0469999999999999","-0.70699999629520405","1.0469999999999879","-0.34199999199714859","1.046999999999999","-0.77399999947752907","1.0469999999999999","SIDE","9.7907272225625397e-17","-0.68852921533967781","0.15375979950215637","0.70872099142101341","217.1606318457595","-25.949818079969987","48.976450952195485","0.010312657","0.000040474","211"
"212","fruittea","0.0","0.54460002377665906","0.94719999999999949","-0.26339998852424262","0.94720000000000126","-0.5403999919021556","1.0922000036274999","SIDE","0.48593448713518367","0.63811690226521012","0.34719183093613321","0.4859344871351835","-158.58660908430488","57.056939531879621","130.9521271938703","0.008639933","0.000025371","212"
"213","fruittea","0.0","0.23660001892633989","0.94719999999999782","-0.55339999251961769","1.0812000031050339","-0.25339998804927188","0.94720000000000337","SIDE","0.51009483651009513","-0.60564167400130919","-0.33586407703767618","0.51009483651009546","150.75435536691242","-54.190217428201073","4.0784151086445943","0.009105731","0.000024261","213"
"214","fruittea","1.0469999999999999","-0.78500000000000092","1.046999999999999","-0.44399999358225228","1.0469999999999999","-0.45599999415222581","1.046999999999999","SIDE","-0.46826033993956151","0.85500533992706973","-0.2229307577161177","-1.1361860577734804e-16","-39.809638398622248","-167.35970032049207","214.26192893167857","0.011849604","0.000031531","214"
"215","fruittea","1.0469999999999999","-0.78500000000000103","1.0469999999999999","-0.37999999380204869","1.0469999999999999","-0.66999999779742903","1.0469999999999999","SIDE","0.50369400681753707","0.2829243024949456","-0.64229162694989061","-0.50369400681753784","204.43859328344499","-105.59872541305494","46.796299162344816","0.012097591","0.000067603","215"
"216","fruittea","0.0","-0.27439998904671309","0.94719999999999704","-0.79539999423511853","1.3612000066254291","-0.98540000000000016","1.307200007320195","SIDE","3.5164041487913823e-16","-0.67279138112454717","0.20665064087345855","0.71038529694181685","144.54151331307887","-59.40324562474526","48.613789025366103","0.015901684","0.000198164","216"
"217","fruittea","0.0","-0.72539999416992229","0.94719999999999915","-0.98539999999999961","1.0742000027725489","-0.53239999152217332","0.94720000000000326","SIDE","-0.49923346266229035","-0.32030024739838742","0.63161669629053552","-0.49923346266229035","58.019592259871622","160.09313230930599","50.315560748644486","0.011276015","0.000117857","217"
"218","fruittea","1.0469999999999999","-0.46699999467469638","1.046999999999999","-0.37599999361205899","1.0469999999999999","-0.73699999772012248","1.0469999999999999","SIDE","-0.49691373846559705","-0.3083244627111964","0.64116261489745352","-0.49691373846559733","84.893940072513729","227.68701426128277","105.77677020903553","0.000809965","0.000016664","218"
"219","fruittea","0.0","-0.56639999313708844","1.0962000038174931","-0.98540000000000028","1.5707963267948959","-0.55439999256711547","1.29120000656023","TOP","0.0042004672708926038","-0.51168600938156761","0.85916225701428039","5.5524896723401192e-17","-6.7474389930919978","-3.2417131683431131","239.88592112712001","0.010629427","0.000138351","219"
"220","fruittea","0.0","-0.6883999924125187","1.570796326794897","-0.98540000000000016","1.5707963267948959","-0.56539999308959332","1.2962000067977231","TOP","8.3287345085101812e-17","0.85916225701428051","0.51168600938156772","0.0042004672708924598","-6.7459954398246316","-3.2408534401549174","239.68592817221941","0.005133960","0.000050248","220"
"221","fruittea","1.046999999999999","-0.52599999421742372","1.0469999999999979","-0.56499999606981555","1.046999999999999","-0.78500000000000103","1.0469999999999999","SIDE","0.70303380048620512","0.21060978678473452","0.67925473357527022","1.9739858593166977e-16","-236.1354761576664","60.527361114631951","52.337047369456478","0.000909650","0.000047466","221"
"222","fruittea","1.0469999999999999","-0.41199999206234339","1.046999999999999","-0.50499999321997369","1.0469999999999999","-0.78500000000000125","1.046999999999999","SIDE","0.70953981708898084","-0.19056984764161525","-0.67840723841597328","0.0","229.80021502309381","-61.837375811951901","101.63576022958976","0.000026496","0.000050866","222"
"223","fruittea","1.0469999999999999","-0.52399999412242937","1.046999999999999","-0.56099999587982907","1.0469999999999999","-0.78500000000000081","1.0469999999999999","SIDE","1.5543826637447886e-16","-0.67290075459692755","0.1924752623120507","0.71425334991219513","224.25956905771835","-61.480042147976647","45.543171337761123","0.000719636","0.000060040","223"
"224","fruittea","1.0469999999999999","-0.78500000000000136","1.0469999999999999","-0.60999999494758061","1.0469999999999999","-0.48099999533966398","1.0469999999999999","SIDE","0.50412097043350079","0.3384626711311991","-0.61413932831980766","-0.5041209704335009","222.41502928998344","-69.77154922184782","46.338823509352778","0.007282159","0.000056672","224"
"225","fruittea","0.0","0.18760001985858801","0.94719999999999616","-0.55239999247212279","1.081200003105028","-0.2573999882392573","0.94719999999999915","SIDE","0.51152364166358133","-0.32112780575768751","0.61119887140578821","-0.51152364166358122","-162.19999861339215","53.218452956641073","3.280195444064661","0.010864027","0.000036883","225"
"226","fruittea","0.0","0.54060002358667159","0.94719999999999938","-0.061399985449010458","1.354200006292944","-0.98540000000000016","1.570796326794897","SIDE","-0.4975033490968731","-0.33271932911393792","0.62791614353252645","0.49750334909687344","127.1743520219504","-65.949881043251978","124.35209638349181","0.005362422","0.000027675","226"
"227","fruittea","1.0469999999999999","-0.29399998971727259","1.048000000047496","-0.14399998911190071","1.0469999999999999","-0.78500000000000103","1.503000008620331","SIDE","-0.4975033490968731","-0.33271932911393787","0.62791614353252645","0.49750334909687344","137.11507512064938","-69.004598337491203","124.45569776042494","0.008764011","0.000017058","227"
"228","fruittea","0.0","0.53560002334918655","0.94720000000000126","-0.23139998700432499","0.94719999999999915","-0.60839999187234506","1.011200003039838","SIDE","-0.49750334909687322","-0.33271932911393787","0.62791614353252645","0.49750334909687344","150.98429478141196","-73.266516181364153","124.60024159688186","0.010531854","0.000040220","228"
"229","fruittea","0.0","-0.73039999440741821","0.94719999999999949","-0.92539999715016141","0.94719999999999938","-0.57539999356456062","0.94719999999999938","SIDE","0.71293471346374271","-0.19493283371290426","-0.67359133358367096","-3.8931440833874428e-17","175.4584672003281","-56.18263372785237","47.14804157873764","0.006360903","0.000045025","229"
"230","fruittea","2.2204460492503141e-16","0.33860002051144228","0.94719999999999815","-0.98539999999999983","1.5707963267948959","-0.55739999270960594","1.5707963267948959","SIDE","0.51341106554908389","-0.60345566860883104","-0.32963527051481895","0.51341106554908367","124.19381350553338","-42.174895307519392","3.7126657309598983","0.004250490","0.000018009","230"
"231","fruittea","0.0","-0.50739999033474326","0.94719999999999815","-0.30439998721201","0.94719999999999949","-0.41639998927209437","0.94719999999999949","SIDE","0.70602273368749324","0.6731069260088105","-0.22013397210655311","-1.9656290294410234e-16","57.279794793750227","157.83104257583759","50.30826890474583","0.004387675","0.000013927","231"
"232","fruittea","1.0469999999999999","-0.78500000000000036","1.338000007302492","-0.130999988494436","1.046999999999999","-0.29899998995476063","1.0470000000000039","SIDE","1.1934664704852758e-16","-0.69339738539058837","0.1800874268088439","0.69768802816077125","156.66996596697933","-17.07665899580757","126.75641111127872","0.009741981","0.000011849","232"
"233","fruittea","0.0","-0.17439998755659999","0.94720000000000149","-0.9013999960102127","0.94719999999999938","-0.52939999137968163","0.94719999999999938","SIDE","0.50230075289931497","0.63392133240301818","0.30582944854598987","-0.50230075289931542","83.78388814799311","225.3425175767143","81.190937771431493","0.005480616","0.000047342","233"
"234","fruittea","1.0469999999999999","-0.1569999897293711","1.0469999999999979","-0.3299999914271734","1.0469999999999999","-0.43099999296479002","1.0469999999999999","SIDE","0.68914419715993425","0.69555380886465601","-0.20318753528368655","-8.0550850547719246e-17","50.787837992468006","150.9791948134245","129.71790129910809","0.000515287","0.000003284","234"
"235","fruittea","0.0","-0.48239999240692583","0.9472000000000006","-0.21539998624435669","0.94719999999999949","-0.62639999272731273","1.065200002345069","SIDE","0.50369400681753729","0.28292430249494571","-0.64229162694989061","-0.50369400681753773","144.33059501274289","-82.251904601349906","47.752725219376792","0.008912508","0.000063837","235"
"236","fruittea","0.0","-0.98539999999999994","1.570796326794897","-0.67839999519717109","1.3342000086026169","-0.43139998998456153","0.94720000000000204","SIDE","0.68555686116559633","-0.21608524114842309","-0.11545886183129513","0.68555686116559655","61.845452030504219","-24.764786238509348","-92.060948163456061","0.011576881","0.000059864","236"
"237","fruittea","1.0469999999999999","-0.78500000000000114","1.0469999999999999","-0.66399999751243677","1.0469999999999999","-0.41199999206234339","1.047000000000007","SIDE","0.49711996772714589","0.6292292366838742","0.33138201984439641","0.49711996772714573","-237.47258554426165","60.941945377205968","52.353129101505068","0.009143782","0.000040856","237"
"238","fruittea","0.0","0.17960001947861079","0.94719999999999793","-0.49039998952727992","1.1942000052126109","-0.29039998654704863","0.94719999999999915","SIDE","0.71081877144609917","-0.62858804526955836","0.31561644998962574","3.9047330670745515e-17","-88.106431286714525","-149.02817563322165","8.483408818302566","0.009086718","0.000036839","238"
"239","fruittea","0.0","0.33260002022646329","0.94719999999999815","-0.2583999882867542","0.94719999999999815","-0.37839999072682068","0.99620000232737627","SIDE","0.70406496273065178","-0.68342836042713762","0.19292020220536854","0.0","-40.970566948564148","-160.85871225844264","10.989873131766581","0.004667230","0.000014254","239"
"240","fruittea","0.0","-0.66639999462720134","0.94719999999999882","-0.98539999999999994","1.570796326794897","-0.25839998828675997","0.94719999999999949","TOP","-0.23463670020735355","0.93356595162698897","-0.27092477346783744","-1.9324959440430853e-16","-41.339916139077573","-79.196625787564031","223.53607437712571","0.004545326","0.000052176","240"
"241","fruittea","1.0469999999999999","-0.41199999206233362","1.0469999999999999","-0.78500000000000092","1.570796326794897","-0.41499999220482903","1.0469999999999999","SIDE","0.70710295250584221","-0.00014078671577551915","-0.003287749099537135","0.70710295250584243","-5.3659102121545983","-9.7506239326570725","-115.43663566299337","0.003714362","0.000050257","241"
"242","fruittea","1.0469999999999999","-0.30399999019224389","1.0469999999999999","-0.66699999765493123","1.046999999999999","-0.78500000000000048","1.570796326794897","TOP","0.16591320183185471","-0.46855807056977888","0.85170355959085364","0.16591320183185473","-41.060213025725574","-78.232810999232072","221.5783138217995","0.007478488","0.000062578","242"
"243","fruittea","1.0469999999999999","-0.17699999067932409","1.0469999999999999","-0.34399999209214033","1.0469999999999999","-0.64499999660998952","1.0469999999999999","SIDE","-0.4975033490968731","-0.33271932911393787","0.62791614353252645","0.49750334909687338","160.92501788011094","-76.321233475603378","124.70384297381499","0.002308836","0.000004866","243"
"244","fruittea","1.0469999999999999","-0.78500000000000092","1.0469999999999999","-0.38799999092239479","1.0469999999999999","-0.4999999929824927","1.0469999999999999","SIDE","0.70602273368749335","0.67310692600881039","-0.22013397210655311","-1.9656290294410234e-16","79.532771908303658","225.87430221806525","50.527606281405831","0.012745677","0.000023799","244"
"245","fruittea","1.0469999999999999","-0.78500000000000147","1.570796326794897","-0.6249999956600375","1.3390000073499999","-0.37899999375455168","1.046999999999999","TOP","-0.031530658502948096","-0.23884205790012228","0.9700340749307601","0.03153065850294829","22.953568469105875","-8.1243466874542349","241.3934631502263","0.012614257","0.000175548","245"
"246","fruittea","1.0469999999999999","-0.3919999911123821","1.0469999999999979","-0.51199999355245596","1.046999999999997","-0.73299999753013223","1.0469999999999999","SIDE","0.50668085685050013","-0.66045972864544655","-0.224370152738883","-0.50668085685049968","-93.222970787117717","-159.38349035718628","79.267970340557881","0.004153559","0.000042103","246"
"247","fruittea","0.0","0.098600018890934296","0.94719999999999405","-0.49839998990725948","1.1542000033127131","-0.27939998928420351","0.94720000000000182","SIDE","0.51341106554908378","-0.60345566860883082","-0.32963527051481889","0.51341106554908378","148.0605435126208","-49.178711589221606","2.358466240137469","0.010318024","0.000031690","247"
"248","fruittea","1.0469999999999999","-0.42099999248981262","1.0469999999999999","-0.78500000000000036","1.570796326794897","-0.61999999542255835","1.4660000068629171","TOP","0.0042004672708926029","-0.51168600938156761","0.85916225701428039","5.5524896723401192e-17","-6.6947493012188888","-3.2103330908892667","232.58617859888804","0.005375231","0.000096630","248"
"249","fruittea","0.0","-0.74639999516736666","0.94719999999999782","-0.55139999242462778","0.94719999999999949","-0.33739998877942518","0.94719999999999915","SIDE","0.49652667023927649","-0.32933044522316862","0.63124004097593744","-0.49652667023927649","-174.89865625120737","57.822179042650248","85.286453293232029","0.007458819","0.000017228","249"
"250","fruittea","0.0","0.23460001883134041","0.94719999999999849","-0.98539999999999994","1.5707963267948959","-0.035399984214086001","1.3292000083651361","SIDE","0.51152364166358133","-0.32112780575768751","0.61119887140578821","-0.51152364166358122","-140.85056969127729","53.210909631819931","4.2318268796403613","0.008032563","0.000029473","250"
"251","fruittea","0.0","1.032600030657282","1.570796326794897","-0.98539999999999872","1.5707963267948959","0.077600017893492509","0.99220000213739279","SIDE","0.5112239936512375","-0.62016152781407496","-0.30446631348947462","0.51122399365123783","128.45569776780138","-70.835958857749276","4.1760890100508457","0.003145350","0.000006081","251"
"252","fruittea","0.0","0.1936000201435677","0.94719999999998949","-0.41839998936709971","1.33220000850764","-0.47639999212194128","1.373200007195402","SIDE","0.5074703561275794","-0.60356017401153761","-0.34736550152635687","0.50747035612758018","144.43822277648709","-36.919944721815249","5.92664988133218","0.015082908","0.000064887","252"
"253","fruittea","0.0","-0.4773999921694394","1.0642000022975751","-0.26239998847674773","0.94719999999999949","-0.52239999104720247","1.1522000032177191","SIDE","0.49250407972117261","-0.37948428608857332","0.60899190432044958","-0.49250407972117261","-167.65879923910234","20.841305600470928","87.236681238094917","0.012789069","0.000145883","253"
"254","fruittea","1.0469999999999999","-0.39199999111240252","1.0469999999999959","-0.64999999684747123","1.0469999999999999","-0.7850000000000007","1.0469999999999999","SIDE","0.69960250777499033","0.21618093269369193","0.68104488505136729","-1.9836675331469657e-16","-234.39077826039028","78.792377491097582","54.474193800940569","0.000049308","0.000033436","254"
"255","fruittea","0.0","-0.67739999514967331","0.9471999999999986","-0.77939999673478333","0.94719999999999938","-0.64339999353476185","0.94719999999999949","SIDE","-0.49923346266229035","-0.32030024739838731","0.63161669629053563","-0.49923346266229057","63.558746368976401","176.98754423135068","63.629609828299571","0.007132284","0.000026466","255"
"256","fruittea","1.0469999999999999","-0.46099999438971617","1.0469999999999979","-0.6359999961825139","1.046999999999999","-0.7850000000000007","1.0469999999999999","SIDE","2.3358864500324647e-16","-0.67359133358367074","0.19493283371290424","0.71293471346374304","222.99130129922179","-69.938318492990831","46.32889242193945","0.007446673","0.000041853","256"
"257","fruittea","1.0469999999999999","-0.7850000000000007","1.0469999999999999","-0.38199999389704081","1.0469999999999999","-0.51299999359995219","1.0469999999999999","SIDE","2.7363340183037217e-16","0.28690838152357323","0.64306706112035439","0.71003403827813361","-112.73674688630483","-222.97989914249635","48.139353201816135","0.010029996","0.000033274","257"
"258","fruittea","1.0469999999999999","-0.44099999343976298","1.046999999999999","-0.39499999125487439","1.046999999999997","-0.78500000000000092","1.047000000000001","SIDE","0.50048119099682353","-0.65343592457319355","-0.26843741802136539","-0.50048119099682409","-92.417555757954048","-187.80966958936389","102.81566035622215","0.006883324","0.000030400","258"
"259","fruittea","0.0","-0.98539999999999994","1.570796326794897","-0.31839998787697382","1.491200009540478","-0.58439999399203857","1.5707963267948959","SIDE","0.70849053005098916","-0.69039038149831145","0.146295215105226","1.9587823999306928e-17","-27.939778075955552","-141.84392109822804","82.725836450012636","0.009146693","0.000041545","259"
"260","fruittea","1.0469999999999999","-0.47099999486468619","1.046999999999999","-0.45299999400973251","1.046999999999999","-0.7469999981951031","1.0469999999999999","SIDE","0.50230075289931508","0.30582944854598976","-0.63392133240301851","0.50230075289931519","82.168840204457808","220.71654954493459","81.23613628296944","0.011515811","0.000018781","260"
"261","fruittea","0.0","-0.98540000000000028","1.570796326794897","-0.5763999936120584","1.2652000053253041","-0.2053999857693917","0.94719999999999949","SIDE","3.9072519044145649e-17","-0.23199599592757381","-0.66450414983439765","0.71036053714042824","56.588459791090827","147.44688438946781","81.952025321388533","0.010576249","0.000067929","261"
"262","fruittea","0.0","-0.58439999399203901","0.98420000175740197","-0.35439998958688318","0.94719999999999938","-0.44439999060202412","0.94720000000000026","SIDE","0.49469367738280989","0.63443445998317682","0.32870845304129226","0.49469367738281","-165.59937946619229","56.956241460935033","52.950070680043197","0.005417616","0.000055459","262"
"263","fruittea","1.0469999999999999","-0.47299999495968381","1.0469999999999999","-0.42699999277479722","1.046999999999997","-0.78500000000000014","1.0469999999999999","SIDE","0.49916494838249403","0.59838412054388668","0.37895270535189912","-0.49916494838249426","40.359380927907729","238.05661022523162","50.587563729343138","0.010722148","0.000024732","263"
"264","fruittea","0.0","-0.55939999280460251","1.102200004102476","-0.18439998803157409","1.497200009825451","-0.98540000000000016","1.570796326794897","SIDE","-0.46826033993956151","0.85500533992706962","-0.2229307577161177","-9.738737638058406e-17","-27.199370582788617","-118.99559645745406","180.34947204401752","0.007511806","0.000073210","264"
"265","fruittea","1.0469999999999999","-0.48799999241251552","1.046999999999999","-0.41399999215733291","1.0469999999999999","-0.78500000000000103","1.0469999999999999","SIDE","0.50416540748709615","-0.38083389827189285","0.58872746301983703","0.50416540748709648","-49.56878194658281","-241.21878348114348","46.39916715493716","0.011626958","0.000023593","265"
"266","fruittea","0.0","-0.98540000000000016","1.522200011012891","-0.70539999321997693","1.5102000104429201","-0.1573999867491416","1.0422000045122439","SIDE","0.49652667023927638","-0.32933044522316873","0.63124004097593744","-0.49652667023927649","-151.1370637947872","50.353853837962461","84.941572774789236","0.017395826","0.000200506","266"
"267","fruittea","0.0","-0.34139998896940998","0.9471999999999986","-0.47539999207444428","0.94720000000000115","-0.98540000000000016","0.94719999999999949","SIDE","0.703271961563395","0.2325468361773344","0.67181137014990056","-1.5786538996337874e-16","-212.21552424391777","81.778061375317918","32.016505767483082","0.006202587","0.000035738","267"
"268","fruittea","0.0","-0.30539998725950418","0.94719999999999371","-0.46939999178945963","0.94719999999999949","-0.72639999421742474","0.94719999999999971","SIDE","0.703271961563395","0.23254683617733443","0.67181137014990056","-1.5786538996337874e-16","-235.75378535019721","89.925806996473568","32.285959632767806","0.000062834","0.000022991","268"
"269","fruittea","0.0","-0.98540000000000028","1.570796326794897","-0.18039998784158329","0.94719999999999938","-0.62639999272730296","1.570796326794897","SIDE","2.7363340183037217e-16","0.28690838152357323","0.64306706112035439","0.71003403827813361","-74.597277169604354","-137.49533932180879","48.916004585765435","0.000003386","0.000030113","269"
"270","fruittea","0.0","-0.57539999356456151","1.0232000036097979","-0.3283999883519505","0.94719999999999938","-0.45739999121949498","0.94719999999999938","SIDE","0.50231826072277763","0.32961127841886179","-0.62185941741519879","-0.50231826072277785","152.58048233919962","-61.872448036985887","48.535621945606344","0.008119429","0.000063206","270"
"271","fruittea","1.0469999999999999","-0.39199999111238742","1.0469999999999999","-0.78500000000000059","1.5707963267948959","-0.64399999656249085","1.5060000087628169","TOP","8.32873450851018e-17","0.85916225701428039","0.51168600938156772","0.0042004672708924598","-6.6875315348856113","-3.2060344499498408","231.58621382433932","0.007746415","0.000131015","271"
"272","fruittea","0.0","-0.98540000000000016","1.570796326794897","-0.59239999111239328","1.349200006055455","-0.2143999861968694","0.9472000000000016","SIDE","0.70778728802034796","-0.6518628919437216","0.27223505472949094","7.8429144138093021e-17","-76.386204224430244","-149.38109073454655","82.895769068197865","0.010067171","0.000063665","272"
"273","fruittea","1.0469999999999999","-0.78500000000000092","1.0469999999999999","-0.67499999803491118","1.0469999999999999","-0.41799999234732188","1.0469999999999999","SIDE","0.50505338720812099","0.33971212344952184","-0.61191324983254314","-0.50505338720812121","224.64406637621198","-61.590023035543616","45.535045058964585","0.018396320","0.000116322","273"
"274","fruittea","0.0","-0.3833999909643086","0.94719999999999915","-0.98539999999999961","1.570796326794897","-0.41639998927209743","0.94719999999999938","TOP","-0.012302299441354499","0.98519781056061817","0.17097931891026941","-8.2756987984488983e-17","-5.4245920659458884","-13.159557843398506","245.49236292414545","0.009296526","0.000043142","274"
"275","fruittea","0.0","-0.98540000000000016","1.570796326794897","-0.40939998893961171","0.94719999999999938","-0.40839998889212642","0.94719999999999949","TOP","-0.0086990393591690491","0.57573941681344398","0.81754068850166139","0.0086990393591691861","-5.4380961437767077","-13.08174616420188","242.28333436328242","0.007272507","0.000085188","275"
"276","fruittea","0.0","-0.60339999163486902","0.94719999999999849","-0.34639998920690351","0.94719999999999971","-0.38839998794216712","0.94719999999999949","SIDE","2.7363340183037217e-16","0.28690838152357323","0.64306706112035439","0.71003403827813361","-84.709675709025987","-160.16093861553091","48.710081210872502","0.005444835","0.000014252","276"
"277","fruittea","0.0","-0.29939998697452969","0.94719999999999938","-0.98540000000000016","0.94719999999999949","-0.40739998884461498","0.94719999999999827","SIDE","1.1677402761040837e-16","0.68014656933056261","-0.17014126569941984","0.71305861886247868","-231.07961226222039","39.01254396177341","26.449126196634644","0.004458640","0.000031950","277"
"278","fruittea","0.0","-0.56739999318458301","0.96420000080745394","-0.29539998678453211","0.94720000000000004","-0.5033999901447519","1.0092000029448449","SIDE","0.50132388869479039","0.63949012728895116","0.29732321528570266","0.50132388869479017","-160.20432129165687","66.375038109626644","49.123073449486967","0.012455891","0.000118910","278"
"279","fruittea","1.0469999999999999","-0.41099999201483878","1.046999999999997","-0.78500000000000025","1.5707963267948959","-0.39499999125488111","1.0469999999999999","SIDE","2.2204411313301431e-16","-0.0024243409245484349","-0.002225238441696642","0.99999458542782083","-5.3557280347686902","-9.7412779812229786","-117.53659031174617","0.001196315","0.000028403","279"
"280","fruittea","0.0","-0.98540000000000028","1.406200008762813","-0.71939999388493525","1.4282000098077521","-0.14439998613167579","0.94719999999999971","SIDE","0.5044418408579241","-0.62567396512438789","-0.31560885245706266","0.5044418408579241","140.84124456733593","-62.345422953399328","80.759552641510254","0.009750210","0.000083864","280"
