ipa320/cob_manipulation/cob_grasp_generation/common/files/database/salt/salt.csv
"id","object","sdh_knuckle_joint","sdh_finger_12_joint","sdh_finger_13_joint","sdh_finger_22_joint","sdh_finger_23_joint","sdh_thumb_2_joint","sdh_thumb_3_joint","direction","qw","qx","qy","qz","pos-x","pos-y","pos-z","eps_l1","vol_l1"
"0","salt","0.0","-1.3377963222472491","4.0570350850710098e-16","-1.351796322912213","0.0","0.10220370051427489","2.2752888394117341e-16","SIDE","0.70705496133621415","-0.0086070689595294254","-0.0085136163652496499","-0.70705496133621459","1.5727349239622601","128.02051838301972","-165.57673503324619","0.002155354","0.000036463","0"
"1","salt","0.0","-1.2697963222770521","-5.9629840270289619e-15","-1.203796319142223","0.36600000760517398","-0.64679631224391487","1.318000020226485","SIDE","-0.08408572566897872","0.65195155370248969","0.74887806290633996","-0.084085725668978997","52.035527960644124","51.667396127658165","155.45909840772777","0.009498635","0.000074643","1"
"2","salt","0.0","-0.64279631205392362","1.3980000240262589","1.098203715225446","1.5707963267948959","-1.210796319474696","0.74300001247320824","SIDE","-0.47415163112805986","0.52096726482286682","0.52816055360106295","-0.47415163112805997","156.41900155054711","113.6556702014006","32.318241058647587","0.002730564","0.000028290","2"
"3","salt","0.0","1.0322037120906149","1.570796326794897","-0.88079631357942201","1.4500000232364989","-1.170796317574806","1.342000021366403","SIDE","0.53186616223848671","-0.45633779690606469","0.47538677521185474","-0.53186616223848682","-152.5360958172013","52.217882157510772","-41.161919120973543","0.004103497","0.000049333","3"
"4","salt","0.0","-0.94379631657177221","1.546796328914587","1.0982037152254329","1.5707963267948959","-1.1097963179370951","1.2340000194962999","SIDE","-0.4659596393097834","-0.52088338184036009","0.54262669634947214","0.46595963930978362","160.55414519362364","45.816795991529403","0.38728934329480247","0.002840398","0.000016870","4"
"5","salt","0.755","-0.74779631378152578","1.471000024233946","-0.027796302400770322","0.95300001592841443","-1.212796319569694","0.74800001271069161","SIDE","-0.47415163112805986","0.52096726482286693","0.52816055360106295","-0.47415163112805986","156.22002327158424","113.6543059174729","32.298096872831721","0.009623225","0.000102443","5"
"6","salt","0.75499999999999989","-0.054796303683190849","0.76000001328065481","-0.72179631254658927","1.387000023503784","-1.2067963192847071","0.83700001367833454","SIDE","0.52457623916700635","0.47088956749610789","0.47739140527048468","0.52457623916700624","-157.3697201092059","111.50419456594989","0.55086178587362666","0.015923528","0.000126765","6"
"7","salt","0.0","1.0322037120906129","1.570796326794897","-1.570796326794897","1.3200000203214599","-1.15479632007447","1.570796326794897","SIDE","-0.4659596393097834","0.54262669634947203","0.52088338184036032","-0.46595963930978368","136.26214799049507","46.31344247008856","-2.8364241852380871","0.000082804","0.000010122","7"
"8","salt","0.75500000000000045","-0.040796303018234649","-3.6952964296801281e-16","-0.87979631353193422","1.4050000210991129","-1.1707963175748131","1.3420000213664049","SIDE","0.53186616223848682","-0.45633779690606469","0.47538677521185474","-0.53186616223848671","-152.5360958172013","52.217882157510751","-41.161919120973543","0.012937991","0.000117112","8"
"9","salt","0.75500000000000023","-0.32779630687111322","0.85300001443829598","-0.22579630528600439","0.63900001079309732","-0.87579631334194852","1.570796326794897","SIDE","0.7073071202473622","-0.7057424219587568","0.040549617694518751","2.4525745978212873e-16","7.1841360968099135","-105.79173575028089","-0.92796332389133973","0.007963240","0.000123457","9"
"10","salt","0.75499999999999989","-0.71079631202412585","1.570796326794897","-0.93279631604929947","1.570796326794897","-0.39979630703130908","0.93400001502596131","TOP","0.50031921190119377","0.4902043639201828","-0.50898040630140784","0.50031921190119366","3.5674475984630938","250.15560420503601","-0.91939464340971799","0.003080907","0.000047406","10"
"11","salt","0.0","-1.570796326794897","0.4500000083353366","1.098203715225456","1.570796326794897","-0.47979630757147129","1.570796326794897","SIDE","0.52457623916700624","-0.47739140527048479","0.47088956749610766","-0.52457623916700635","-133.78084668454852","111.66593041501832","2.9389548577883309","0.000033112","0.000005093","11"
"12","salt","0.0","-0.38979630655632369","1.0220000159461009","-0.28279630473372419","0.80000001518055897","-0.87579631334194519","1.570796326794897","SIDE","0.7073071202473622","-0.7057424219587568","0.040549617694518751","2.5016260897777134e-16","7.1841360968099082","-105.79173575028094","-0.92796332389133906","0.003630351","0.000058619","12"
"13","salt","0.0","-1.1847963182397661","1.5707963267948959","1.09820371522545","1.5707963267948959","0.014203699594129321","1.3250000205589489","SIDE","0.012106333040551366","0.99991181969086262","-0.0054579797378750509","-5.9799022908901794e-17","1.612471781603718","135.30038301085054","135.02512494790122","0.001704504","0.000002903","13"
"14","salt","0.75499999999999989","-0.72679631278408297","1.570796326794897","-0.89879631443438335","1.5707963267948959","-0.43679630878870612","1.05600001756102","SIDE","0.49968058417610006","-0.49083088035423111","0.50963091986804843","0.49968058417610028","-3.1056847664685887","-104.96141718753948","-0.46573914079593304","0.003289852","0.000050751","14"
"15","salt","0.0","1.0322037120906149","1.570796326794897","-0.50579630880640347","1.149000018718652","0.01120369945163629","0.1320000030100292","SIDE","0.9999267156648588","-0.012106152691712125","6.6080963134436995e-05","7.4120814779382506e-21","1.5729727979664212","128.0640973336476","-163.77726287470404","0.006552007","0.000010889","15"
"16","salt","0.75500000000000012","-0.15079630498332039","0.18800000566988589","-0.45179630950116562","5.8724544904241255e-16","-0.41279630764876579","1.140000018291176","SIDE","-1.2259082805820759e-17","0.99053612119105494","0.068537391934783171","-0.1189151736430535","52.506687089447723","51.699996673141897","157.40253525490311","0.010571446","0.000040498","16"
"17","salt","0.0","1.032203712090614","1.570796326794897","-1.0527963184893641","1.570796326794897","-0.13779630436584969","1.4820000247564149","SIDE","1.3687904178535793e-16","0.0054579797378749339","0.99991181969086262","-0.012106333040551236","1.612511427276796","135.30764617060407","135.32503702863508","0.000033748","0.000007450","17"
"18","salt","0.75500000000000067","-0.94379631657177365","1.4730000243289461","-0.011796301640806131","0.75000001280568407","-1.1107963179845839","1.236000019591303","SIDE","-0.46595963930978357","-0.5208833818403602","0.54262669634947225","0.46595963930978368","160.4550346329527","45.818822293053223","0.37413669666031801","0.006872196","0.000061170","18"
"19","salt","0.75500000000000089","-0.27979630459123289","0.86000001477077703","-0.38679630641383411","1.014000015566124","0.1172037012267339","-3.2665908125483908e-14","SIDE","-0.0085604701882764367","-0.70318505380775909","0.71090380277621978","-0.0085604701882764731","1.615776909147381","135.90588839132607","160.02779385788736","0.008371178","0.000020452","19"
"20","salt","0.75500000000000034","-0.7247963126890814","1.296000022441139","0.0052036991666494486","0.035000001662407937","-1.156796320169466","1.252000020351248","SIDE","0.084085725668978734","0.74887806290634018","-0.65195155370248947","-0.0840857256689789","52.930730305371213","51.729337164075801","159.15162841736219","0.014975604","0.000106374","20"
"21","salt","0.75500000000000045","-0.38779630646131991","1.0400000168010559","-0.29479630530369061","0.88900001614820989","0.1242037015592264","0.0220000010449776","SIDE","0.70705496133621437","-0.0086070689595294254","-0.0085136163652496499","-0.70705496133621437","1.5730388740919921","128.07620259990335","-163.27740940681232","0.008706199","0.000030378","21"
"22","salt","0.755","-0.1007963026084424","0.29800000763499018","0.021203699926609101","-8.6631670997342618e-16","-1.5707963267948959","1.570796326794897","TOP","0.50114277916848193","0.51135578275355276","0.48603198785582152","-0.50114277916848193","4.2660101082154744","250.35277150187241","-24.399727975329117","0.000395755","0.000069277","22"
"23","salt","0.75500000000000089","-0.58279630920408476","1.3510000217938769","0.105203700656747","2.6725244957318009e-15","-1.4037963221224561","1.570796326794897","SIDE","0.49809203401500851","-0.48383591574417933","0.51933751832269426","0.49809203401500851","12.722458355177698","-105.95264800029021","-22.007009726061252","0.001772098","0.000048190","23"
"24","salt","0.75500000000000023","-1.1357963191720211","1.2620000208262361","-0.93379631609679181","1.4520000233314909","0.13420369877456581","0.39500000898259841","SIDE","0.65896644143037109","-0.015374845134864552","-0.75201518814826618","8.6872215500041428e-17","160.95058711323799","45.808690792042164","0.43989988696336546","0.010516152","0.000124776","24"
"25","salt","0.755","-1.1677963206919391","1.570796326794897","-0.0037963012608293279","1.236000019591297","-1.570796326794897","1.570796326794897","SIDE","0.084085725668978734","0.74887806290634018","-0.65195155370248947","-0.0840857256689789","47.062443722286631","51.323297395382895","134.94612399615627","0.003760885","0.000032828","25"
"26","salt","0.755","-0.075796301421016329","0.80700001225341","-0.54279631056380917","0.70800001081079211","-1.0977963173671219","1.2090000183088681","SIDE","0.70208944639463211","-0.089689363200689182","0.078080962156036826","-0.70208944639463255","-25.611492275748656","46.29482652149737","-164.81926882434061","0.010470109","0.000153688","26"
"27","salt","0.75499999999999978","-0.1537963051258143","1.457000023568978","-1.257796321707082","1.570796326794897","-1.49479632318509","1.5707963267948959","SIDE","0.70208944639463222","-0.089689363200689182","0.078080962156036854","-0.70208944639463244","-19.743205692664077","46.700866290190476","-140.61376440313359","0.002849746","0.000005665","27"
"28","salt","0.75500000000000045","-0.21579630481102621","1.477000024518933","-0.98379631521204536","1.5707963267948959","-0.82979631441669177","1.5707963267948959","SIDE","-1.2259082805820759e-17","0.99053612119105494","0.068537391934783171","-0.1189151736430535","46.638400506364007","51.29395690444882","133.19703083369694","0.002712645","0.000030300","28"
"29","salt","0.75500000000000023","-0.73579631321155647","1.570796326794897","-0.92779631581180988","1.570796326794897","0.1332036987270685","1.1920000207610419","SIDE","-0.0085604701882764367","-0.70318505380775898","0.71090380277621978","-0.0085604701882764731","1.6124849968274129","135.30280406409827","135.12509564147743","0.006173831","0.000013384","29"
"30","salt","0.0","-0.92179631552681873","1.427000022144054","-0.89179631410189308","1.4080000212416051","0.13420369877456029","0.4020000060554591","SIDE","0.65896644143037109","-0.015374845134864552","-0.75201518814826618","8.6872215500041428e-17","160.75236599189503","45.812743395089548","0.41359459369462204","0.012156591","0.000051270","30"
"31","salt","0.0","-0.51479630923388442","1.1640000194311191","1.098203715225454","1.5707963267948959","0.01420369959412842","0.20900000340770911","SIDE","0.012106333040551366","0.99991181969086262","-0.0054579797378750509","-5.9799022908901794e-17","1.6157636939236883","135.90346733807843","159.92782316431024","0.001647075","0.000011482","31"
"32","salt","0.0","-0.32079630653863161","1.1270000176737081","-0.28679630492371738","1.109000016818751","-0.241796306045961","0.64900001126807383","SIDE","0.99290441709030708","-0.0082083790974065759","0.11863153474161407","-1.1607430579566734e-16","-24.268688835448028","46.387738070820099","-159.28047412662582","0.012288697","0.000054716","32"
"33","salt","0.0","-0.63679631176894291","1.570796326794897","-0.56179631146626074","1.570796326794897","-0.49679630837892802","1.570796326794897","SIDE","0.99290441709030708","-0.0082083790974065759","0.11863153474161407","-1.1596511077610414e-16","-18.400402252363609","46.793777839513126","-135.0749697054199","0.003881989","0.000006212","33"
"34","salt","0.75499999999999978","-0.33479630720358838","1.138000018196176","-0.26879630732839338","1.1210000173887229","-0.6187963109139879","1.4170000216690839","SIDE","0.75217234000499711","0.013469661734699779","0.6588287631427151","-2.0756561300416261e-17","-151.44587964981281","52.195592840748773","-41.01724000799743","0.009107467","0.000045396","34"
"35","salt","0.755","-1.00679631630448","1.5707963267948959","-0.72479631268908629","1.570796326794897","0.14520369929703739","1.090000019175897","SIDE","0.70705496133621437","-0.0086070689595294219","-0.0085136163652496464","-0.70705496133621437","1.5763307864119622","128.67928692713136","-138.37471119040327","0.004946280","0.000012989","35"
"36","salt","0.0","1.0322037120906149","1.570796326794897","-0.44279630907368922","1.0670000180834911","-0.063796304110672511","0.31300000508781511","SIDE","1.3687904178535793e-16","0.005457979737874933","0.99991181969086262","-0.012106333040551235","1.6158033395968781","135.91073049783205","160.22773524504478","0.000045240","0.000026826","36"
"37","salt","0.75500000000000034","-0.95679631718923441","1.4280000221915521","-0.055796303730691818","0.80800001230090701","-0.2277963053809986","0.73100001190323627","SIDE","0.52457623916700635","-0.47739140527048468","0.47088956749610755","-0.52457623916700624","-156.77278559660525","111.50828741550984","0.61129431049058536","0.001825048","0.000033381","37"
"38","salt","3.8857805861880479e-16","-0.88679631386441893","1.508796327109682","-0.91979631543183138","1.565796329817043","0.1002037004192773","1.4590701562212591e-15","SIDE","-1.3854957741941086e-16","0.74184539473900957","0.0050864232740953606","-0.6705516673626275","155.52359929521376","113.64953092372494","32.227592222477533","0.011905426","0.000037489","38"
"39","salt","0.75500000000000056","-0.88579631381690926","1.422000021906568","-1.04679631820438","1.3110000198939831","0.1192037013217388","0.60100000898819683","SIDE","2.9751071197263322e-16","0.65882876314271566","-0.013469661734699843","0.75217234000499666","-151.54499021048596","52.197619142271719","-41.030392654629807","0.010521734","0.000121324","39"
"40","salt","0.75499999999999967","-0.41779630788624578","1.316000020131473","-0.38979630655633712","1.300000022631141","-0.60279631015402257","1.3950000238837661","SIDE","-1.7531425728099023e-16","0.75201518814826596","-0.015374845134864789","-0.65896644143037153","159.36481846556339","45.84111160981243","0.22945758368232533","0.018148791","0.000093542","40"
"41","salt","0.0","-0.80879631341924241","1.300000022631139","0.1932037015769158","2.1929103149932421e-15","-1.15679632016947","1.25200002035125","SIDE","0.084085725668978734","0.74887806290634018","-0.65195155370248947","-0.0840857256689789","52.930730305371206","51.729337164075915","159.15162841736219","0.006369271","0.000095597","41"
"42","salt","0.0","-0.15479630517331261","1.4740000243764351","-0.485796307856452","1.570796326794897","-0.89879631443438635","1.570796326794897","SIDE","-1.2259082805820759e-17","0.99053612119105494","0.068537391934783184","-0.1189151736430535","46.214357290438997","51.264616413512009","131.447937671239","0.001758246","0.000035154","42"
"43","salt","0.75500000000000012","0.0042036991191634933","0.68700001307297276","-0.99079631554452419","1.3560000220313659","-0.56579631165624866","1.263000020873736","SIDE","-0.4659596393097834","0.54262669634947203","0.52088338184036032","-0.46595963930978357","160.75236599189566","45.812743395091005","0.41359459369029","0.013680775","0.000121641","43"
"44","salt","0.0","-1.38079632103001","1.570796326794897","0.2482037009296463","1.00100001494866","-1.570796326794897","1.5707963267948959","SIDE","0.08408572566897872","0.74887806290634018","-0.65195155370248947","-0.0840857256689789","47.062443722286631","51.323297395382838","134.94612399615627","0.006931201","0.000026812","44"
"45","salt","0.0","-0.25979630690091488","1.1280000177212","-0.25379630661592689","1.0590000177035019","-0.57879630901409374","1.380000023171293","SIDE","5.8458363234985514e-19","0.67053590631343352","0.0045974935804370233","0.74186283192865254","-154.88249194646107","111.52124811282737","0.80266407574089238","0.013036113","0.000052578","45"
"46","salt","0.75499999999999978","-1.129796318887039","1.5707963267948959","-0.21379630471603109","1.5447963288195901","-1.1507963198844819","1.570796326794897","SIDE","0.70208944639463211","0.078080962156037131","0.089689363200688599","0.70208944639463244","-19.766763649105453","46.69923626291537","-140.71093624549437","0.006088862","0.000028332","46"
"47","salt","0.0","-0.86379631603160045","1.3880000235512879","-0.89279631414938754","1.449000023189005","0.1142037010842227","0.38000000827013991","SIDE","0.74186283192865277","-0.0045974935804367961","0.67053590631343341","-7.4826704940781446e-17","-156.87227473608934","111.50760527354723","0.60122221758154759","0.014950880","0.000063718","47"
"48","salt","0.75500000000000078","-0.54579631070630308","1.501796326777203","-0.49579630833142391","1.4680000240914619","-0.24179630604595931","0.64900001126807483","SIDE","0.99290441709030708","-0.0082083790974065759","0.11863153474161407","-1.1596511077610414e-16","-24.268688835448032","46.387738070820056","-159.28047412662579","0.001793790","0.000024686","48"
"49","salt","0.75500000000000378","0.0022036990241772938","5.7127386823315936e-15","-1.570796326794897","1.5707963267948959","-0.1927963037185865","0.51300000806804802","SIDE","3.3294278623410276e-16","0.014747613942756643","0.70545888069169571","0.70859740017602035","-3.6324715965353054","-104.92735612584299","18.158087189659511","0.007412773","0.000036871","49"
"50","salt","0.0","-0.22479630523848321","1.0490000172285341","-0.20579630433602861","1.026000016136094","-0.60279631015403079","1.3950000238837701","SIDE","-1.753142572809902e-16","0.75201518814826585","-0.015374845134864779","-0.65896644143037153","159.36481846556336","45.841111609812351","0.22945758368232472","0.013883873","0.000047723","50"
"51","salt","0.75500000000000045","-0.0287963024482632","0.0","-0.75079631392401958","1.4120000214315991","0.011203699451635921","0.097000004607251611","SIDE","0.9999267156648588","-0.012106152691712125","6.6080963134436995e-05","7.5179683561945122e-21","1.5728802914353193","128.04714996877723","-164.47705740388918","0.001213868","0.000032911","51"
"52","salt","0.75500000000000023","-0.082796301753502194","-1.340157741654466e-16","-0.9357963161917856","1.516796327489663","-0.23679630580847491","1.1540000189561379","SIDE","0.47415163112805964","0.52816055360106273","-0.52096726482286693","-0.47415163112806041","155.02615359780725","113.64612021390575","32.177231757938102","0.007773395","0.000031663","52"
"53","salt","0.75500000000000023","-0.47279630723899241","1.4070000211941089","-0.25879630685341709","1.0650000179885071","-0.57879630901410262","1.3800000231713021","SIDE","5.8458363234985514e-19","0.67053590631343352","0.0045974935804370225","0.74186283192865254","-154.88249194646107","111.52124811282735","0.80266407574089238","0.009636711","0.000056584","53"
"54","salt","0.755","-0.94779631676175946","1.505796326967191","-0.012796301688303891","0.88200001581571363","-0.6427963120539224","1.4900000251363921","SIDE","0.5318661622384866","0.47538677521185507","0.45633779690606446","0.53186616223848671","-151.4458796498144","52.195592840750514","-41.017240007995333","0.014891185","0.000105275","54"
"55","salt","0.75500000000000012","-0.0197963020207821","0.0","-0.69879631145415022","1.3540000219363799","-0.062796304063175434","0.30100000451784598","SIDE","1.3689259550768543e-16","0.0054579797378749339","0.99991181969086262","-0.012106333040551236","1.6158429852716218","135.9179936575853","160.52764732577887","0.000702600","0.000041981","55"
"56","salt","0.0","-0.90479631471937894","1.492000025231397","-0.88579631381692903","1.487000024993907","0.1212037014167322","0.63800001074560564","SIDE","2.9520442738369808e-16","0.65882876314271555","-0.013469661734699843","0.75217234000499666","-150.85121628578469","52.183435031605896","-40.938324128188803","0.012486819","0.000041663","56"
"57","salt","0.755","-0.20079630409856611","1.163000019383629","-0.39979630703130581","1.2590000206837431","-0.62179631105647781","1.4740000243764391","SIDE","0.67055166736262706","0.005086423274095456","-0.74184539473900979","8.343105359843607e-17","154.92666445832407","113.64543807194043","32.167159665029502","0.005128741","0.000059466","57"
"58","salt","0.0","0.51320370699721496","-1.076071249375712e-15","-0.64479631214891631","1.38700002350379","-1.2067963192847131","0.83700001367833654","SIDE","0.52457623916700657","0.47088956749610777","0.47739140527048451","0.52457623916700602","-157.3697201092059","111.5041945659499","0.55086178587362744","0.001498210","0.000061471","58"
"59","salt","0.75500000000000045","0.106203700704254","-1.311585118178278e-15","-0.67979631055170409","1.2580000206362481","-0.20879630447854899","0.41500000667292891","TOP","0.50072693443072125","0.48198490076707617","-0.51598026096332017","0.50072693443072147","-10.6133684957217","276.07108655999457","-1.1644137331015489","0.004251303","0.000019909","59"
"60","salt","0.755","0.097203700276804611","-1.372916854845613e-15","-0.7197963124515937","1.327000020653939","-0.2137963047160294","0.44900000828783682","SIDE","0.4992720071620399","-0.48338945172358744","0.51748387771132087","0.49927200716204012","-24.404911047856135","-128.79239098232333","0.014367105335615644","0.011969267","0.000049538","60"
"61","salt","0.75499999999999989","-0.27179630421125461","0.59500001196282892","-0.43679630878870779","0.92600001464597603","-0.20479630428856549","0.41000000643544021","TOP","0.50031921190119355","0.4902043639201828","-0.50898040630140795","0.50031921190119366","4.0354574121521676","275.06118700346241","-0.9512110701857478","0.015485738","0.000151542","61"
"62","salt","3.8791398478815742e-16","-0.64579631219641576","1.257000020588745","-0.63979631191142883","1.207000018213878","-0.20279630419355479","0.40400000615045528","TOP","0.50031921190119377","0.4902043639201828","-0.50898040630140784","0.50031921190119366","4.0429726244026725","275.46111609784151","-0.95172197229347866","0.012591350","0.000089326","62"
"63","salt","0.75500000000000023","0.053203698186909322","1.6235984693787051e-15","-0.67179631017171881","1.286000021966176","-0.2147963047635135","0.42700000724289522","TOP","0.49985829874444609","0.52800731202880069","0.47062898422933619","-0.49985829874444632","28.986884199161846","273.67237789784991","-0.71255692875942811","0.011903118","0.000048701","63"
"64","salt","0.75500000000000056","-0.41779630788625371","0.89200001629069936","-0.29979630554118181","0.64600001112557459","-0.19579630386107769","0.38900000869762552","TOP","0.50031921190119399","0.5089804063014074","0.49020436392018241","-0.50031921190119388","4.0373362152164036","275.16116927705679","-0.95133879571046009","0.013640138","0.000108459","64"
"65","salt","0.0","-0.65579631267139127","1.2170000186888461","-0.63979631191143727","1.2450000200187881","-0.19379630376608781","0.38300000841263321","TOP","0.50031921190119388","0.50898040630140762","0.49020436392018257","-0.50031921190119399","4.0429726244042294","275.46111609784151","-0.95172197229125821","0.012439534","0.000085276","65"
"66","salt","0.0","-1.318796321344796","1.570796326794897","-1.4077963223124399","1.570796326794897","0.061203698566877518","1.3090000197989891","SIDE","-0.11891517364305326","-0.068537391934783073","0.99053612119105494","1.0858044770869813e-16","45.908103856717666","51.243426058947293","130.18470372057462","0.004300670","0.000012310","66"
"67","salt","0.755","0.037203697426939158","-3.9160906816825348e-16","-1.45179632440233","1.5707963267948959","-0.019796302020785011","0.094000004464761963","SIDE","0.70548694514822907","-0.70849458336442894","0.017988762288826263","1.5736974755668779e-16","-4.7541292515489397","-104.90901765486592","-22.773388090359489","0.000275640","0.000049659","67"
"68","salt","0.0","-0.64579631219642208","1.247000020113777","-0.65579631267139049","1.230000019306321","-0.21579630481102971","0.4580000087153106","SIDE","0.49968058417609995","-0.49083088035423111","0.50963091986804843","0.49968058417610028","-3.5718157770951993","-129.76701771237086","-0.43405043954683592","0.002443329","0.000040168","68"
"69","salt","0.75500000000000034","-0.29879630549369912","0.6740000124554989","-0.42779630836123272","0.88700001605320389","-0.21579630481102571","0.45800000871531488","SIDE","0.49968058417609995","-0.49083088035423111","0.50963091986804843","0.49968058417610028","-3.5736945801576594","-129.86699998596583","-0.43392271401990312","0.004488267","0.000064173","69"
"70","salt","0.75500000000000023","-1.3987963218849671","1.570796326794897","-1.337796322247254","1.570796326794897","0.061203698566879843","1.2740000213961971","SIDE","-0.11891517364305326","-0.06853739193478306","0.99053612119105494","1.1033174525238681e-16","46.212001493473466","51.264453410693783","131.4382204815457","0.001299420","0.000007942","70"
"71","salt","0.0","-0.66079631290887952","1.2420000198762851","-0.63879631186393404","1.2480000201612671","-0.21879630495351021","0.46800000919029772","SIDE","-0.49968058417609973","0.50963091986804865","0.49083088035423145","0.49968058417609995","-3.5699369740314073","-129.6670354387752","-0.43417816507465673","0.015805068","0.000071993","71"
"72","salt","0.75500000000000067","-0.39579630684130168","0.83600001363083076","-0.32179630658612363","0.72100001142825942","-0.21879630495352231","0.46800000919028112","SIDE","-0.49968058417609973","0.50963091986804865","0.49083088035423156","0.49968058417609984","-3.5680581709687256","-129.56705316518023","-0.43430589060158947","0.013555192","0.000115912","72"
"73","salt","0.0","1.03220371209062","1.570796326794897","-0.62879631138895176","1.1530000189086409","-0.2097963045260528","0.41800000681541821","TOP","0.50072693443072114","0.48198490076707629","-0.51598026096332028","0.50072693443072158","-10.616772974433305","275.97114494653761","-1.1641227479375846","0.008708064","0.000024299","73"
"74","salt","0.0","-0.99879631592450846","1.482000024756422","1.098203715225454","1.570796326794897","0.11020370089426119","-3.2936328499822821e-16","TOP","0.50190071294110694","0.48016432172474455","-0.51539652001253611","0.50190071294110739","26.221003311825527","275.47749172362654","-24.914381810140764","0.000884046","0.000004779","74"
"75","salt","0.0","-0.1007963026084485","0.0","-0.2467963062834467","0.48000000976026458","-0.42879630840872712","1.1930000208085361","SIDE","-1.2259082805820759e-17","0.99053612119105494","0.068537391934783184","-0.11891517364305351","52.082643873523786","51.670656182204993","155.65344209244515","0.008996533","0.000032664","75"
"76","salt","3.4390892911240191e-16","1.032203712090616","1.570796326794897","-0.62579631124646362","1.1530000189086409","-0.2117963046210409","0.41700000676792442","TOP","0.49985829874444609","0.52800731202880069","0.47062898422933619","-0.49985829874444643","29.015565234270067","274.17155456911058","-0.71227356638919337","0.008519919","0.000022321","76"
"77","salt","0.0","-0.92379631562181619","1.4350000225240349","-0.97879631497454667","1.491000025183888","0.1072037007517677","0.0","TOP","0.50114277916848182","0.48603198785582158","-0.5113557827535532","0.50114277916848171","4.9312637834093582","276.5540530503917","-24.519673858917002","0.003817082","0.000025892","77"
"78","salt","0.75500000000000067","0.030203697094458089","-1.2665596576536639e-16","-0.61979631096147969","1.155000019003634","-0.22179630509603121","0.46300000895280652","SIDE","0.50014166110843827","-0.5277081619843712","-0.47036234269173871","-0.50014166110843861","5.7437746028274912","-130.86038662916675","-0.942193781247187","0.012254442","0.000050769","78"
"79","salt","0.0","0.9152037130526729","0.0","-1.3157963212023069","1.570796326794897","-1.570796326794897","1.4730000243289421","SIDE","0.52457623916700657","0.47088956749610777","0.47739140527048451","0.52457623916700602","-132.58697701077597","111.67411611858859","3.0598199726819524","0.002383862","0.000026919","79"
"80","salt","0.0","-1.570796326794897","1.5707963267948959","-1.556796326129932","1.570796326794897","0.19420370162441469","1.4080000212416059","SIDE","0.65896644143037131","-0.015374845134864552","-0.75201518814826618","8.4239724121252291e-17","136.06392686915035","46.317495073135333","-2.8627294785027284","0.002510414","0.000016256","80"
"81","salt","0.0","-0.67979631055170286","1.232000019401315","1.09820371522544","1.570796326794897","-0.20079630409856131","0.42000000691041178","TOP","-0.49985829874444587","-0.47062898422933613","0.52800731202880113","-0.49985829874444598","29.027037648312827","274.37122523761593","-0.71216022144143254","0.006470698","0.000028577","81"
"82","salt","0.0","1.03220371209061","1.570796326794897","-0.96079631737922677","1.435000022524034","0.1082037007992616","-2.876577040644403e-16","SIDE","-0.49809203401500812","0.51933751832269437","0.48383591574417967","0.49809203401500846","11.7986950137694","-132.05554973314997","-21.808045781448488","0.003216646","0.000005454","82"
"83","salt","0.755","0.049203697996920009","0.0","-0.89479631424440254","1.5137963273471731","0.068203698899362092","7.5007528034686708e-16","TOP","0.4951822714305999","0.52932407783907709","0.47896247947148601","-0.49518227143060023","28.057636217733602","274.23872164834341","21.698009297764173","0.001859337","0.000024594","83"
"84","salt","0.755","-0.39679630688881579","0.84700001415330528","0.082203699564320651","-1.092017500909219e-15","-0.6697963133363587","1.256000020541248","TOP","-0.49518227143060001","-0.47896247947148601","0.52932407783907731","-0.49518227143060001","28.042673314395035","273.93915025303482","21.692255875733043","0.008765665","0.000057676","84"
"85","salt","0.0","-0.21779630490601909","0.41200000653042879","1.0982037152254509","1.570796326794897","-0.66979631333635292","1.2560000205412389","TOP","-0.49518227143060001","-0.4789624794714859","0.52932407783907731","-0.49518227143060001","28.042673314395028","273.93915025303482","21.692255875733043","0.006538531","0.000025463","85"
"86","salt","0.0","-0.95279631699924372","1.4780000245664371","-0.94679631671425635","1.5117963272521779","0.083203699611830023","3.8453812980955081e-16","TOP","0.49894374656056401","0.51141682124069943","0.49047233407020369","-0.49894374656056423","4.3386716949747042","276.37596903415471","19.767763177802994","0.004185925","0.000006980","86"
"87","salt","0.755","-0.48279630771396442","0.58300001139286339","-0.10679630289343291","0.88100001576821951","-0.57779630896659906","1.1160000171511419","SIDE","0.70208944639463211","0.078080962156037159","0.089689363200688613","0.70208944639463244","-25.635050232189595","46.293196494221633","-164.91644066670031","0.007369137","0.000079224","87"
"88","salt","0.0","1.0322037120906129","1.570796326794897","-0.61779631086649522","1.138000018196186","-0.22179630509600989","0.46300000895279841","SIDE","0.50014166110843838","-0.52770816198437109","-0.47036234269173866","-0.50014166110843838","5.7437746028274921","-130.86038662916675","-0.94219378124718711","0.009216930","0.000024366","88"
"89","salt","0.75500000000000012","-0.76079631439899265","1.217000018688851","-0.80879631341924119","1.0310000163735831","0.097203700276784044","0.32700000575277982","SIDE","-1.6706837993167547e-16","0.11863153474161457","0.0082083790974065672","0.99290441709030708","-25.611492275746443","46.294826521496702","-164.81926882434107","0.017392492","0.000110449","89"
"90","salt","0.0","-0.66879631328886169","1.2220000189263409","1.0982037152254469","1.570796326794895","-0.21879630495351979","0.47900000971276141","SIDE","-0.49927200716203968","0.51748387771132098","0.48338945172358755","0.49927200716203979","-24.4151244475268","-129.09221475229657","0.015240057705894377","0.003586440","0.000008868","90"
"91","salt","0.0","-0.67879631050421529","1.232000019401315","1.0982037152254509","1.570796326794897","-0.19079630362360189","0.39600000903010157","TOP","0.50072693443072158","0.51598026096331984","0.48198490076707617","-0.50072693443072136","-10.613368495722138","276.07108655999571","-1.1644137331013273","0.007345888","0.000030011","91"
"92","salt","0.0","-0.1617963055057931","0.36700000765267637","1.0982037152254349","1.570796326794897","-0.70879631192912151","1.266000021016223","SIDE","0.49809203401500851","-0.48383591574417928","0.51933751832269426","0.49809203401500851","11.844670986779438","-130.75640064185117","-21.817948275450608","0.006819885","0.000029193","92"
"93","salt","0.75500000000000067","-0.30779630592116891","0.65100001136305963","0.1022037005142834","-1.8513044008508259e-15","-0.70879631192913273","1.2660000210162179","SIDE","0.49809203401500851","-0.48383591574417933","0.51933751832269426","0.49809203401500846","11.844670986779438","-130.75640064185117","-21.817948275450611","0.008094678","0.000072548","93"
"94","salt","0.75500000000000067","0.096203700229294892","0.0","-0.31279630615865761","0.65900001174304013","-0.63579631172143181","1.153000018908632","SIDE","0.50477174847730066","-0.51926816423056787","-0.46986331788612007","-0.50477174847730077","7.8028538252237247","-131.28107315766201","13.909794093513307","0.010356433","0.000069238","94"
"95","salt","0.0","1.03220371209062","1.570796326794897","-0.2237963051910013","0.50100000749807805","-0.63579631172144546","1.153000018908636","SIDE","0.50477174847730066","-0.51926816423056787","-0.46986331788612007","-0.50477174847730077","7.8028538252237221","-131.28107315766201","13.909794093513309","0.009223007","0.000021522","95"
"96","salt","0.75500000000000056","-0.025796302305771731","0.077000003657299712","-0.071796301231032339","0.1870000056223825","-0.67279631021923958","1.2240000190213309","TOP","-0.49894374656056384","-0.49047233407020363","0.51141682124069998","-0.49894374656056395","4.3156814275626667","275.27621904219814","19.763120571333289","0.018861886","0.000107448","96"
"97","salt","0.0","-0.17479630286363071","0.43700000771786962","-0.15979630541079759","0.35300000698771911","-0.67279631021921582","1.2240000190213309","TOP","-0.49894374656056384","-0.49047233407020363","0.51141682124069998","-0.49894374656056395","4.3156814275626667","275.27621904219814","19.763120571333289","0.015486207","0.000083905","97"
"98","salt","0.0","-0.88379631372191292","1.4050000210991109","-0.94679631671425657","1.4810000247089321","0.085203699706821054","0.0","SIDE","0.50105402679562183","-0.48840662056012479","0.50926289621061405","0.50105402679562194","-4.1844469843597132","-131.33135210606639","18.046622435444942","0.008012702","0.000043532","98"
"99","salt","0.0","1.032203712090612","1.570796326794897","-0.65279631252889603","1.2080000182613759","-0.21179630462103241","0.44300000800286082","SIDE","0.4992720071620399","-0.48338945172358733","0.51748387771132076","0.49927200716204001","-24.418528926239745","-129.19215636575331","0.015531042869636559","0.008975342","0.000023927","99"
"100","salt","0.0","-0.19179630367108491","1.228000019211321","-0.20979630452604039","1.1600000192411319","-0.64379631210142163","1.5307963281546311","SIDE","0.67055166736262706","0.0050864232740954569","-0.7418453947390099","8.4077805951912319e-17","153.33483822662109","113.63452380051602","32.006006178502602","0.001983851","0.000017974","100"
"101","salt","0.0","-0.62579631124646384","1.01600001566112","-0.5757963088715875","0.91600001417100341","0.098203700324287393","0.32800000580027638","SIDE","-1.6695918491211227e-16","0.11863153474161454","0.0082083790974065672","0.99290441709030708","-25.517260449985365","46.301346630593798","-164.43058145490608","0.009675875","0.000042994","101"
"102","salt","0.0","-0.98779631540203927","1.500796326729706","-0.97579631483206408","1.521796327727142","0.11220370098924839","3.109400458087488e-16","SIDE","-0.49885460295289474","0.51370130013050741","0.4882613485313434","0.49885460295289474","-5.4168447591984599","-131.01033246129504","-22.653899840844783","0.006037930","0.000029855","102"
"103","salt","0.0","-0.95179631695175004","1.464000023901463","1.0982037152254429","1.570796326794897","0.083203699611818435","-7.960978010366472e-16","SIDE","0.50477174847730089","-0.46986331788611968","0.51926816423056787","0.504771748477301","7.7080887707550207","-133.17835866131878","13.873355753977714","0.002766916","0.000004612","103"
"104","salt","0.0","-0.7077963118816295","1.3010000194190059","1.0982037152254309","1.570796326794897","-0.20779630443106781","0.45000000833533788","SIDE","0.50014166110843838","-0.47036234269173832","0.52770816198437109","0.50014166110843872","5.7380383958052246","-130.9602219634196","-0.94225045372245519","0.007119403","0.000022943","104"
"105","salt","0.75499999999999967","-0.3987963069837932","1.570796326794897","-1.0427963180143891","1.570796326794897","-1.238796320804636","1.570796326794897","SIDE","0.67055166736262706","0.0050864232740954569","-0.7418453947390099","8.343105359843607e-17","130.14392135989411","113.47551651930202","29.658201478220953","0.000001282","0.000014662","105"
"106","salt","0.75500000000000023","-0.83279631455918091","1.570796326794897","-0.75679631420900351","1.355000021983878","0.054203698234397808","4.4180663892267479e-16","SIDE","-0.11891517364305328","-0.068537391934783073","0.99053612119105494","1.0682915016500946e-16","52.059085917084708","51.669026154931309","155.5562702500857","0.005315749","0.000026959","106"
"107","salt","0.0","-0.19979630405105711","0.45200000843032961","-0.16479630564828571","0.42600000719539982","-0.67879631050420086","1.244000019971276","SIDE","0.50105402679562161","-0.50926289621061416","-0.48840662056012524","-0.50105402679562172","-4.1551866440172605","-129.93167029811815","18.052531207315287","0.012640489","0.000084245","107"
"108","salt","0.75500000000000012","-0.083796301800993511","0.2100000034552082","-0.021796302115725721","0.072000003419822434","-0.6787963105042254","1.2440000199712711","SIDE","0.50105402679562161","-0.50926289621061416","-0.48840662056012524","-0.50105402679562172","-4.1551866440172613","-129.93167029811815","18.052531207315287","0.016944580","0.000100587","108"
"109","salt","0.75499999999999923","0.016203699689120658","-1.5672717917518099e-14","-0.0277963024007759","0.0710000033723171","-0.71779631235659924","1.2680000211112159","SIDE","0.49885460295289474","-0.48826134853134329","0.5137013001305073","0.49885460295289497","-5.3965394188058013","-130.21059852455841","-22.657560913434317","0.010105196","0.000056090","109"
"110","salt","0.0","-0.049796303445709553","1.562824054933964e-14","-0.102796302703448","0.24400000507011871","-0.71779631235660679","1.2680000211112179","SIDE","0.49885460295289474","-0.48826134853134329","0.5137013001305073","0.49885460295289497","-5.3965394188057996","-130.21059852455829","-22.657560913434317","0.003170903","0.000017977","110"
"111","salt","0.0","1.0322037120906129","1.5707963267948959","-0.93779631628678883","1.4730000243289409","0.069203698946850981","-8.5804285507065562e-16","TOP","0.4951822714305999","0.52932407783907709","0.47896247947148601","-0.49518227143060023","28.077586755516528","274.63815017542919","21.705680527140345","0.005657231","0.000007193","111"
"112","salt","0.755","0.1052037006567666","1.4075040610421411e-16","-0.23279630561849129","0.4980000106152197","-0.73179631302157411","1.298000022536139","TOP","0.5019007129411075","0.51539652001253555","0.48016432172474466","-0.50190071294110739","26.18917379204921","274.5780808142639","-24.907526237370075","0.006775030","0.000054368","112"
"113","salt","0.0","1.032203712090608","1.570796326794897","-0.084796301848489325","0.14300000353250539","-0.73179631302156878","1.2980000225361401","TOP","0.5019007129411075","0.51539652001253555","0.48016432172474455","-0.5019007129411075","26.18917379204921","274.57808081426373","-24.907526237370075","0.009388177","0.000018979","113"
"114","salt","0.755","0.037203697426942149","0.0","-0.8547963156041275","1.416000021621584","0.1082037007992727","-9.6230680740512492e-16","SIDE","-0.49809203401500812","0.51933751832269437","0.48383591574417967","0.49809203401500834","11.7986950137694","-132.05554973315009","-21.808045781448492","0.001762360","0.000018649","114"
"115","salt","0.0","-0.11079630308339949","0.2390000048326279","-0.06479630415817024","0.19400000595488309","-0.73279631306907056","1.3010000194190079","TOP","0.50114277916848204","0.51135578275355276","0.48603198785582158","-0.50114277916848204","4.8982676052706795","275.25448540319559","-24.513724615959514","0.012778105","0.000082492","115"
"116","salt","0.75499999999999967","-0.04479630320822079","0.1190000023925683","0.020203699879113558","0.0","-0.73279631306907078","1.3010000194190079","TOP","0.50114277916848216","0.51135578275355276","0.48603198785582147","-0.50114277916848193","4.8982676052706768","275.25448540319564","-24.513724615959514","0.009449679","0.000055158","116"
"117","salt","0.0","-1.488796322900102","1.570796326794897","-1.570796326794897","1.570796326794897","0.16820370038947649","1.4560000235214881","SIDE","0.74186283192865277","-0.0045974935804367961","0.67053590631343341","-7.54112885731313e-17","-132.0895316376585","111.67752682618575","3.110180404390094","0.003664981","0.000026969","117"
"118","salt","0.755","-0.72879631287907354","1.349000021698884","0.065203698756873513","7.1113555711042919e-16","-0.084796301848488492","0.1820000053849069","SIDE","2.130163673140644e-16","0.017988762288826253","0.70849458336442905","0.70548694514822896","-5.3863867486045871","-129.81073155618839","-22.659391449729085","0.004694044","0.000071679","118"
"119","salt","0.75500000000000123","-0.18279630324361429","0.0","-0.64179631200642384","1.4920000252313941","-0.64879631233890722","1.322000020416451","SIDE","-0.08408572566897872","0.65195155370248969","0.74887806290633985","-0.084085725668978997","52.011970004203874","51.665766100383038","155.36192656536852","0.009412715","0.000024465","119"
"120","salt","0.0","-0.69979631150165378","1.487000024993913","-0.81579631375172201","1.4900000251363901","0.05220369813940122","-1.015972076989043e-15","SIDE","-0.11891517364305326","-0.068537391934783073","0.99053612119105494","1.0858044770869813e-16","51.776390439802086","51.649465827640249","154.39020814178093","0.008023950","0.000029859","120"
"121","salt","0.75500000000000023","-0.25679630675842091","0.51900000835303162","0.10020370041928291","0.0","-0.46179630997614202","0.92500001459848213","TOP","0.70979479520603939","0.70396782227621835","-0.024912926325406291","-2.7861359028978312e-16","26.182100565430471","274.378211723297","-24.90600277675286","0.004039333","0.000054137","121"
"122","salt","0.0","-0.1647963056482846","1.173000019858595","-0.15279630507831679","1.188000020571061","-0.66379631305137232","1.536796328439608","SIDE","0.75217234000499711","0.013469661734699781","0.65882876314271521","-2.0756561300416264e-17","-148.07612058697893","52.126698588943448","-40.570050022428738","0.001727965","0.000005413","122"
"123","salt","0.755","-0.20679630438354871","1.146000018576167","-0.1097963030359219","1.4080000212416051","-1.570796326794897","0.57400001096536679","SIDE","0.0085604701882765945","0.71090380277621956","0.70318505380775931","-0.008560470188276598","1.6127215493526341","135.34614091715667","136.91457105091095","0.010366829","0.000064658","123"
"124","salt","0.0","-0.40779630741127759","1.570796326794897","-0.40279630717378812","1.570796326794897","-1.570796326794897","0.57400001096539888","SIDE","0.0085604701882765945","0.71090380277621956","0.7031850538077592","-0.008560470188276598","1.6127215493526343","135.34614091715659","136.91457105091095","0.005213111","0.000018693","124"
"125","salt","0.75499999999999989","-0.70279631164414014","1.339000021223911","0.048203697949414398","0.0","-0.20479630428856441","0.4320000074803812","TOP","-0.49985829874444587","-0.47062898422933602","0.52800731202880113","-0.49985829874444609","28.986884199161178","273.67237789785213","-0.71255692875976118","0.006831752","0.000068019","125"
"126","salt","0.0","-0.089796302085978275","0.14200000348500821","-0.033796302685748007","-1.778008842956111e-16","-0.4757963073814821","0.9780000171158526","TOP","0.70690638534913774","0.70614249702314669","-0.040572604680146236","-1.3251410603185016e-16","28.981147992136464","273.57254256359755","-0.71261360123514061","0.011136665","0.000063618","126"
"127","salt","0.75499999999999889","-0.10279630270344731","0.21000000345520439","-0.063796304110670596","0.1190000023925679","-0.47579630738148221","0.97800001711585083","TOP","0.70690638534913774","0.70614249702314691","-0.040572604680146236","-1.3251410603185016e-16","28.981147992136467","273.57254256359766","-0.71261360123514095","0.014462873","0.000108393","127"
"128","salt","0.75500000000000023","-1.570796326794897","1.5707963267948959","-1.5617963263674199","1.570796326794897","0.1562036998195086","0.77900001418311726","SIDE","-1.6684998989254907e-16","0.11863153474161457","0.0082083790974065689","0.99290441709030708","-19.743205692662524","46.700866290189673","-140.61376440313515","0.002896029","0.000018593","128"
"129","salt","0.0","-1.570796326794897","1.570796326794897","-1.268796322229554","1.570796326794897","0.15720369986700539","0.79500001494308004","SIDE","-1.6684998989254907e-16","0.11863153474161456","0.0082083790974065689","0.99290441709030708","-19.648973866901677","46.707386399286868","-140.22507703369905","0.001936863","0.000010543","129"
"130","salt","0.755","-0.40779630741127121","0.90900001383852147","0.081203699516838798","2.217082985050963e-16","-0.38179630617634469","0.74200001242570723","SIDE","0.71385505259937954","-0.69942157848981035","0.034934501873638529","1.3608436937017716e-16","7.8277919974486485","-130.78178749880459","13.919383130231079","0.008186375","0.000068233","130"
"131","salt","0.0","-0.2037963042410581","0.51400000811554514","-0.1407963045083469","0.3890000086976218","-0.3767963059388571","0.71700001123827128","SIDE","0.7073071202473622","-0.7057424219587568","0.040549617694518751","2.5016260897777134e-16","5.7552470168751331","-130.66071596066365","-0.94208043629876015","0.015282098","0.000083216","131"
"132","salt","0.75500000000000145","-0.17679630295862489","0.4300000073853894","-0.1317963040808704","0.3600000073201986","-0.37679630593885921","0.71700001123827106","SIDE","0.7073071202473622","-0.7057424219587568","0.040549617694518751","2.5016260897777134e-16","5.7552470168751331","-130.66071596066388","-0.94208043629876059","0.009934361","0.000066805","132"
"133","salt","0.0","0.26420370168960389","-1.6476830351152729e-15","-0.92479631566931819","1.4720000242814399","-1.071796316132188","1.1550000190036549","SIDE","0.702089446394632","-0.089689363200689182","0.078080962156036854","-0.70208944639463255","-25.941303665911519","46.2720061396573","-166.17967461736362","0.007266169","0.000074871","133"
"134","salt","0.75500000000000045","-0.6287963113889613","1.1630000193836161","0.033203697236951123","0.069000003277320116","-0.20779630443105171","0.45000000833533199","SIDE","0.50014166110843838","-0.47036234269173843","0.5277081619843712","0.50014166110843872","5.7380383958052272","-130.9602219634196","-0.94225045372245542","0.013056575","0.000075182","134"
"135","salt","0.75499999999999923","-0.40779630741127848","0.79900001513305374","-0.3037963057311765","0.60200000903568973","0.083203699611825138","-5.2317157286700658e-16","TOP","0.49894374656056401","0.51141682124069943","0.49047233407020369","-0.49894374656056423","4.3156814275631117","275.27621904219592","19.763120571333179","0.011645925","0.000063650","135"
"136","salt","0.75500000000000034","0.038203697474458002","-7.9734383549842006e-15","-0.92479631566931908","1.499000025563868","0.11620370117923901","0.0","TOP","1.3686281628270048e-16","-0.024912926325406037","-0.70396782227621835","0.7097947952060395","26.221003311821978","275.47749172362956","-24.914381810139989","0.004707994","0.000030337","136"
"137","salt","0.75500000000000012","0.098203700324289517","0.0","-0.22679630533349979","0.52100000844802763","-0.44379630912118739","0.86500001500826751","SIDE","0.70440850981402581","-0.70935073793488235","0.0251034239262574","-4.9253336716071189e-18","11.851744213400627","-130.55653155088109","-21.819471736067829","0.004015997","0.000026015","137"
"138","salt","0.75500000000000134","-0.91379631514685034","1.465000023948962","0.035203697331945297","0.056000002659858647","0.12820370174920831","1.5393079994037141e-16","SIDE","4.2551853219848654e-16","0.02510342392625757","0.70935073793488246","0.7044085098140257","11.798695013773399","-132.05554973315046","-21.808045781449373","0.007076018","0.000021215","138"
"139","salt","0.75499999999999978","-0.68879631097918004","1.2820000217761831","0.02320370002160959","0.018000000854920491","-0.072796301278520673","0.14200000348500871","TOP","-1.9589148789076232e-16","0.01480998890673222","0.70844261571760192","-0.70561301324719417","4.3156814275608886","275.27621904219581","19.763120571334731","0.008840903","0.000077889","139"
"140","salt","0.75500000000000078","-0.89879631443438868","1.4960000254213881","-0.012796301688317611","0.01500000071245987","0.1132037010367463","0.0","TOP","-1.9464859063376484e-16","0.03561102771711689","0.71296626205353786","-0.70029348410386982","28.057636217730774","274.23872164834751","21.698009297765726","0.005203223","0.000024368","140"
"141","salt","0.75499999999999989","-0.26279630704340978","0.53300000901799538","-0.45679630973865792","0.88200001581572129","0.10720370075176749","2.986736984752821e-16","TOP","0.50114277916848171","0.48603198785582147","-0.51135578275355309","0.50114277916848171","4.9008057728188179","275.35445214528585","-24.514182250033372","0.006005059","0.000019015","141"
"142","salt","0.0","1.0322037120906149","1.570796326794897","-0.43179630855121592","0.84500001405831426","-0.08179630170599847","0.1430000035325065","TOP","2.4476751623199788e-17","-0.017906627097562872","-0.70525965607042151","0.70872291498541207","4.8982676052699023","275.25448540319275","-24.513724615958512","0.007464276","0.000018875","142"
"143","salt","0.755","0.073203699136849251","-6.8845467363815463e-16","-0.1477963048408279","0.2490000053076096","-0.47479630733398531","0.95800001616589792","TOP","0.7002934841038696","0.71296626205353786","-0.035611027717117098","-2.0312530140434608e-16","28.042673314400243","273.93915025302817","21.692255875734485","0.005354186","0.000049957","143"
"144","salt","0.0","-0.046796303303215318","0.1320000030100342","-0.01179630164080496","0.061000002897344537","-0.4927963081889381","0.92600001464598092","TOP","1.3718364310781659e-16","-0.024038349723642959","-0.70566793324749277","0.7081348217174297","-10.609964017009533","276.17102817344943","-1.164704718268067","0.015175288","0.000080758","144"
"145","salt","0.75500000000000056","-0.076796301468504621","0.20300000312272359","-0.054796303683195387","0.17500000505242069","-0.49279630818893438","0.92600001464598214","TOP","1.3718364310781657e-16","-0.024038349723642966","-0.70566793324749266","0.70813482171742992","-10.60996401700953","276.17102817344943","-1.164704718268067","0.015924243","0.000126634","145"
"146","salt","0.0","-0.45879630983364927","0.88500001595820554","1.0982037152254469","1.570796326794897","-0.071796301231023332","0.13900000334251661","TOP","-1.9589148789076232e-16","0.01480998890673222","0.70844261571760192","-0.70561301324719417","4.3198614761812415","275.47617358618794","19.763964681601749","0.005028070","0.000040848","146"
"147","salt","0.75500000000000012","0.045203697806922197","1.4136372347088739e-16","-1.570796326794897","1.570796326794897","-0.45879630983365183","1.1000000196509161","SIDE","0.50014166110843827","-0.5277081619843712","-0.47036234269173871","-0.50014166110843861","7.1726636827620487","-105.99140641878486","-0.92807666883987738","0.006431263","0.000038919","147"
"148","salt","0.0","-0.19879630400357021","0.47500000952277599","1.0982037152254469","1.5707963267948959","-0.38179630617634541","0.74200001242570734","SIDE","0.71385505259937954","-0.69942157848981035","0.034934501873638536","1.4094452541911206e-16","7.8277919974486521","-130.78178749880453","13.919383130231081","0.003797745","0.000026141","148"
"149","salt","0.755","-1.467796325162289","1.5707963267948959","-1.4777963223776289","1.570796326794897","0.14520369929704061","1.5337963282971221","SIDE","2.9751071197263322e-16","0.65882876314271566","-0.013469661734699843","0.75217234000499666","-126.85655108774108","51.692867464225863","-37.754068582432566","0.010392609","0.000041216","149"
"150","salt","0.75500000000000023","0.0032036990716786031","-5.7894152122604022e-15","-0.67279631021921238","1.273000021348708","-0.08579630189598722","0.17400000500492349","SIDE","3.3294278623410276e-16","0.014747613942756645","0.70545888069169571","0.70859740017602035","-4.1530966197054182","-129.83169302612183","18.052953262445133","0.008218137","0.000050613","150"
"151","salt","0.75500000000000012","-0.54579631070630319","1.057000017608513","-0.65379631257639359","1.2310000193538211","0.099203700371782763","-1.5822857352865499e-16","TOP","8.34348075015353e-17","-0.040572604680145938","-0.70614249702314691","0.70690638534913774","28.9868841991604","273.67237789785224","-0.71255692876131538","0.012893095","0.000074948","151"
"152","salt","0.0","-0.030796302543256399","0.084000003989785021","-0.0027963012133286791","0.019000000902451169","-0.53679631027882513","1.0450000170385469","SIDE","3.1864674708657314e-16","0.024108399816589052","0.70772431835218119","0.70607724384179371","-24.401506569145418","-128.69244936886682","0.014076120172539505","0.013868767","0.000066709","152"
"153","salt","0.75500000000000023","-0.041796303065740358","0.087000004132275557","-0.01579630183079539","0.02900000137742809","-0.53679631027882535","1.0450000170385509","SIDE","3.1864674708657314e-16","0.024108399816589052","0.70772431835218119","0.70607724384179371","-24.401506569145418","-128.6924493688667","0.014076120172539524","0.014661645","0.000114576","153"
"154","salt","0.0","-0.46579631016613132","0.92000001436099166","1.0982037152254429","1.570796326794897","-0.084796301848490241","0.18200000538490499","SIDE","2.130163673140644e-16","0.017988762288826253","0.70849458336442905","0.70548694514822896","-5.3863867486045853","-129.81073155618836","-22.659391449729089","0.003559134","0.000016203","154"
"155","salt","0.75500000000000089","-0.42579630826624182","0.85100001434330441","-0.32479630672861981","0.68500001297798363","0.11220370098924","4.5568294434365915e-16","SIDE","-0.49885460295289474","0.51370130013050741","0.4882613485313434","0.49885460295289474","-5.3863867486081407","-129.81073155618793","-22.659391449728421","0.010951413","0.000044742","155"
"156","salt","0.0","-0.83979631489166373","1.4540000234264889","-0.80479631322924861","1.4240000220015641","0.1002037004192799","0.0","TOP","8.8342737354566771e-17","-0.040572604680145938","-0.70614249702314691","0.70690638534913774","29.044246269377016","274.67073124037336","-0.71199020402084567","0.004031261","0.000032393","156"
"157","salt","0.755","-0.30179630563617987","0.64900001126806206","-0.45279630954866501","0.8920000162907038","0.086203699754317797","-6.5564812406845019e-16","SIDE","0.50105402679562161","-0.4884066205601249","0.50926289621061416","0.50105402679562194","-4.1530966197076395","-129.83169302612239","18.05295326244924","0.007150939","0.000019516","157"
"158","salt","0.0","1.032203712090614","1.570796326794897","-0.44979630940617132","0.8960000164806855","-0.085796301895988317","0.17400000500492549","SIDE","3.3049467751179319e-16","0.014747613942756645","0.70545888069169571","0.70859740017602035","-4.1510065953952466","-129.73171575412502","18.053375317578862","0.005925998","0.000016911","158"
"159","salt","0.75499999999999956","-0.70879631192913262","1.290000022156166","0.1022037005142771","-5.9531709491621866e-15","-0.18979630357608601","0.39300000888760761","TOP","0.50072693443072147","0.51598026096331995","0.48198490076707629","-0.50072693443072158","-10.609964017010533","276.17102817345199","-1.164704718265291","0.007363734","0.000056303","159"
"160","salt","0.75500000000000023","-0.53579631023132679","1.0350000165635731","-0.63079631148395121","1.1700000197160869","0.1072037007517625","0.0","SIDE","1.7168022184749015e-16","0.040549617694518876","0.70574242195875692","0.70730712024736198","5.7380383958102223","-130.96022196341903","-0.94225045372045702","0.010546261","0.000089899","160"
"161","salt","0.0","-0.79379631270678352","1.361000022268861","-0.74479631363903365","1.286000021966172","0.107203700751763","0.0","SIDE","1.7168022184749015e-16","0.040549617694518876","0.70574242195875692","0.70730712024736198","5.7380383958102161","-130.96022196341903","-0.94225045372045668","0.007117584","0.000031818","161"
"162","salt","0.0","-0.47079630714399168","0.95800001616589059","-0.45479630964365969","0.92700001469347459","-0.078796301563506962","0.14900000381749001","SIDE","3.5065560090271544e-16","0.013293635426795269","0.70743332325527508","0.70665505899635139","-3.5680581709721677","-129.56705316518057","-0.43430589060181141","0.017025583","0.000080261","162"
"163","salt","0.755","-0.38379630627133032","0.80700001225340967","-0.38379630627132788","0.8100000123959058","-0.078796301563505561","0.14900000381749101","SIDE","3.5310773797196512e-16","0.013293635426795267","0.70743332325527519","0.70665505899635128","-3.5643005849673721","-129.36708968882559","-0.43456134028766014","0.016239298","0.000118688","163"
"164","salt","0.75500000000000211","-0.77179631166183627","1.376000022981323","0.058203698424389487","2.6670099760243281e-14","0.0052036991666511174","0.0","TOP","0.70872291498541207","0.7052596560704214","-0.017906627097563219","-2.1784308944647811e-16","4.9008057728180399","275.35445214528767","-24.514182250031595","0.007012508","0.000025868","164"
"165","salt","0.0","-0.55979631137126451","1.0470000171335401","1.0982037152254469","1.5707963267948959","0.0052036991666508719","0.0","TOP","0.70872291498541207","0.7052596560704214","-0.017906627097563223","-2.1784308944647811e-16","4.9033439403672912","275.45441888737997","-24.514639884105119","0.002565558","0.000007201","165"
"166","salt","0.755","-0.82979631441668666","1.431000022334048","0.063203698661874017","-7.3844003902203259e-16","0.11020370089424721","3.8699139927624418e-16","TOP","0.50190071294110694","0.48016432172474455","-0.51539652001253611","0.50190071294110739","26.217466698517097","275.3775571781415","-24.913620079832935","0.004727489","0.000029534","166"
"167","salt","0.75500000000000167","0.099203700371772549","-2.249960689188503e-15","-1.570796326794897","1.570796326794897","-0.44379630912118828","1.069000018178484","SIDE","0.4992720071620399","-0.48338945172358733","0.51748387771132076","0.49927200716204001","-23.559919484358005","-103.98688407022428","-0.057855407840849082","0.000998117","0.000044959","167"
"168","salt","0.0","-1.3237963215822841","0.0","-1.570796326794897","0.58300001139286706","-0.45079630945366922","1.570796326794897","SIDE","0.47415163112805953","0.52816055360106273","-0.52096726482286682","-0.47415163112806052","131.3377910336722","113.48370222287161","29.779066593116791","0.001959802","0.000018199","168"
"169","salt","0.0","1.0322037120906149","1.570796326794897","-0.54179631051630961","1.0350000165635711","-0.01179630164080496","0.046000002184882732","SIDE","0.70548694514822907","-0.70849458336442894","0.017988762288826267","1.5736974755668779e-16","-5.3838485810550063","-129.71076481409682","-22.65984908380284","0.007842289","0.000015548","169"
"170","salt","0.755","0.034203697284448463","0.0","-0.76179631444648932","1.379000023123822","-0.011796301640806349","0.046000002184882698","SIDE","0.70548694514822907","-0.70849458336442894","0.017988762288826267","1.5736974755668779e-16","-5.3863867486042549","-129.81073155618884","-22.659391449729089","0.004161277","0.000032708","170"
"171","salt","0.0","-0.4507963094536695","0.89600001648068139","-0.44079630897869537","0.88700001605320689","-0.079796301611001513","0.14600000367499841","TOP","1.2013350777714732e-16","-0.013276666891610086","-0.70653032668200877","0.70755821498648652","4.0448514274656917","275.56109837143759","-0.95184969781907902","0.015394587","0.000078570","171"
"172","salt","0.0","-0.087796301990982401","0.1390000033425165","1.09820371522545","1.5707963267948959","-0.46179630997614302","0.9250000145984828","TOP","0.70979479520603939","0.70396782227621835","-0.024912926325406291","-2.7861359028978312e-16","26.182100565430463","274.378211723297","-24.90600277675286","0.004970897","0.000028277","172"
"173","salt","0.0","-1.570796326794897","1.5707963267948959","-1.4517963244023291","1.5707963267948959","0.14620369934453431","1.5487963290095821","SIDE","2.9751071197263322e-16","0.65882876314271566","-0.013469661734699843","0.75217234000499666","-126.16277716304003","51.678683353560437","-37.66200005599157","0.005342338","0.000008094","173"
"174","salt","0.755","-0.37779630598635161","0.79100001475307924","-0.38179630617633697","0.80900001234840835","-0.080796301658500727","0.15000000386498821","TOP","1.1523009929644743e-16","-0.013276666891610082","-0.70653032668200877","0.70755821498648652","4.0354574121528328","275.06118700346292","-0.95121107018430451","0.017334759","0.000127532","174"
"175","salt","0.0","1.0322037120906149","1.570796326794897","-0.042796303113225402","0.0030000001424914349","-0.4747963073339852","0.95800001616589914","TOP","0.7002934841038696","0.71296626205353786","-0.035611027717117098","-1.9817102576033765e-16","28.042673314400247","273.93915025302817","21.692255875734489","0.008146680","0.000020942","175"
"176","salt","0.0","-0.56079631141876118","1.064000017940993","1.098203715225446","1.570796326794897","-0.01379630173579988","0.061000002897344578","SIDE","0.70859740017602024","-0.70545888069169571","0.014747613942756531","1.0037245761469275e-16","-4.1530966197048658","-129.83169302612197","18.052953262444248","0.004919960","0.000015667","176"
"177","salt","0.75499999999999989","-0.73979631340154928","1.337000021128909","0.017203699736617652","0.036000001709917073","-0.01379630173580098","0.061000002897344613","SIDE","0.70859740017602024","-0.70545888069169571","0.014747613942756531","1.0037245761469275e-16","-4.1530966197048667","-129.83169302612197","18.052953262444245","0.005217971","0.000031598","177"
"178","salt","0.755","-0.43779630883620319","0.91000001388601681","-0.45279630954866318","0.93600001512095399","-0.0067963014033171447","0.0","TOP","0.70755821498648641","0.70653032668200877","-0.013276666891610379","-1.7897440954554596e-16","4.0335786090918138","274.96120472986394","-0.95108334465770472","0.010304267","0.000058907","178"
"179","salt","0.755","-0.55979631137126296","1.0740000184159639","-0.63279631157894278","1.178000020096087","0.13920369901205151","0.0","TOP","0.7081348217174297","0.70566793324749277","-0.024038349723643194","-2.5966903873979565e-16","-10.613368495720922","276.07108655999389","-1.1644137331036586","0.001681710","0.000028151","179"
"180","salt","0.755000000000003","-0.75279631401901548","1.3060000196564929","0.032203697189454733","0.07900000375230716","0.084203699659321035","1.0469208858167679e-15","SIDE","0.50477174847730066","-0.46986331788611968","0.51926816423056799","0.504771748477301","7.8028538252237212","-131.28107315766269","13.909794093514531","0.004053960","0.000027073","180"
"181","salt","0.0","1.0322037120906129","1.570796326794897","-0.086796301943481327","0.1980000061448656","-0.44379630912118712","0.86500001500826706","SIDE","0.70440850981402581","-0.70935073793488235","0.0251034239262574","-9.8506673432142379e-18","11.851744213400629","-130.55653155088109","-21.819471736067825","0.002809998","0.000007001","181"
"182","salt","0.0","-0.84379631508165343","1.399000024073757","-0.8247963141792003","1.3750000229338171","0.1392036990120509","2.029961892742394e-16","TOP","0.7081348217174297","0.70566793324749266","-0.024038349723643198","-2.5966903873979565e-16","-10.569110272469983","277.37032753493042","-1.168196540234528","0.004451172","0.000032562","182"
"183","salt","0.755","-0.5807963091090852","1.1180000172462341","-0.62379631115147072","1.179000020143588","0.14220369915454439","0.0","SIDE","0.70607724384179349","-0.70772431835218153","0.024108399816589073","9.8273864006046093e-17","-24.408315490105139","-128.89233152538316","0.014658087383628107","0.006057905","0.000020939","183"
"184","salt","0.75500000000000023","-0.71779631235660213","1.3310000208439301","0.1072037007517605","-6.1976312857073961e-16","-0.2197963050010191","0.48200000985526409","SIDE","-0.49927200716203968","0.51748387771132098","0.48338945172358755","0.49927200716203979","-24.408315490103583","-128.89233152538236","0.014658087377965772","0.007692197","0.000059614","184"
"185","salt","0.75500000000000023","-0.047796303350712277","-6.9458784730488798e-16","-0.82679631427419142","1.3710000227438239","0.11220370098924939","0.0","SIDE","2.6730858269141932e-16","0.034934501873638772","0.69942157848981024","0.71385505259937965","7.7080887707521306","-133.17835866131918","13.873355753975382","0.003696333","0.000018707","185"
"186","salt","0.0","-0.87379631324695195","1.447000023094007","-0.85479631560412328","1.4420000228565211","0.14220369915454451","0.0","SIDE","0.70607724384179349","-0.70772431835218153","0.024108399816589073","9.8273864006046093e-17","-24.449169234644465","-130.09163088686338","0.018149909350533497","0.004123936","0.000010385","186"
"187","salt","0.75500000000000067","0.045203697806918498","4.6642192780776259e-16","-1.570796326794897","1.5707963267948959","0.1152037011317564","-1.2223533708746251e-15","SIDE","-0.49809203401500812","0.51933751832269437","0.48383591574417956","0.49809203401500834","12.679665333946703","-107.16185600626498","-21.99779278929342","0.000852445","0.000011557","187"
"188","salt","0.0","1.0322037120906149","1.570796326794897","-0.52579630975635194","0.99500001792330506","-0.0037963012608249551","-4.2841403971597409e-16","TOP","0.70561301324719383","0.70844261571760214","-0.014809988906732557","-2.5568015061307466e-16","4.3177714518718417","275.37619631419165","19.763542626468467","0.004892818","0.000008353","188"
"189","salt","0.75499999999999956","-0.0017963011658288161","0.0","-0.73079631297407122","1.334000020986428","-0.0037963012608257601","0.0","TOP","0.70561301324719383","0.70844261571760214","-0.014809988906732557","-2.5568015061307466e-16","4.3135914032514933","275.17624177019837","19.762698516201446","0.003586931","0.000021914","189"
"190","salt","0.0","-0.82179631403671238","1.364000022411348","1.098203715225448","1.570796326794897","0.12820370174921","0.0","SIDE","4.2551853219848654e-16","0.02510342392625757","0.70935073793488246","0.7044085098140257","11.798695013773395","-132.05554973315043","-21.808045781449376","0.001587608","0.000006700","190"
"191","salt","0.0","-0.83879631484416473","1.4110000213840961","1.09820371522545","1.570796326794897","0.11420370108424339","0.0","TOP","-1.9464859063376484e-16","0.03561102771711689","0.71296626205353786","-0.70029348410386982","28.082574389959369","274.73800730720467","21.707598334485724","0.001459649","0.000006145","191"
"192","salt","0.0","-0.54479631065881551","1.0670000180834871","-0.52779630985134574","1.0290000162785899","-0.0057963013558205928","0.0","TOP","0.70755821498648641","0.70653032668200877","-0.013276666891610379","-1.7652270530519602e-16","4.0429726244046726","275.46111609783884","-0.9517219722922573","0.009221355","0.000043858","192"
"193","salt","0.75500000000000045","-0.4347963086937135","0.87500001548323347","-0.42079630802874601","0.86200001486577627","-0.024796302258271501","0.079000003752298473","SIDE","0.70665505899635139","-0.70743332325527497","0.013293635426795087","-5.6461266978168711e-17","-3.5736945801587714","-129.86699998596561","-0.4339227140215684","0.003769203","0.000032304","193"
"194","salt","0.0","-0.54279631056380917","1.0560000175610129","-0.5307963099938372","1.0460000170860471","-0.02479630225827149","0.079000003752298736","SIDE","0.70665505899635139","-0.70743332325527497","0.013293635426795087","-5.6461266978168711e-17","-3.5718157770961998","-129.76701771237063","-0.43405043954839007","0.001186356","0.000022534","194"
"195","salt","0.0","1.0322037120906149","1.570796326794897","-0.77279631170933427","1.316000020131471","0.11220370098924939","0.0","SIDE","2.7216873874035423e-16","0.034934501873638772","0.69942157848981024","0.71385505259937965","7.8028538252199446","-131.28107315766223","13.90979409351131","0.003104662","0.000005575","195"
"196","salt","0.0","1.0322037120906149","1.5707963267948959","-0.80879631341924185","1.3670000225538379","0.1162037011792396","0.0","TOP","1.4175077400708266e-16","-0.024912926325406034","-0.70396782227621846","0.7097947952060395","26.224539925130518","275.57742626911454","-24.915143540447708","0.004899132","0.000006921","196"
