ipa320/cob_manipulation/cob_grasp_generation/files/database/hotpot2/hotpot2.csv
"id","object","sdh_knuckle_joint","sdh_finger_12_joint","sdh_finger_13_joint","sdh_finger_22_joint","sdh_finger_23_joint","sdh_thumb_2_joint","sdh_thumb_3_joint","direction","qw","qx","qy","qz","pos-x","pos-y","pos-z","eps_l1","vol_l1"
"0","hotpot2","0.0","-0.98539999999999994","0.94720000000000026","1.098600033792106","1.570796326794897","-0.57439999351706639","0.94719999999999971","TOP","-0.15750364024575975","-0.53918790326466615","0.81219555009352373","-0.15750364024575986","25.324171656343175","90.971782425741992","230.43695382771824","0.000017165","0.000000208","0"
"1","hotpot2","3.3306690738754691e-16","1.0326000306572709","1.570796326794897","-0.98540000000000028","0.94720000000000026","-0.20339998567439629","0.94719999999999938","SIDE","0.70557313478504369","0.053488297284806668","-0.038368020443919189","0.7055731347850438","-28.294553104238474","-9.0990257045164959","-208.70322863009437","0.000180368","0.000000592","1"
"2","hotpot2","0.0","-0.94339999800510732","1.3082000073676869","-0.814399995137564","1.5402000118678389","-0.98540000000000061","1.382200007622878","SIDE","0.71223195364013292","0.16676052779961895","0.68184790868781886","-7.793970903375919e-17","-161.26177727160064","15.78421580463614","48.493952778987655","0.031098434","0.000473236","2"
"3","hotpot2","0.0","-0.95539999857507718","1.353200006245447","-0.82239999551753706","1.5707963267948959","-0.98540000000000016","1.4142000091427931","SIDE","2.1566536583795311e-16","-0.68694668292841954","0.16453796154899805","0.70783579594630697","152.45193137931039","-8.5229116320185785","50.196472449562727","0.027360681","0.000312891","3"
"4","hotpot2","0.0","-0.5083999903822346","1.0992000039599801","-0.80339999461508926","0.94719999999999882","-0.84039999637250551","0.94720000000000149","SIDE","0.70739606982358005","0.22042882136149963","-0.67156677636057371","-1.1770877786704824e-16","159.52768789115134","87.568038305211758","85.817732813816988","0.009028577","0.000087524","4"
"5","hotpot2","0.0","-0.81039999494757065","0.94719999999999605","-0.63939999334476594","0.94719999999999849","-0.81539999518507156","0.94719999999999971","SIDE","0.71223195364013292","0.16676052779961895","0.68184790868781886","-7.793970903375919e-17","-185.45605657985266","21.701445638104389","48.131544373727017","0.011840310","0.000101030","5"
"6","hotpot2","0.0","-0.80339999461509815","0.94719999999999427","-0.64139999343976817","0.94719999999999915","-0.80839999485257741","0.94719999999999949","SIDE","2.1566536583795311e-16","-0.68694668292841954","0.16453796154899808","0.70783579594630708","176.58915562072642","-14.304276871607959","50.145268093463976","0.009907424","0.000081190","6"
"7","hotpot2","0.0","-0.98540000000000016","0.94719999999999938","-0.78639999380764203","0.94719999999999971","-0.64239999348726429","0.94720000000000448","SIDE","0.0","0.6682613739900507","-0.22834896470598373","0.70801376141331818","-189.60436476328195","104.56081755142051","65.446655550928526","0.008418808","0.000053475","7"
"8","hotpot2","0.0","-0.89039999548775206","0.94719999999999882","-0.77039999630730693","0.94719999999999938","-0.66739999467469735","0.94719999999999971","SIDE","0.70560362748644223","0.19914745522798857","0.6800469189358852","-1.1800779304877747e-16","-229.72037252599841","42.230619411132594","66.823260550710089","0.001640053","0.000107386","8"
"9","hotpot2","0.0","-0.98540000000000016","0.94719999999999938","-0.79739999433012188","0.94719999999999949","-0.65439999405723148","0.94719999999999949","SIDE","0.70041502921121612","-0.22878721906296914","-0.67607336528551698","-3.9627327310332425e-17","180.42290433456728","-96.807949692925916","69.473746473643189","0.000193030","0.000050848","9"
"10","hotpot2","0.0","1.0326000306572689","1.5707963267948959","-0.98540000000000028","0.94720000000000004","-0.39939998846463992","0.94720000000000126","SIDE","-0.49933721742181786","-0.38201923336502114","0.59614259362511046","-0.49933721742181808","40.177950814589785","254.62900907798792","31.028369714649042","0.000730210","0.000005387","10"
"11","hotpot2","0.0","-0.98540000000000028","0.94720000000000004","-0.90239999605771626","0.9472000000000016","-0.5353999916646639","0.94719999999999949","SIDE","0.71171225767795387","-0.21265777017179704","-0.66950902537345136","-3.8998310505687772e-17","195.9402025954416","-98.066511849992111","47.822679377694669","0.000000503","0.000065222","11"
"12","hotpot2","0.0","-0.98540000000000016","0.94719999999999938","-0.797399994330105","0.94719999999999938","-0.67439999500718095","0.94719999999999949","SIDE","0.70560362748644223","0.19914745522798846","0.68004691893588509","-1.5734372406503659e-16","-205.81456572600641","35.229954520480945","66.717466740569392","0.010983830","0.000109363","12"
"13","hotpot2","0.0","-0.60439999168236225","0.94719999999999827","-0.44139999045953138","0.94719999999999971","-0.98540000000000016","0.94719999999999938","SIDE","0.70487769334203421","-0.22188418259670534","-0.67373202903098295","-3.937644200943784e-17","203.99256165903222","-80.931035283627381","107.2291475249975","0.010086419","0.000084349","13"
"14","hotpot2","0.0","-0.60839999187235483","0.94719999999999915","-0.43739999026953902","0.94720000000000149","-0.98539999999999994","0.94719999999999938","SIDE","1.1816792833356956e-16","0.67529617530156194","-0.2178234995288266","0.70464742863087027","-210.56647676357912","85.686803652236108","107.34947301576854","0.009480177","0.000071728","14"
"15","hotpot2","0.0","-0.98540000000000016","0.94720000000000026","-0.81939999537504582","0.94719999999999938","-0.64939999381975089","0.94719999999999971","SIDE","2.5071933260573259e-16","-0.6040969614039704","0.1858922779526431","0.77492639793729257","202.99459029425219","-33.107495264770755","26.696900347414847","0.013546718","0.000161809","15"
"16","hotpot2","0.0","-0.6223999925373187","0.94719999999999782","-0.48139999235942998","0.94720000000000026","-0.87439999798741164","0.94719999999999949","SIDE","3.9005424140450208e-17","-0.67593563925396671","0.19173266790652724","0.7115824587802716","223.35072929389148","-34.447130646277351","27.797267311313494","0.000806727","0.000085628","16"
"17","hotpot2","0.0","-0.63439999310728512","0.94719999999999815","-0.4793999922644353","0.94719999999999949","-0.98540000000000016","0.94719999999999993","SIDE","0.71456178737743126","0.18404147406379928","0.67492976511959735","-1.9421396515965966e-16","-210.10547738063988","32.880353574247621","26.489834870542563","0.014844886","0.000118234","17"
"18","hotpot2","0.0","-0.98540000000000016","0.94720000000000004","-0.93139999743514446","0.94719999999999938","-0.50939999042972517","0.94719999999999938","SIDE","2.7540296220983241e-16","-0.68130504553560534","0.19527658447511878","0.70547182118314156","218.54512836583456","-33.71004868039001","86.887212148252388","0.000597391","0.000088646","18"
"19","hotpot2","0.0","-0.63539999315477791","0.94719999999999849","-0.48139999235942849","0.94719999999999949","-0.98540000000000016","0.94719999999999949","SIDE","0.0","-0.67593563925396671","0.19173266790652724","0.7115824587802716","199.3881091959629","-27.65000853199226","28.113604166286382","0.010677420","0.000060141","19"
"20","hotpot2","0.0","-0.83039999589752889","1.0802000030575289","-0.98539999999999994","0.94719999999999938","-0.58139999384954666","0.94720000000000248","SIDE","0.70671316698860165","0.22213085871423266","-0.67172492972333409","-1.5709669445610637e-16","162.75901885932643","88.963689930695253","66.096841458164619","0.010272621","0.000286074","20"
"21","hotpot2","0.0","-0.98540000000000016","1.5517963291520811","-0.75139999540485869","1.5242000111078871","-0.83839999627750583","0.94719999999999949","SIDE","0.64655763357196194","-0.17073174798235022","-0.74351455715454273","4.2928231258040989e-17","143.23655750226749","-47.430880572068268","108.83324122591092","0.023631446","0.000375290","21"
"22","hotpot2","0.0","0.067600017418524491","0.94719999999999915","-0.98539999999999994","0.95420000033248076","-0.57239999342206904","0.95520000037997888","SIDE","0.50491045303696813","-0.5848212151333454","-0.38485713603617178","-0.50491045303696802","-32.669767053036743","-183.16477355102907","47.707715847593626","0.014210074","0.000229868","22"
"23","hotpot2","0.0","-0.79939999442508991","0.94719999999999827","-0.43139998998455781","0.94719999999999949","-0.23639998724181099","0.94719999999999815","TOP","-1.0608474239807131e-16","0.78490765933556705","-0.61440473366682313","0.080167259926740439","-31.385991562532293","64.297711740107786","341.31040956304395","0.000039497","0.000017066","23"
"24","hotpot2","0.0","-0.98540000000000028","0.94719999999999949","-0.92739999724515143","0.94719999999999949","-0.51439999066721376","0.94719999999999949","SIDE","0.69753252296261581","0.22492442121698944","0.68033622874988087","-1.1937325372762501e-16","-223.61351960072398","47.760159553017992","91.450342059449767","0.000570456","0.000087574","24"
"25","hotpot2","0.0","-0.81739999528006335","0.94719999999999915","-0.59539999125488363","0.94719999999999938","-0.77639999659229131","0.94719999999999938","SIDE","0.67685000317268518","-0.22742069477099794","-0.70010992050892462","-8.2013963169170937e-17","155.44276952914493","-86.309997446671005","99.459680490514572","0.010546338","0.000115925","25"
"26","hotpot2","0.0","-0.98539999999999994","1.39720000833534","-0.75739999568983807","1.570796326794897","-0.82439999561254285","1.147200006239846","SIDE","0.67685000317268518","-0.22742069477099794","-0.70010992050892462","-4.1006981584585468e-17","131.83459592560615","-78.641219893442809","97.373514163434422","0.000001670","0.000209284","26"
"27","hotpot2","0.0","-0.63139999296479388","0.94719999999999427","-0.48539998928978828","0.94719999999999849","-0.98540000000000061","0.9472000000000016","SIDE","3.9005424140450208e-17","-0.67593563925396671","0.19173266790652724","0.7115824587802716","204.96436283340688","-47.198343079188774","27.977722815170292","0.007351921","0.000072885","27"
"28","hotpot2","0.0","-0.98540000000000016","1.4262000097127689","-0.73339999454990157","1.570796326794897","-0.85439999703746417","1.468200008448026","SIDE","2.7409408801736953e-16","0.66809278526127391","-0.22626748458102308","0.70884064196630958","-136.82483773288129","86.108517198751557","85.276448866323349","0.000720620","0.000203136","28"
"29","hotpot2","0.0","-0.85839999722745464","0.94719999999999938","-0.764399996022323","0.94719999999999971","-0.64239999348725596","0.94719999999999949","SIDE","0.70041502921121634","-0.22878721906296917","-0.67607336528551698","-7.925465462066485e-17","204.01426587907508","-104.79140574787272","69.942990434761711","0.000046642","0.000049477","29"
"30","hotpot2","0.0","-0.36939999029934451","0.94719999999999882","-0.5923999911123935","0.94719999999999882","-0.98540000000000016","0.94719999999999949","SIDE","0.70554903806628344","0.18686763966335573","-0.68357957849133288","-3.9338974498072225e-17","186.69354328995533","87.58310659780382","106.67633780578259","0.006208080","0.000043330","30"
"31","hotpot2","0.0","-0.82139999547004638","0.94719999999999427","-0.63839999329727082","0.94719999999999949","-0.85939999727495164","0.94720000000000026","SIDE","3.1536402031870812e-16","-0.67918502678961734","0.20728045312386983","0.70408984734730407","171.26735064694864","-41.276144415086101","51.862182944195197","0.009991456","0.000073237","31"
"32","hotpot2","0.0","-0.7113999935049572","0.94719999999999527","-0.54839999228212855","0.94719999999999915","-0.98539999999999994","1.570796326794897","TOP","-1.7024484814611324e-16","0.89668302769985597","-0.28736080617335341","-0.33672439013296884","115.64751022525414","-28.915652399255222","192.27759634079305","0.000784166","0.000077870","32"
"33","hotpot2","0.0","-0.029399983929099829","0.94719999999999394","-0.98539999999999994","0.94720000000000026","-0.50139999004975211","0.94719999999999827","SIDE","0.52367570720518852","0.58658206541027702","0.3277941242690362","-0.52367570720518897","69.132559827945656","235.88150533392042","66.808078285922988","0.007817182","0.000029197","33"
"34","hotpot2","0.0","-0.64239999348726717","0.94719999999999793","-0.47739999216943979","0.94719999999999938","-0.98540000000000016","0.94720000000000004","SIDE","0.71429404077393743","0.20900523184322187","0.66790780529725924","-2.3314411739083597e-16","-212.20727946866492","58.789561229120963","26.441690175196118","0.010307384","0.000045336","34"
"35","hotpot2","0.0","-0.98540000000000028","0.94720000000000026","-0.90539999620020672","0.94720000000000149","-0.52139999099970069","0.94719999999999949","SIDE","8.0049061540121469e-17","0.67076866139756186","-0.26301507710819172","0.69346411017492104","-200.8631130894135","118.12359513100083","58.333430111589848","0.000843142","0.000041017","35"
"36","hotpot2","0.0","-0.97939999971501635","1.3492000060554581","-0.76739999616481536","1.4652000083055341","-0.98540000000000028","1.2832000061802531","SIDE","2.7594351777886964e-16","-0.67918502678961734","0.20728045312386983","0.70408984734730407","147.52914117676423","-34.031481147718161","51.65084129634301","0.022492602","0.000419073","36"
"37","hotpot2","0.0","-0.82639999570753053","0.94719999999999394","-0.6393999933447696","0.94719999999999938","-0.86339999746494334","0.94720000000000237","SIDE","0.71241008358441427","0.21700780995887833","0.66736757729462648","-2.727207738720628e-16","-178.95262434056477","50.989260901209818","48.019615960688263","0.011779609","0.000116160","37"
"38","hotpot2","0.0","-0.81139999499507476","0.94719999999999882","-0.58239999389704389","0.94719999999999949","-0.90639999624770717","0.94719999999999882","SIDE","1.9409771619079767e-16","0.64678328241885186","-0.26544498350948448","0.71498975259310216","-173.00107058395929","87.314979152685268","82.143015536349395","0.009829610","0.000048995","38"
"39","hotpot2","0.0","-0.97739999962002222","0.94719999999999827","-0.7943999941876283","0.94719999999999938","-0.71239999355244965","0.94719999999999949","SIDE","0.71663255930583503","-0.18778058934268832","-0.67169652761413134","0.0","167.64062882785672","-60.891045066495671","61.469670160604458","0.009843663","0.000074754","39"
"40","hotpot2","0.0","1.0326000306572749","1.570796326794897","-0.38239999091680937","0.94719999999999949","-0.31839998787697382","0.94719999999999938","SIDE","2.2198396564790338e-16","0.010691650287609683","-0.06495222516080805","0.99783109645910872","-26.005101311303093","-23.007541635124095","-102.3331109152229","0.010611118","0.000022270","40"
"41","hotpot2","0.0","-0.62439999263230994","0.94719999999999582","-0.48539998928979322","0.94719999999999971","-0.98540000000000016","0.94720000000000004","SIDE","3.9005424140450208e-17","-0.67593563925396671","0.19173266790652724","0.7115824587802716","205.45101388633262","-50.978988570253712","27.95867402705009","0.012953241","0.000159031","41"
"42","hotpot2","0.0","-0.50739999033473726","0.94719999999999849","-0.59039999101739382","0.94719999999999793","-0.9093999963902023","0.94719999999999949","SIDE","0.57226727335716843","-0.0047145719570995028","-0.82005362059783204","-5.5321534028764264e-17","179.96279431994535","2.1743790678432351","166.89944845575931","0.014366705","0.000184421","42"
"43","hotpot2","0.0","-0.98540000000000016","1.3432000090301031","-0.76839999621231037","1.449200007545574","-0.98039999976251313","1.23320000706501","SIDE","0.71241008358441416","0.21700780995887836","0.66736757729462659","-3.1168088442521465e-16","-155.26623385493983","43.287161039011671","48.394667257431216","0.022112963","0.000324001","43"
"44","hotpot2","0.0","-0.81139999499507154","0.94719999999999849","-0.63839999329726904","0.94719999999999915","-0.86839999770242782","0.94720000000000026","SIDE","3.1536402031870812e-16","-0.67918502678961734","0.20728045312386983","0.70408984734730407","170.51675516342345","-44.420725529495272","51.863885939046334","0.008279973","0.000042197","44"
"45","hotpot2","0.0","-0.98540000000000028","0.97020000109244164","-0.88939999544025383","1.2622000051828099","-0.84339999651498843","1.3832000076703721","SIDE","0.71663255930583492","-0.1877805893426884","-0.67169652761413146","0.0","143.65929347310754","-54.186783393244468","62.145340212955695","0.020981054","0.000465521","45"
"46","hotpot2","0.0","-0.83839999627750905","0.94719999999999882","-0.748399995262364","0.94719999999999971","-0.62039999244232102","0.94719999999999938","SIDE","-3.920202844676914e-17","0.66826137399005081","-0.22834896470598373","0.70801376141331807","-213.1761123287568","112.61542666454159","65.38271226093984","0.000004899","0.000066338","46"
"47","hotpot2","0.0","-0.63339999305978145","0.94719999999999793","-0.48039999231192959","0.94719999999999849","-0.98540000000000028","0.94720000000000126","SIDE","0.71429404077393743","0.20900523184322187","0.66790780529725935","-1.9428676449236331e-16","-212.79503574956715","62.602476373302991","26.406955852300204","0.009386477","0.000039263","47"
"48","hotpot2","0.0","-0.96839999919254272","1.3522000061979511","-0.76539999606981768","1.4592000080205501","-0.98540000000000061","1.2772000058952691","SIDE","3.1536402031870807e-16","-0.67918502678961734","0.20728045312386989","0.70408984734730418","146.69246838250953","-37.149792330859697","51.651777943558905","0.023640701","0.000427671","48"
"49","hotpot2","0.0","-0.91039999643769709","0.94719999999999849","-0.76939999625980948","0.94720000000000182","-0.70539999321998215","0.94719999999999949","SIDE","0.0","0.67082778699069701","-0.22429571423390235","0.70688154083797361","-212.25507687218777","88.545787603950828","66.065762530696176","0.010201401","0.000088234","49"
"50","hotpot2","0.0","-0.8183999953275598","0.94719999999999815","-0.63839999329727604","0.94719999999999949","-0.87239999789241618","0.94720000000000026","SIDE","0.71241008358441416","0.21700780995887836","0.66736757729462659","-3.1168088442521465e-16","-177.82206110119782","53.496059402371458","48.024132837285677","0.009222975","0.000080717","50"
"51","hotpot2","0.0","-0.79939999442510623","0.94719999999999882","-0.59339999115989639","1.2622000051828119","-0.98540000000000028","1.10820000438745","SIDE","1.9409771619079767e-16","0.64678328241885175","-0.26544498350948448","0.71498975259310193","-149.96213944549359","77.859619278114522","82.701514989670343","0.018886765","0.000215772","51"
"52","hotpot2","0.0","-0.98239999985750737","1.3612000066254291","-0.77239999640230128","1.4602000080680479","-0.98540000000000016","1.2272000067800259","SIDE","0.71241008358441416","0.21700780995887836","0.66736757729462659","-3.1168088442521465e-16","-154.13567061557148","45.793959540173311","48.39918413402863","0.021685533","0.000310883","52"
"53","hotpot2","0.0","-0.98539999999999994","0.94719999999999938","-0.89939999591521724","0.94719999999999938","-0.53939999185465393","0.94720000000000126","SIDE","-3.4752778800900223e-17","0.79865773538977969","-0.20397468373616354","-0.56616265339282201","172.01010691957359","-33.812697369079025","147.987982295319","0.002302986","0.000062840","53"
"54","hotpot2","0.0","0.1736000191936253","0.94719999999999793","-0.28339998947419032","0.94720000000000115","-0.38139999086931398","0.94719999999999938","SIDE","0.88023873419162935","0.46528277393651651","-0.093229346810211819","-3.1531872590358519e-17","39.014137416977235","163.70872691706754","27.720516834643039","0.000658079","0.000010139","54"
"55","hotpot2","0.0","-0.98540000000000016","0.94720000000000026","-0.90239999605770871","0.94719999999999949","-0.56639999313708445","0.94719999999999971","SIDE","0.70408984734730373","-0.20728045312386986","-0.67918502678961767","-3.9420502539838527e-17","203.70228186216812","-76.103774943599774","52.212914714928274","0.000973733","0.000039077","55"
"56","hotpot2","0.0","-0.92139999696015884","0.94719999999999882","-0.7813999968297779","0.94719999999999949","-0.72439999412242728","0.94719999999999949","SIDE","1.6883309188575657e-16","-0.55062407937669322","0.14545648769397013","0.82198268436646704","177.60021827114247","-39.651688889920095","-7.2442186082353128","0.000159933","0.000074255","56"
"57","hotpot2","0.0","-0.98539999999999983","1.040200004417249","-0.83939999632500362","1.247200007729967","-0.71239999355245764","0.94720000000000026","SIDE","1.8571640107433223e-16","-0.55062407937669322","0.14545648769397015","0.82198268436646704","155.05151395159029","-33.695074467817946","1.5069400656681","0.022563841","0.000192575","57"
"58","hotpot2","0.0","-0.98540000000000016","0.99620000232736694","-0.90839999634269353","1.2942000067027259","-0.85439999703746861","1.43520001014025","SIDE","0.69499627050508073","0.20364370430808637","0.68957191479910873","-3.9936294327821148e-17","-156.99109671584009","40.099571139334898","70.654506308648081","0.017991280","0.000280189","58"
"59","hotpot2","0.0","1.0326000306572769","1.570796326794897","-0.98540000000000016","0.99420000223237659","-0.56439999304209243","0.95620000042747899","SIDE","0.50087230282055628","0.3550011710172119","-0.61010494270319926","0.50087230282055661","32.020742487220453","189.33991527272173","49.979883743635362","0.013868194","0.000092776","59"
"60","hotpot2","0.0","-0.98540000000000061","0.94719999999999782","-0.85139999689497325","0.9472000000000016","-0.6503999938672429","0.9472000000000016","SIDE","2.9046690914078303e-16","-0.55938194203800662","0.16551161559495406","0.81221779592972254","189.7526906046804","-44.95300530382255","4.7413708306484068","0.009806194","0.000111601","60"
"61","hotpot2","0.0","-0.63739999324977437","0.94719999999999971","-0.52439999114218749","0.94719999999999949","-0.98540000000000028","0.99520000227987904","SIDE","1.7720418809294941e-16","0.6068095417090662","-0.13584756667394116","0.78315235983785569","-172.06492528870507","36.468143054715426","50.419745189758316","0.013327600","0.000139849","61"
"62","hotpot2","0.0","-0.87639999808240754","0.94720000000000026","-0.98540000000000016","0.94720000000000026","-0.54139999194964616","0.94720000000000026","SIDE","0.70408984734730373","-0.20728045312386986","-0.67918502678961767","-3.9420502539838527e-17","169.24931563043714","-40.660260383282861","51.844216347081691","0.007506815","0.000060140","62"
"63","hotpot2","0.0","-0.55139999242462701","0.94719999999999949","-0.80839999485258818","0.94719999999999882","-0.21639998629187041","0.94719999999999949","SIDE","0.70686821581378789","-0.0097796017025140198","0.024062633584138023","-0.706868215813788","-14.795214908217115","47.539899335872384","-216.842999470769","0.000011065","0.000011732","63"
"64","hotpot2","0.0","-0.86539999755993569","0.94719999999999938","-0.95439999852758206","0.94719999999999949","-0.57139999337457115","0.94719999999999938","SIDE","0.70408984734730362","-0.20728045312386981","-0.67918502678961779","-3.9420502539838533e-17","193.07360241135129","-47.931193581918443","52.056324342569134","0.010739632","0.000100354","64"
"65","hotpot2","0.0","-0.98539999999999994","0.98720000189989587","-0.92339999705515985","1.2752000058002759","-0.77839999668728621","1.2902000065127359","SIDE","0.71443210542094981","0.1917367243657587","0.67292183444533715","-1.1654953104021721e-16","-159.03100272813805","41.863867508066548","62.989700565871445","0.018829933","0.000323011","65"
"66","hotpot2","0.0","-0.7933999941401163","0.94719999999999405","-0.90139999601020493","0.94719999999999815","-0.66939999476969558","0.94720000000000037","SIDE","0.70671316698860165","0.22213085871423272","-0.67172492972333431","-1.5709669445610637e-16","186.40941244738764","96.784573158610328","66.124566268482738","0.005966752","0.000045013","66"
"67","hotpot2","0.0","-0.61939999239482402","1.3092000074151879","-0.73839999478738971","1.3862000078128629","-0.98539999999999994","1.223200006590037","SIDE","0.70501060913993097","0.2140178352863617","0.67613342409577937","-1.9684509180286647e-16","-149.92348874622999","65.372589916111878","51.30554899453103","0.016009574","0.000273875","67"
"68","hotpot2","0.0","-0.91839999681768147","1.5707963267948959","-0.64739999372474677","0.94720000000000026","-0.98539999999999994","1.401200008525326","SIDE","0.50491045303696847","-0.38485713603617155","0.5848212151333454","0.50491045303696813","-30.791837461592348","-174.0581996200163","47.891281692413337","0.017542207","0.000181698","68"
"69","hotpot2","0.0","-0.98540000000000061","0.94719999999999949","-0.79539999423512242","0.94719999999999971","-0.71039999345745475","0.94719999999999938","SIDE","0.0","0.67082778699069689","-0.2242957142339024","0.70688154083797361","-188.63064312728869","80.64680168991471","66.049895497269617","0.008541813","0.000056196","69"
"70","hotpot2","0.0","-0.60939999191985306","0.94719999999999427","-0.6373999932497747","0.94720000000000004","-0.88239999836739258","0.94720000000000026","SIDE","0.70501060913993097","0.2140178352863617","0.67613342409577937","-1.9684509180286647e-16","-173.67174798261954","72.889672865218301","51.453018237158311","0.012830622","0.000078323","70"
"71","hotpot2","0.0","-0.63139999296479898","0.94719999999999882","-0.52639999123718695","0.94719999999999938","-0.98540000000000016","0.99720000237487683","SIDE","1.9492460690224433e-16","0.6068095417090662","-0.13584756667394118","0.78315235983785569","-172.88509528327708","33.696225433561402","50.374414139441754","0.013204919","0.000100299","71"
"72","hotpot2","0.0","-0.98540000000000016","0.94719999999999971","-0.8953999957252291","0.94719999999999949","-0.5753999935645614","0.94719999999999938","SIDE","7.8738036721146603e-17","0.67613342409577948","-0.21401783528636162","0.70501060913993097","-212.46406737096018","85.168681601301913","51.693906375651665","0.000951519","0.000073177","72"
"73","hotpot2","0.0","-0.92539999715015742","0.94719999999999938","-0.91639999672268047","0.94719999999999882","-0.57039999332707525","0.94719999999999971","SIDE","0.70408984734730373","-0.20728045312386992","-0.6791850267896179","-3.9420502539838539e-17","205.71281134289924","-55.162208608916082","52.177236974229494","0.010253280","0.000074257","73"
"74","hotpot2","0.0","-0.65839999424722551","0.9471999999999976","-0.63839999329726904","0.94719999999999949","-0.87239999789241895","0.94720000000000026","SIDE","3.1536402031870816e-16","-0.67918502678961745","0.20728045312386983","0.70408984734730407","165.64654612014175","-64.489546364596706","51.874103908152939","0.007602247","0.000031429","74"
"75","hotpot2","0.0","-0.98540000000000028","0.94720000000000093","-0.97539999952502643","0.94719999999999938","-0.56639999313708489","0.94719999999999949","SIDE","0.70408984734730373","-0.20728045312386986","-0.67918502678961779","0.0","181.8885245619862","-47.891275410280265","51.965128978742285","0.006474831","0.000082100","75"
"76","hotpot2","0.0","-0.98539999999999994","0.94719999999999949","-0.85539999708495928","0.94719999999999971","-0.66339999448470788","0.94720000000000037","SIDE","1.5673716696446149e-16","-0.58168572374088834","0.16318799811609627","0.7968760230217119","183.94108191368596","-44.360377366691246","16.630892487718064","0.009117586","0.000071488","76"
"77","hotpot2","0.0","-0.98540000000000016","0.94719999999999882","-0.92239999700766495","0.94719999999999949","-0.56339999299459198","0.94720000000000026","SIDE","-2.2515605091693224e-16","0.7396357016192886","-0.21203527379159323","-0.6387331771234892","194.49818443222944","-48.361434514274777","120.91849152993426","0.004945060","0.000094261","77"
"78","hotpot2","0.0","-0.71139999350496019","1.346200009172589","-0.75239999545235081","1.422200009522774","-0.9854000000000005","1.251200004660336","SIDE","3.1536402031870812e-16","-0.67918502678961734","0.20728045312386983","0.70408984734730407","141.82225933922737","-57.218613165961123","51.661995912665517","0.013549795","0.000265684","78"
"79","hotpot2","0.0","-0.87639999808240676","0.94719999999999882","-0.81739999528005902","0.94719999999999949","-0.6963999927924972","0.94719999999999949","SIDE","3.993629432782116e-17","0.68957191479910895","-0.20364370430808626","0.6949962705050805","-183.07187659040181","47.801721576315565","71.578567914863058","0.007879899","0.000040061","79"
"80","hotpot2","0.0","-0.82139999547005027","0.94719999999999405","-0.75139999540485447","0.94719999999999949","-0.77539999654479408","0.94719999999999949","SIDE","0.81221779592972221","-0.16551161559495411","-0.55938194203800717","-1.3669031018389797e-16","172.86033028429949","-39.954842800302927","10.678933210639626","0.006497177","0.000049747","80"
"81","hotpot2","0.0","-0.95739999867007486","0.94719999999999915","-0.82039999542255282","0.94719999999999949","-0.98540000000000016","1.570796326794897","SIDE","0.8219826843664666","-0.14545648769397027","-0.55062407937669378","-5.0649927565726992e-17","140.28758946236209","-29.79493881953135","7.2368234338552444","0.000029008","0.000048772","81"
"82","hotpot2","0.0","-0.98539999999999961","1.570796326794897","-0.80639999475757373","1.570796326794897","-0.81139999499507809","0.94719999999999971","SIDE","0.56616265339282112","-0.20397468373616354","-0.79865773538978035","-4.9024031255504284e-17","144.5181596588875","-26.791340160220592","137.07682335875879","0.001890300","0.000056935","82"
"83","hotpot2","0.0","-0.80239999456760391","0.94720000000000115","-0.70939999340996251","0.94719999999999949","-0.98540000000000028","1.570796326794897","SIDE","0.81221779592972221","-0.16551161559495411","-0.55938194203800706","-1.3669031018389795e-16","150.30689427054571","-33.281664152000694","18.60632942259744","0.000029734","0.000048487","83"
"84","hotpot2","0.0","-0.8743999979874133","0.94719999999999938","-0.76339999597482311","0.94719999999999915","-0.76339999597482455","0.94719999999999949","SIDE","0.79687602302171157","-0.16318799811609649","-0.58168572374088878","3.4830481547658127e-17","172.17665454915985","-41.059946786668576","20.057481800161536","0.009493579","0.000062998","84"
"85","hotpot2","0.0","-0.93539999762512838","0.94719999999999882","-0.83339999604001458","0.94719999999999949","-0.63239999301228733","0.94719999999999915","SIDE","0.82198268436646671","-0.14545648769397027","-0.55062407937669389","-5.0649927565726999e-17","162.7548251593216","-35.730031953074892","-1.4827172440364744","0.007588988","0.000103092","85"
"86","hotpot2","0.0","-0.70139999302998368","0.94719999999999815","-0.80939999490006842","0.94720000000000149","-0.6853999922700269","0.94720000000000426","SIDE","1.5492221365166159e-16","-0.67169652761413112","0.18778058934268818","0.71663255930583525","165.61891837473121","-60.325852357048575","61.526631509398861","0.005878515","0.000032634","86"
"87","hotpot2","0.0","-0.39239998813215382","0.94719999999999815","-0.98540000000000016","1.5707963267948959","-0.31339998763948679","0.94719999999999971","TOP","-0.012429857527896299","0.99768891732359566","-0.065633996780202972","-0.012429857527896531","-1.9619096222498775","-19.305202155458424","233.46256643230669","0.009754933","0.000024285","87"
"88","hotpot2","0.0","-0.90539999620023059","0.94719999999999938","-0.80039999447261334","0.94719999999999938","-0.70939999340995941","0.94719999999999882","SIDE","1.5539937472028968e-16","0.6729218344453376","-0.19173672436575864","0.71443210542094959","-181.34774116047336","48.222612471469745","62.506318273543805","0.008458108","0.000081012","88"
"89","hotpot2","0.0","-0.86239999741744233","0.94719999999999938","-0.70839999336246895","0.94719999999999938","-0.98540000000000016","1.5707963267948959","SIDE","0.79687602302171157","-0.16318799811609644","-0.58168572374088878","3.4830481547658121e-17","149.08351989311575","-34.581323948016774","26.783749552214537","0.009054829","0.000098907","89"
"90","hotpot2","0.0","-0.097399983899301532","0.94719999999999405","-0.98539999999999994","0.94720000000000037","-0.55139999242462301","0.94719999999999949","SIDE","-4.3609056639274709e-16","0.70010992050892451","-0.22742069477099802","-0.67685000317268529","174.67239028122387","-92.556464727748761","101.15893041849375","0.005893724","0.000040323","90"
"91","hotpot2","0.0","-0.98540000000000016","0.94719999999999915","-0.98039999976251324","0.94720000000000004","-0.55139999242462279","1.120200004957423","SIDE","1.9480055276575921e-16","0.66736757729462681","-0.21700780995887825","0.71241008358441382","-163.45428296092004","48.82409124827528","48.25163283675235","0.011286400","0.000101061","91"
"92","hotpot2","0.0","-0.097399983899296397","0.9471999999999946","-0.88539999525024649","0.94719999999999938","-0.550399992377132","0.94720000000000126","SIDE","-3.9644596944795193e-16","0.70010992050892451","-0.22742069477099802","-0.67685000317268529","198.28056388476378","-100.22524228097707","103.24509674557369","0.004652026","0.000043512","92"
"93","hotpot2","0.0","-0.97539999952502643","0.94719999999999949","-0.78739999385512671","0.94719999999999938","-0.71439999364745632","0.94719999999999949","SIDE","0.69499627050508073","0.20364370430808637","0.68957191479910873","-7.9872588655642295e-17","-180.86732718373707","47.150676198931762","71.500459074732461","0.009358196","0.000044197","93"
"94","hotpot2","0.0","-0.1343999856567113","0.94719999999999782","-0.98539999999999994","0.94719999999999971","-0.54039999190215104","0.94719999999999949","SIDE","0.70884064196631003","0.22626748458102314","0.66809278526127347","-3.9156298288195639e-16","-191.56968304381442","104.64932278077451","84.992644422584263","0.005236568","0.000040659","94"
"95","hotpot2","0.0","-0.91839999681767603","0.94719999999999815","-0.80639999475758595","0.94719999999999949","-0.61039999196734385","0.94720000000000126","SIDE","1.9156764851211959e-16","-0.58168572374088834","0.16318799811609627","0.7968760230217119","207.034216569731","-50.83900020534282","9.9046247356651218","0.003085745","0.000051586","95"
"96","hotpot2","0.0","-0.977399999620021","0.94719999999999949","-0.98540000000000028","0.95120000018998918","-0.62439999263231583","1.4042000086678219","SIDE","1.5584044221260735e-16","0.66736757729462681","-0.21700780995887825","0.71241008358441382","-157.26307911397404","43.936474897272952","48.363049126155275","0.010713231","0.000171607","96"
"97","hotpot2","0.0","-0.92639999719765587","0.94719999999999904","-0.96239999890756434","0.94719999999999915","-0.57539999356456117","0.94719999999999938","SIDE","1.5584044221260735e-16","0.66736757729462681","-0.21700780995887825","0.71241008358441382","-187.14067344654617","56.526191110473519","47.876581540009397","0.008890839","0.000045398","97"
"98","hotpot2","0.0","1.032600030657276","1.5707963267948959","-0.97739999962001922","0.94719999999999949","-0.56039999285209996","0.94719999999999971","SIDE","0.50491045303696791","-0.58482121513334562","-0.38485713603617194","-0.50491045303696802","-37.699791229762297","-207.55668219808098","47.216035732604915","0.000865889","0.000003051","98"
"99","hotpot2","0.0","-0.75839999573734085","0.94719999999999938","-0.61339999210984175","0.94719999999999949","-0.88639999529773716","0.94719999999999938","SIDE","0.6387331771234892","-0.21203527379159332","-0.73963570161928882","-1.303623012380151e-16","167.01221445198965","-40.48188630231931","115.56477197012738","0.007065240","0.000064185","99"
"100","hotpot2","0.0","-0.98540000000000016","1.5707963267948959","-0.87639999808240576","0.9471999999999986","-0.75139999540485913","1.570796326794897","SIDE","2.3720978860240541e-16","0.5961316069791065","0.38955230842732902","0.70205135578492206","-134.71175262005818","-102.65938680487348","87.655344990398802","0.002734478","0.000070831","100"
"101","hotpot2","0.0","-0.7763999965922922","0.94719999999999993","-0.65339999400973547","0.94719999999999949","-0.81939999537504749","0.94719999999999971","SIDE","0.56616265339282146","-0.20397468373616345","-0.79865773538978002","-4.9024031255504278e-17","167.04527815706481","-32.544695656001608","146.01751308093603","0.008807393","0.000100109","101"
"102","hotpot2","0.0","-0.55939999280460273","0.94719999999999938","-0.43339999007954821","0.94719999999999938","-0.98539999999999994","0.94720000000000026","SIDE","1.5347825603971946e-16","0.65922410885073501","-0.20531068142177103","0.72337479801558091","-223.56860370497057","65.709764664853637","96.128379151324282","0.008419348","0.000071273","102"
"103","hotpot2","0.0","-0.96439999900255402","0.94719999999999815","-0.80139999452009181","0.94719999999999827","-0.69939999293499255","0.94720000000000426","SIDE","0.71443210542094981","0.1917367243657587","0.67292183444533715","-7.7699687360144815e-17","-182.98231462313018","48.688354174922345","62.470913285046947","0.008827785","0.000040146","103"
"104","hotpot2","0.0","-0.95739999867006809","0.94719999999999938","-0.98539999999999994","0.94719999999999993","-0.53639999171216901","0.94719999999999938","SIDE","0.70743059517031548","0.200009034921558","-0.67789257184801777","-1.1770303322383176e-16","192.85694189049613","92.902086576454664","50.315664934242896","0.005401635","0.000068543","104"
"105","hotpot2","1.110223024625157e-16","1.032600030657276","1.5707963267948959","-0.95839999871756709","0.94719999999999949","-0.56239999294709542","0.94720000000000149","SIDE","0.50087230282055606","0.3550011710172119","-0.61010494270319926","0.50087230282055673","38.386463771904253","213.4226502690928","49.892891673302458","0.001216876","0.000003896","105"
"106","hotpot2","0.0","-0.98540000000000028","1.5707963267948959","-0.81139999499507909","1.570796326794897","-0.84939999679997347","0.94719999999999949","SIDE","0.6387331771234892","-0.21203527379159323","-0.73963570161928871","-1.3036230123801507e-16","143.47575874661717","-33.734566211298116","110.98033913515989","0.000509268","0.000024553","106"
"107","hotpot2","0.0","-0.68839999241252503","0.94719999999999882","-0.57339999346956683","0.94719999999999971","-0.93039999738764623","0.9472000000000016","SIDE","1.9492460690224433e-16","0.6068095417090662","-0.13584756667394116","0.78315235983785569","-195.74060113836399","41.768460094026459","44.773763225147754","0.008727637","0.000041798","107"
"108","hotpot2","0.0","-0.78339999692477391","1.4832000091604849","-0.98539999999999994","1.402200008572825","-0.80839999485259184","1.407200008810322","SIDE","1.5492221365166159e-16","-0.67169652761413112","0.18778058934268818","0.71663255930583525","141.63758301998249","-53.621590683797251","62.20230156175009","0.015608413","0.000197988","108"
"109","hotpot2","0.0","1.032600030657272","1.570796326794897","-0.98539999999999994","1.5707963267948959","-0.1573999867491423","0.94719999999999949","SIDE","3.1163003611949301e-16","-0.20316688849641895","-0.67158726103220412","0.71252632669814098","57.349533519732773","152.03025333426399","8.7258493688595156","0.000025770","0.000000139","109"
"110","hotpot2","0.0","-0.68139999533966245","0.94719999999999882","-0.57439999351706361","0.94719999999999949","-0.92939999734014667","0.94719999999999949","SIDE","2.1264502571153927e-16","0.6068095417090662","-0.13584756667394116","0.78315235983785569","-196.56077113293492","38.996542472872434","44.728432174831127","0.008782505","0.000049073","110"
"111","hotpot2","1.191270547656072e-16","-0.98540000000000016","1.2182000063525511","-0.91939999686516782","1.2862000063227479","-0.77839999668728521","1.2592000050403149","SIDE","0.0","0.68957191479910895","-0.20364370430808626","0.6949962705050805","-159.19564612250545","40.750616516718715","70.732615148778905","0.014572995","0.000200156","111"
"112","hotpot2","0.0","-0.59139999106489005","0.94719999999999338","-0.81939999537505159","0.9471999999999986","-0.54439999209214363","1.0092000029448549","SIDE","2.3720978860240541e-16","0.5961316069791065","0.38955230842732902","0.70205135578492206","-155.5621700648322","-116.28444568817051","88.010257381535112","0.001963587","0.000074169","112"
"113","hotpot2","0.0","-0.80639999475758894","0.9471999999999986","-0.97039999928754028","0.94720000000000149","-0.56339999299459054","0.94719999999999915","SIDE","1.5584044221260738e-16","0.66736757729462692","-0.21700780995887825","0.71241008358441393","-180.94946959960012","51.63857475947097","47.987997829412315","0.007620340","0.000050379","113"
"114","hotpot2","2.4633165896229391e-16","-0.80539999471008161","1.570796326794897","-0.82939999585002466","1.017200003324817","-0.98540000000000016","1.570796326794897","SIDE","0.70739606982358005","0.22042882136149963","-0.67156677636057371","-1.1770877786704824e-16","135.86001444575354","79.799581696606637","85.838119137981039","0.007178737","0.000093059","114"
"115","hotpot2","0.0","1.032600030657272","1.570796326794897","-0.98539999999999961","0.94720000000000004","-0.20439998572189649","0.94719999999999949","SIDE","0.70693272456255762","0.021726650372510425","-0.0044942795538830621","-0.70693272456255785","23.113682294425264","48.027258418102768","-199.51144694786115","0.000022381","0.000000077","115"
"116","hotpot2","0.0","-0.57839999370705497","0.9472000000000016","-0.47939999226443519","0.94720000000000149","-0.98540000000000028","0.94720000000000004","SIDE","4.3188588938237127e-16","-0.67732427666363826","0.20368495537902911","0.7069259248282822","201.0347745752201","-74.385481655568441","30.57944434393654","0.007966196","0.000055546","116"
"117","hotpot2","0.0","-0.56039999285209974","0.9471999999999976","-0.47739999216944118","0.94719999999999949","-0.98540000000000028","0.94719999999999971","SIDE","0.71220850416271519","0.2260533072542108","0.66457426137170017","-1.5588455040007618e-16","-207.27154349898311","88.038657104519288","27.557389082383366","0.002407422","0.000045356","117"
"118","hotpot2","0.0","1.0326000306572749","1.570796326794897","-0.31139998754449089","0.94719999999999949","-0.36839999025184661","0.94719999999999949","SIDE","1.1626863130078597e-16","0.18215699592924631","0.67374798399647085","0.71615814098195085","-57.217409846583635","-163.429314996709","122.63128607116202","0.000105339","0.000000040","118"
"119","hotpot2","0.0","-0.68139999533966167","1.3102000074626849","1.098600033792108","1.570796326794897","-0.98539999999999994","1.04920000158511","SIDE","0.49933721742181797","0.59614259362510991","0.38201923336502142","-0.49933721742181841","23.840610831032656","179.99650608033767","30.825957600314347","0.011201968","0.000148116","119"
"120","hotpot2","0.0","1.032600030657274","1.570796326794897","-0.34839998930189531","0.94719999999999915","-0.33539998868443011","0.94719999999999938","SIDE","0.67857788488044757","-0.72006953197453394","0.14502387139072534","4.090256436889173e-17","-29.711396620544896","-171.87016581716441","20.66816031642804","0.000515588","0.000000128","120"
"121","hotpot2","0.0","-0.98540000000000028","1.1352000056699061","-0.89439999567774209","1.258200004992823","-0.83439999608751292","1.3712000071004049","SIDE","1.553993747202897e-16","0.6729218344453376","-0.19173672436575867","0.71443210542094959","-157.39642926548237","41.398125804614288","63.025105554368189","0.018512281","0.000295542","121"
"122","hotpot2","0.0","-0.98539999999999994","1.570796326794897","-0.81839999532755647","1.0182000033723251","-0.92239999700766195","1.5707963267948959","SIDE","0.50391487885377173","0.60560977312600295","0.35408528977330894","-0.50391487885377206","26.886608233804516","171.09081129837406","63.99770680234505","0.005547178","0.000056705","122"
"123","hotpot2","3.4694469519536132e-16","0.89560003066937566","0.94719999999999904","-0.71939999388494025","0.94720000000000115","-0.98539999999999983","1.5707963267948959","TOP","0.15750364024576005","0.8121955500935234","0.53918790326466648","-0.15750364024576011","24.386778205332547","86.331699945647543","220.61855600439472","0.003505955","0.000052350","123"
"124","hotpot2","0.0","1.03260003065727","1.570796326794897","-0.88839999539273851","0.94719999999999882","-0.29139998659453059","0.94720000000000326","SIDE","0.48842926009854437","0.6369152928248506","0.34236329465205789","0.48842926009854437","-186.77296460262193","31.144636869295802","133.5238536664842","0.000009370","0.000000030","124"
"125","hotpot2","0.0","1.0326000306572749","1.570796326794897","-0.87739999812990077","0.94719999999999915","-0.28839998645205078","0.94720000000000182","SIDE","-0.48175252278867059","-0.36366139144631876","0.63527899850760838","0.48175252278867076","177.49538591303923","-20.053464083267691","137.75792929602159","0.000022598","0.000000067","125"
"126","hotpot2","0.0","-0.34839998930189559","0.94719999999999938","-0.44739999074451448","0.94719999999999938","-0.98540000000000028","0.94719999999999971","SIDE","3.9464756422432352e-17","0.68321958904152469","-0.1964170571617016","0.70330031480574984","-224.26666053246532","39.629585812619069","108.11929489876114","0.008350895","0.000051421","126"
"127","hotpot2","0.0","-0.98539999999999994","1.570796326794897","-0.36439999006185669","0.94719999999999949","-0.32539998820945648","0.94719999999999938","SIDE","2.2204158292075214e-16","0.019286125406920235","0.0094371580106938358","0.99976946613480333","-8.6021660976729315","21.042908161595484","-109.36378515874621","0.009901869","0.000028078","127"
"128","hotpot2","0.0","1.0326000306572689","1.570796326794897","-0.98540000000000016","0.94720000000000004","-0.26039998838175482","0.94720000000000426","SIDE","-0.49990760502170273","0.62299903202613838","0.33474912841921545","-0.49990760502170339","179.66789450035307","-89.93013889835008","10.545192235097026","0.000023654","0.000000108","128"
"129","hotpot2","0.0","-0.38439999101180572","0.94719999999999882","-0.98540000000000016","1.5707963267948959","-0.28539998630956009","0.94719999999999949","TOP","0.056686813123342936","-0.12056377495251458","0.98946328209036527","-0.056686813123342825","-18.850292727109487","54.485101794595693","242.98075296665053","0.009292847","0.000049998","129"
"130","hotpot2","0.0","1.032600030657284","1.5707963267948959","-0.9853999999999995","1.5517963291520811","-0.35139998944440692","1.570796326794897","SIDE","-0.4776345246762157","-0.36688110198276774","0.63963175240333436","0.47763452467621609","143.23888557948129","-22.758607512607874","137.53956067237272","0.007881434","0.000025274","130"
"131","hotpot2","0.0","0.10860001936591659","0.94719999999999793","-0.98540000000000016","1.3762000073378871","-0.90639999624770751","1.401200008525336","SIDE","0.50391487885377151","0.35408528977330872","-0.60560977312600339","0.50391487885377184","29.624342000441953","181.53667145622771","63.827921935250764","0.018582091","0.000300612","131"
"132","hotpot2","0.0","-0.98540000000000016","1.5707963267948959","-0.3833999909643081","0.94720000000000004","-0.31939998792447039","0.94719999999999949","SIDE","0.99972754138550002","-0.0093388490615974318","-0.021392262468191928","-1.1099833480640453e-16","0.3714140416122132","-18.648052568501846","-108.29622433612337","0.010380894","0.000046999","132"
"133","hotpot2","0.0","-0.3703999903468424","1.1952000052601079","-0.53839999180716014","0.94719999999999949","-0.98539999999999994","0.94720000000000004","SIDE","0.57226727335716832","-0.0047145719570995028","-0.82005362059783204","-5.5321534028764258e-17","156.58277401953939","2.308793190647032","158.30499189375422","0.007495822","0.000082030","133"
"134","hotpot2","0.0","0.097600018843449945","0.94719999999999482","-0.98540000000000028","1.3502000061029591","-0.89039999548774773","1.379200007480381","SIDE","0.50007817778430974","-0.60986995967587021","-0.35763426079278282","-0.50007817778431041","-38.395921774757902","-176.36109013896595","65.892138524281449","0.020795750","0.000339585","134"
"135","hotpot2","0.0","1.032600030657268","1.570796326794897","-0.9853999999999995","1.2012000055450971","-0.063399985544016185","1.0742000027725429","SIDE","-0.4817525227886707","-0.36366139144631876","0.63527899850760838","0.48175252278867076","153.519906833785","-13.534394155626964","135.97292783978969","0.007683288","0.000038802","135"
"136","hotpot2","0.0","1.0326000306572769","1.570796326794897","-0.98540000000000028","1.173200004215164","-0.059399985354025853","0.94720000000000326","SIDE","0.48842926009854432","0.63691529282485049","0.34236329465205784","0.48842926009854459","-162.94364430390107","23.977142349506739","132.38428514736188","0.007842108","0.000016409","136"
"137","hotpot2","0.0","-0.20139998557940281","0.94719999999999793","-0.6473999937247511","1.3842000077178771","-0.98540000000000016","1.1152000047199271","SIDE","0.70547182118314111","-0.19527658447511884","-0.68130504553560578","-7.8686560631380732e-17","155.2830920140388","-15.577797251062758","86.583234502606487","0.012337082","0.000152488","137"
"138","hotpot2","0.0","1.03260003065728","1.570796326794897","-0.86639999760743214","0.94719999999999949","-0.26539998861923919","0.94719999999999949","SIDE","0.50423341651404752","-0.30641294594255353","0.63056199528670265","-0.50423341651404774","-209.73763571604832","112.49466595175039","6.8682606872192418","0.000034342","0.000000550","138"
"139","hotpot2","2.2204460492503131e-16","1.0326000306572789","1.570796326794897","-0.75339999549984515","0.94719999999999971","-0.36339999001436468","0.9472000000000016","SIDE","-0.4776345246762157","-0.36688110198276774","0.63963175240333436","0.47763452467621609","167.18961586675988","-29.248914353137586","139.71821526220381","0.000006066","0.000000029","139"
"140","hotpot2","0.0","1.0326000306572769","1.570796326794897","-0.98539999999999961","1.570796326794897","-0.14339998608417781","0.94719999999999971","SIDE","0.66597979442527244","0.71122135834362521","-0.22502242744473422","-1.6670521146715233e-16","28.352242391146138","155.37264404799043","138.25404928247963","0.000006791","0.000000025","140"
"141","hotpot2","0.0","1.032600030657276","1.5707963267948959","-0.65239999396223403","0.98020000156741593","-0.41239998908211167","0.97820000147242103","SIDE","0.52962915428846824","0.33013826487206643","-0.57445160276791329","-0.52962915428846902","159.65891765752514","-36.544799843059693","107.22743692869142","0.009763101","0.000049505","141"
"142","hotpot2","0.0","1.032600030657272","1.5707963267948959","-0.81539999518506423","1.570796326794897","-0.19239998515192611","0.94719999999999971","SIDE","0.7011018145116843","-0.67981483527871001","0.21519301899319182","0.0","-55.087260023928046","-139.82443940206232","12.232144194873761","0.001339170","0.000009614","142"
"143","hotpot2","0.0","1.0326000306572749","1.570796326794897","-0.41539998922459459","0.9471999999999986","-0.27039998885672573","0.94719999999999949","SIDE","0.7011018145116843","-0.67981483527871001","0.21519301899319196","0.0","-62.603713829351207","-163.56961863473708","12.653434355071047","0.000043874","0.000000011","143"
"144","hotpot2","0.0","-0.60239999158737401","0.94719999999999793","-0.79339999414011864","0.94719999999999949","-0.71239999355245942","0.94720000000000326","SIDE","0.70688154083797383","0.22429571423390229","0.67082778699069645","-3.9264818802208378e-17","-168.62906466943841","73.95914143938576","66.036461705905054","0.008698337","0.000039047","144"
"145","hotpot2","0.0","-0.98540000000000016","0.94719999999999938","-0.41539998922459481","0.94720000000000126","-0.40539998874962491","0.94719999999999915","SIDE","0.69716303297252236","-0.47476167667784774","0.5371825162964563","-7.9624346968846979e-17","-173.92856689846178","-161.03493164376601","111.18442875011489","0.002744395","0.000056407","145"
"146","hotpot2","0.0","1.032600030657278","1.5707963267948959","-0.98539999999999905","1.5707963267948959","-0.42739998979456789","1.570796326794897","SIDE","0.486552549473106","0.64310517332365635","0.33607881404038437","0.48655254947310589","-149.91687656381634","37.319586428485074","132.95982426595518","0.000011535","0.000000039","146"
"147","hotpot2","0.0","-0.64139999343976928","1.011200003039824","-0.62539999267980839","0.94719999999999949","-0.77539999654479275","0.94719999999999949","SIDE","0.50491045303696835","-0.38485713603617167","0.5848212151333454","0.50491045303696813","-35.821861638317685","-198.45010826706755","47.399601577424619","0.011411442","0.000185128","147"
"148","hotpot2","0.0","-0.98540000000000028","1.260200005087815","-0.85739999717995641","1.383200007670373","-0.46539999159947337","0.94719999999999938","TOP","-0.33672439013296851","0.28736080617335352","0.89668302769985608","-6.1907217507677527e-17","124.34927859026644","-31.704315834668719","203.41988965263067","0.002248442","0.000184124","148"
"149","hotpot2","0.0","-0.47039999183695969","0.94719999999999827","-0.22539998671933589","0.94719999999999971","-0.95639999862256853","0.94719999999999938","SIDE","0.49035317481418184","0.66028481365914427","0.28832532450413378","0.49035317481418178","-157.42703258415739","101.09187507484772","56.549169129761495","0.011881146","0.000073784","149"
"150","hotpot2","0.0","-0.91539999667518068","0.94719999999999793","-0.76839999621231059","0.94719999999999938","-0.4533999910294999","0.94719999999999938","SIDE","2.8653638012083725e-16","-0.6040969614039704","0.1858922779526431","0.77492639793729257","226.31686088671901","-40.284207422676246","21.689446202411091","0.000006362","0.000076164","150"
"151","hotpot2","0.0","-0.98539999999999994","1.570796326794897","-0.25939998833425448","0.94719999999999938","-0.34239998901691238","0.94719999999999938","SIDE","2.9674590343245493e-16","0.17935895536749127","0.70149853699530396","0.68973195353189976","-50.661198877259572","-145.77898642583855","55.752572890658904","0.008100887","0.000036794","151"
"152","hotpot2","2.4286128663675299e-16","-0.88339999841488981","0.94719999999999882","1.098600033792112","1.570796326794897","-0.49439998971727178","0.94719999999999938","TOP","-0.15750364024575972","-0.53918790326466604","0.81219555009352384","-0.15750364024575986","27.466416620192557","101.5758604829432","252.87514482146011","0.000005885","0.000000061","152"
"153","hotpot2","0.0","1.032600030657274","1.5707963267948959","-0.77739999663978765","1.5707963267948959","-0.18939998500942859","0.94719999999999938","SIDE","1.1713150731916103e-16","-0.20502444729130243","-0.67276384542493828","0.71088239836272904","46.088023603881112","145.63631040874768","9.3590336099572209","0.001038185","0.000007090","153"
"154","hotpot2","0.0","-0.83839999627750639","0.94719999999999882","-0.98539999999999994","1.570796326794897","-0.63839999329726937","1.570796326794897","SIDE","0.5812295301334498","0.28649675159587573","-0.4922032892278439","-0.58122953013345047","136.5852929430944","-28.816915757589495","8.6736857847379323","0.018962868","0.000123391","154"
"155","hotpot2","0.0","-0.4633999915044737","0.94719999999999949","-0.26639998866673209","0.94719999999999938","-0.90739999629520007","0.94720000000000126","SIDE","0.50325656365766835","0.3230426205466756","-0.6237861232676517","-0.50325656365766913","159.16410375474931","-86.385230674256974","48.326999566113535","0.008035651","0.000055696","155"
"156","hotpot2","0.0","-0.5603999928520963","0.94719999999999915","-0.34839998930189758","0.94719999999999938","-0.81839999532756624","0.94719999999999949","SIDE","0.49322997708502664","-0.32202477733893048","0.64011594433291541","-0.49322997708502675","-184.81376790430869","34.932661435338133","90.350802550121841","0.009802607","0.000079709","156"
"157","hotpot2","0.0","0.45260002266653032","0.94719999999999793","-0.98540000000000016","1.570796326794897","-0.60339999163485769","1.570796326794897","SIDE","0.4866520342963746","0.64287548834703978","0.33623013177428934","0.48665203429637433","-144.44045113496972","41.447024292645366","132.69783599397866","0.002724603","0.000026130","157"
"158","hotpot2","0.0","0.42960002157408961","0.94719999999999915","-0.65639999415222738","0.94920000009499361","-0.4333999900795516","0.94719999999999949","SIDE","0.4866520342963746","0.64287548834703978","0.33623013177428934","0.48665203429637444","-168.17887115259467","48.881642296243037","134.01007461839342","0.009286305","0.000058687","158"
"159","hotpot2","0.0","-0.98540000000000016","1.570796326794897","-0.47339999197945098","1.0422000045122519","-0.23839998733680581","0.94719999999999949","SIDE","0.71586709232140289","-0.67213946981545813","0.18911065344790845","3.8771967469022156e-17","-56.934130900759747","-158.19526229982927","82.880508988314617","0.008568360","0.000096655","159"
"160","hotpot2","0.0","0.1566000183861701","0.94719999999999427","-0.79139999404512351","0.94719999999999915","-0.70239999307748768","0.9472000000000016","SIDE","0.50391487885377151","0.35408528977330883","-0.60560977312600328","0.50391487885377195","35.938874030993162","205.6298536922574","63.436316296076491","0.004634479","0.000024537","160"
"161","hotpot2","0.0","-0.60539999172985282","1.3422000089826149","-0.2273999868143414","1.2062000057825879","-0.98540000000000028","1.3762000073378939","SIDE","0.49322997708502664","-0.32202477733893048","0.64011594433291541","-0.49322997708502675","-161.17135579546814","27.116297062789819","89.680804287945008","0.019617207","0.000348038","161"
"162","hotpot2","0.0","-0.068399985781498127","0.94719999999999938","-0.98539999999999994","0.94719999999999971","-0.51639999076221421","0.94720000000000326","SIDE","0.50619447540876006","-0.34155295156200571","0.60899580245727658","0.50619447540876039","-76.317566732403805","-227.08811442394952","81.095670904425845","0.006991840","0.000025197","162"
"163","hotpot2","0.0","1.032600030657272","1.570796326794897","-0.43039998993705769","0.94719999999999938","-0.2643999885717444","0.94720000000000004","SIDE","1.1713150731916103e-16","-0.20502444729130243","-0.67276384542493828","0.71088239836272904","53.349202455806378","169.46302313144378","9.0923080760343407","0.000134941","0.000000059","163"
"164","hotpot2","0.0","1.032600030657274","1.570796326794897","-0.3263999882569516","0.94719999999999938","-0.36639999015685237","0.94719999999999938","SIDE","5.9249762887465792e-17","-0.15791313479695795","-0.69376539662259173","0.70267561243271837","24.175858701636578","176.70990988179014","12.082271520765575","0.000233743","0.000000097","164"
"165","hotpot2","0.0","0.28560002125371747","0.94719999999999582","-0.77139999635480461","0.94719999999999993","-0.35439998958688201","0.94720000000000215","SIDE","0.51146966991660847","-0.60205999641147667","-0.33811435082203123","0.51146966991660869","161.95521173850173","-59.628766181065998","3.079856689439219","0.004368616","0.000013526","165"
"166","hotpot2","0.0","0.2756000207787378","0.94719999999999793","-0.98540000000000016","1.517200010775396","-0.29439998673703521","1.4322000099977521","SIDE","0.51146966991660825","-0.60205999641147667","-0.33811435082203134","0.51146966991660869","137.99823530567042","-52.903056604388617","4.2358025735315499","0.011368449","0.000139534","166"
"167","hotpot2","0.0","-0.98540000000000016","1.5707963267948959","-0.55439999256711547","1.1522000032177191","-0.54939999232962833","0.97720000142491947","SIDE","0.5537723443435949","-0.3330204062283465","0.5251378774340173","-0.5537723443435949","-160.05403873742506","30.823713236901494","53.43425979304849","0.012701672","0.000290633","167"
"168","hotpot2","0.0","1.0326000306572749","1.570796326794897","-0.23739998728930889","0.94719999999999938","-0.29539998678452539","0.94719999999999949","SIDE","1.1626863130078597e-16","0.18215699592924631","0.67374798399647085","0.71615814098195085","-50.71823064680963","-139.39066162991367","123.27309136897733","0.006472774","0.000019987","168"
"169","hotpot2","0.0","-0.72739999426491675","0.94719999999999815","-0.90439999615271116","0.94719999999999949","-0.5473999922346281","0.94719999999999993","SIDE","-2.6131166826504864e-16","0.74351455715454273","-0.17073174798235013","-0.64655763357196216","198.14496840331631","-60.039388209024885","118.19508094679044","0.005433578","0.000066887","169"
"170","hotpot2","3.3306690738754701e-16","-0.64539999362975831","1.570796326794897","-0.27539998909421259","1.4742000087330109","-0.98539999999999994","1.453200007735566","SIDE","-0.49884390869462258","0.61983681484414055","0.34367402066553204","-0.49884390869462292","149.90951990163288","-14.037616658808194","86.557414186133983","0.011116792","0.000164703","170"
"171","hotpot2","0.0","-0.47639999212193868","0.9471999999999986","-0.19139998510441841","0.94719999999999949","-0.98540000000000028","0.94719999999999949","SIDE","1.5374931905861376e-16","-0.62929962888062763","-0.2873226867844772","0.72209947427598487","172.42524098010946","110.76073467306101","23.491811042087374","0.000202202","0.000036320","171"
"172","hotpot2","0.0","-0.98539999999999994","1.5707963267948959","-0.28539998630956021","0.94719999999999938","-0.31339998763948779","0.94719999999999949","SIDE","0.71058805483320742","0.6729625085371399","-0.20539249847976071","-3.5154007844853865e-16","47.180863190146148","149.64715885349446","49.410852529475726","0.009305401","0.000074092","172"
"173","hotpot2","0.0","0.22660001845135991","0.94719999999999738","-0.77439999649729541","0.94719999999999949","-0.35039998939688732","0.94719999999999949","SIDE","0.51019006734538619","-0.31447332532610556","0.61686199268763686","-0.51019006734538597","-166.55491699816594","72.125811664532179","3.9381082997207413","0.002911947","0.000017605","173"
"174","hotpot2","0.0","1.0326000306572749","1.5707963267948959","-0.34639998920690168","0.94720000000000115","-0.34539998915940562","0.94719999999999938","SIDE","0.99975384676173285","0.012185126261772893","-0.018540997359970213","-2.4978034961963822e-16","19.39527369174257","45.583523734536655","-99.310189965065035","0.009711097","0.000030114","174"
"175","hotpot2","0.0","-0.98540000000000016","1.5707963267948959","-0.44639999069701808","0.94719999999999949","-0.2473999877642801","0.94719999999999938","SIDE","2.0612729414277471e-16","-0.18299070807027609","-0.64656160427775911","0.74058928741489993","49.454916305329689","166.35442989627902","73.846284362077228","0.008998146","0.000063970","175"
"176","hotpot2","0.0","-0.98540000000000016","1.5707963267948959","-0.57939999375454743","1.0862000033425161","-0.51439999066724118","0.94720000000000004","SIDE","0.55377234434359501","-0.33302040622834644","0.5251378774340173","-0.5537723443435949","-161.41990077224264","34.085021863719611","52.95828376472565","0.008278953","0.000198894","176"
"177","hotpot2","0.0","-0.61139999201482553","1.5707963267948959","-0.016399983311615952","1.328200008317644","-0.98540000000000016","1.083200003200022","SIDE","0.49035317481418195","0.66028481365914438","0.28832532450413373","0.49035317481418161","-134.25306065741606","92.005129727330484","55.597232089818128","0.003337189","0.000107869","177"
"178","hotpot2","0.0","-0.73139999445489989","0.94719999999999882","-0.98540000000000016","0.94719999999999971","-0.52539999118969094","0.94720000000000026","SIDE","-2.7997678742683784e-16","0.74351455715454273","-0.17073174798235013","-0.64655763357196216","174.19524827557629","-54.539862286162403","114.11167300406373","0.006638928","0.000035898","178"
"179","hotpot2","0.0","0.26760002039876157","0.94719999999999405","-0.98539999999999983","1.4992000099204461","-0.29739998687952962","1.5477963289620811","SIDE","0.51019006734538641","-0.31447332532610534","0.61686199268763686","-0.51019006734538597","-142.88254401238797","64.43979656127091","4.9637929757751511","0.011858081","0.000077978","179"
"180","hotpot2","0.0","-0.53039999142718108","0.94719999999999793","-0.86839999770242682","0.94720000000000004","-0.23039998695682279","0.94719999999999949","SIDE","0.70690751938779706","-0.022071614251501469","-0.0087385302148569356","0.70690751938779695","5.0327782979524569","-40.647335284187129","-212.81658612170398","0.000259916","0.000017566","180"
"181","hotpot2","0.0","-0.42939998988956418","1.3262000082226511","-0.02739998383410696","1.0412000044647569","-0.98540000000000016","1.161200003645193","SIDE","0.50325656365766824","0.3230426205466756","-0.62378612326765182","-0.50325656365766913","135.42498435593149","-78.844916793679729","48.652540271774775","0.016156990","0.000229866","181"
"182","hotpot2","0.0","-0.19439998524692359","1.570796326794897","-0.7783999966872871","1.5707963267948959","-0.81839999532756158","1.167200003930178","SIDE","0.50022897106376529","-0.33791468957811194","-0.62077017936133283","0.50022897106376574","124.85505666937595","72.838448175983032","50.380615997719367","0.007087505","0.000114371","182"
"183","hotpot2","0.0","-0.98539999999999994","0.94720000000000026","-0.85839999722744986","0.94719999999999971","-0.33939998887442607","0.94720000000000149","SIDE","0.5031647819769266","0.34238320451045029","-0.61353414381383775","-0.50316478197692704","215.06818541005984","-32.097743894531881","27.906607353121885","0.000022417","0.000047837","183"
"184","hotpot2","0.0","-0.5223999910471997","0.9472000000000016","-0.34339998906441599","0.94720000000000093","-0.78839999390263271","0.94719999999999949","SIDE","-0.49884390869462258","0.61983681484414055","0.34367402066553204","-0.49884390869462275","173.85507999237012","-20.900925860029339","86.672473950248047","0.010444848","0.000090218","184"
"185","hotpot2","0.0","-0.98540000000000028","0.94719999999999938","-0.85239999694246837","0.94719999999999849","-0.34939998934939298","0.94720000000000326","SIDE","0.50527148543136147","0.60738438807079165","0.34711043941063041","0.50527148543136136","-221.29435101258113","35.931362586971218","26.24394854897205","0.011403219","0.000072377","185"
"186","hotpot2","0.0","-0.31739998782947421","0.94719999999999827","1.098600033792108","1.570796326794897","-0.81539999518507222","0.94719999999999949","SIDE","3.9906654920839314e-17","0.69551245702467801","-0.20827382671176264","0.68766593287026656","-156.63770572197015","87.068610778820116","134.2534100561239","0.000000834","0.000000023","186"
"187","hotpot2","0.0","-0.91839999681767404","1.4532000077355649","-0.87939999822489889","1.5707963267948959","-0.98540000000000016","1.5707963267948959","SIDE","-0.45165256091284717","0.67293300017145086","0.37306984027388712","-0.45165256091284767","133.27127340709961","-30.809192492683504","108.99270861678353","0.015462019","0.000231580","187"
"188","hotpot2","0.0","1.032600030657274","1.5707963267948959","-0.26739998871423459","0.94719999999999949","-0.53339999156966966","1.511200010490412","SIDE","0.67857788488044757","-0.72006953197453394","0.14502387139072531","6.1353846553337601e-17","-24.808610823813304","-147.52695500525266","18.698673378616306","0.009092102","0.000042945","188"
"189","hotpot2","0.0","-0.12639998527672719","0.94719999999999938","-0.67939999524466821","1.4632000082105421","-0.98540000000000016","1.1062000042924569","SIDE","3.9791084575874996e-17","0.68033622874988087","-0.22492442121698936","0.69753252296261581","-160.8866217900393","27.022161797513238","89.672735259797548","0.008936346","0.000128443","189"
"190","hotpot2","0.0","1.032600030657278","1.570796326794897","-0.89739999582021979","0.94719999999999938","-0.29939998697451647","0.94719999999999993","SIDE","0.7041346071370792","0.051655504504651138","-0.0756347732077777","0.70413460713707932","-17.768406617975518","15.263616403627056","-173.11541207519565","0.001042470","0.000002304","190"
"191","hotpot2","0.0","0.26260002016127543","0.94719999999999793","-0.40039998851211939","0.94719999999999793","-0.66739999467469935","0.94719999999999938","SIDE","-0.47579240275557894","-0.37678815216953082","0.63661123721217494","0.47579240275557921","154.15667917476017","-54.171747206693382","140.29628124238292","0.006461004","0.000024109","191"
"192","hotpot2","0.0","0.161600018623658","0.94719999999999915","-0.23039998695682479","0.94719999999999949","-0.30939998744949709","0.9472000000000016","SIDE","0.6707979414352172","0.71776086247024362","-0.186680116970841","-4.5514649481285513e-16","40.651033077737381","142.39220074493295","135.91936655065371","0.011863229","0.000067863","192"
"193","hotpot2","0.0","1.0326000306572749","1.570796326794897","-0.3083999874019972","0.94719999999999938","-0.38439999101180622","0.94719999999999993","SIDE","0.6707979414352172","0.71776086247024362","-0.186680116970841","-4.5514649481285513e-16","46.889724551412606","166.37916114270524","138.41186721704932","0.000063690","0.000000036","193"
"194","hotpot2","0.0","-0.41039998898711127","1.052200001727601","-0.31439998768698257","0.94720000000000149","-0.38639998784717478","0.94719999999999949","TOP","0.22274378415868659","0.95557240385287046","-0.19304555838846715","-2.541526792292616e-16","23.879381827127141","83.820096048240856","215.30401119942192","0.017281627","0.000251415","194"
"195","hotpot2","0.0","-0.73439999459740057","0.94719999999999605","-0.60439999168235736","0.94719999999999915","-0.57139999337457192","0.94719999999999949","SIDE","0.5537723443435949","-0.3330204062283465","0.5251378774340173","-0.5537723443435949","-185.09557662190002","39.385338903030586","47.312301800114916","0.008237052","0.000035265","195"
"196","hotpot2","0.0","-0.6583999942472224","1.5092000103954251","-0.98540000000000016","1.439200010330232","-0.87739999812990532","1.4842000092079879","SIDE","0.70688154083797394","0.22429571423390229","0.67082778699069656","-7.8529637604416767e-17","-145.0899861648864","66.088694615364219","66.020652000178558","0.018624063","0.000282067","196"
"197","hotpot2","0.0","-0.64739999372475332","0.98420000175740574","-0.4053999887496309","0.94720000000000204","-0.65339999400973592","0.94719999999999915","SIDE","-0.49786670562387969","-0.33368692411199685","0.62682575213461411","0.49786670562387975","154.07392948942535","-60.957699924489177","51.771072722427647","0.009484153","0.000084670","197"
"198","hotpot2","0.0","-0.98539999999999994","0.94720000000000004","-0.40139998855963999","0.94719999999999938","-0.26139998842924561","0.94719999999999949","TOP","-8.8403951998392743e-17","0.78490765933556694","-0.61440473366682324","0.080167259926740453","-28.251123046652076","61.843820466820567","316.72059221913025","0.003986413","0.000021532","198"
"199","hotpot2","0.0","0.47660002380646388","0.94719999999999782","-0.98539999999999983","1.570796326794897","-0.98539999999999994","1.570796326794897","SIDE","0.5111749577693272","-0.60277648239099657","-0.33772894068378145","0.51117495776932764","129.29858782278501","-29.304708476990669","5.0668864666007458","0.002750367","0.000024982","199"
"200","hotpot2","0.0","-0.77439999649729496","0.94719999999999938","-0.47739999216944062","0.94719999999999971","-0.60039999149238232","0.94820000004749649","SIDE","0.40674681367199955","-0.32639378792894813","0.75005410093988834","-0.40674681367199955","-162.74017765962623","54.58636142778451","159.61115759310829","0.011721269","0.000120307","200"
"201","hotpot2","0.0","-0.65139999391474124","0.96420000080745283","-0.40039998851212621","0.94719999999999993","-0.67239999491218649","0.94719999999999949","SIDE","0.49851778253130391","0.6294319917908574","0.32676506653915316","0.49851778253130391","-162.23139788715901","69.268436471495505","51.381977250650522","0.009291306","0.000135234","201"
"202","hotpot2","0.0","0.1186000165812665","0.9471999999999986","-0.80639999475758783","0.94720000000000149","-0.69939999293499433","0.94720000000000149","SIDE","0.50007817778430985","-0.60986995967587021","-0.35763426079278277","-0.50007817778431052","-44.68009544587769","-200.46538852293327","65.884348280876537","0.003285552","0.000022361","202"
"203","hotpot2","0.0","-0.46939999178946151","0.94719999999999938","-0.51639999076221255","0.9522000002374853","-0.98540000000000028","1.2782000059427649","SIDE","0.52367570720518852","0.32779412426903615","-0.58658206541027713","0.52367570720518886","54.496296084277326","184.1671518209217","72.043107586790057","0.011179000","0.000195998","203"
"204","hotpot2","0.0","1.032600030657274","1.570796326794897","-0.24839998781178099","0.94719999999999949","-0.57139999337457203","1.515200010680408","SIDE","5.9249762887465792e-17","-0.15791313479695795","-0.69376539662259173","0.70267561243271837","18.647746373972247","152.42305719846152","11.771046793214879","0.007157944","0.000036385","204"
"205","hotpot2","0.0","-0.69839999288749433","0.94719999999999793","-0.57539999356455929","0.94720000000000149","-0.59539999125487997","0.94719999999999938","SIDE","0.55377234434359501","-0.33302040622834644","0.5251378774340173","-0.5537723443435949","-183.72971458708335","36.124030276212473","47.788277828437757","0.015847551","0.000095527","205"
"206","hotpot2","0.0","0.4466000223815435","0.94719999999999915","-0.59639999130237664","1.570796326794897","-0.98540000000000016","1.570796326794897","SIDE","0.48625324432353867","0.63907340997342643","0.34452973955030747","0.48625324432353867","-138.12926738653005","59.732738164685905","132.86455082625281","0.001546815","0.000027136","206"
"207","hotpot2","0.0","0.1816000195735962","0.94719999999999271","-0.58139999384954621","1.231200006970026","-0.58939999096990514","1.1792000045001461","SIDE","0.5111749577693272","-0.60277648239099646","-0.3377289406837814","0.51117495776932775","153.25019151130314","-36.054604354074151","3.9409706630353352","0.012378534","0.000083183","207"
"208","hotpot2","0.0","0.19960002042856281","0.94719999999999571","-0.40139998855962028","0.94719999999999949","-0.67439999500718273","0.94720000000000126","SIDE","0.48625324432353867","0.63907340997342654","0.34452973955030752","0.48625324432353867","-161.95718807560326","66.868098824836025","134.21544826307772","0.005661613","0.000019541","208"
"209","hotpot2","0.0","0.23560001887884799","0.94719999999999815","-0.1813999878890819","0.94720000000000126","-0.96139999886006844","0.94719999999999949","SIDE","0.49856728677400391","-0.4124395290952993","0.57684916222290195","-0.49856728677400403","-187.77431594000893","-10.901536678733944","11.373534750261484","0.005781184","0.000048802","209"
"210","hotpot2","0.0","-0.46039999136198317","0.9471999999999986","-0.52539999118969005","1.255200004850328","-0.98540000000000016","1.570796326794897","SIDE","0.49103915566238548","-0.11001415933380808","0.71109632256032562","0.49103915566238548","-105.00501510268295","-134.63218459312733","34.795584654974","0.012934792","0.000209220","210"
"211","hotpot2","0.0","-0.69039999250751727","0.94719999999999938","-0.78839999390263182","1.4652000083055341","-0.98539999999999994","1.5707963267948959","TOP","-0.2381000996539267","0.83724542415386438","0.43085587476904141","-0.23810009965392701","110.46026601762873","-27.253291641579874","185.63552153288242","0.002825368","0.000103231","211"
"212","hotpot2","0.0","0.40060002345629392","0.94719999999999394","-0.78739999385513815","1.570796326794895","-0.98540000000000016","1.570796326794897","SIDE","0.5111749577693272","-0.60277648239099635","-0.33772894068378145","0.51117495776932775","134.20519672753082","-25.152289355270071","4.904168811894424","0.008607252","0.000028155","212"
"213","hotpot2","0.0","-0.98540000000000016","0.94719999999999849","-0.77439999649729674","0.94719999999999949","-0.43439999012705138","0.94719999999999949","SIDE","0.49826097513055223","-0.32348203124645619","0.63153097848369177","-0.49826097513055212","-192.28448463466879","79.789765212617169","107.21607872624296","0.009359759","0.000044463","213"
"214","hotpot2","0.0","0.14460001781619969","0.94719999999999571","-0.4653999915994726","1.050200001632607","-0.63039999291729387","1.052200001727603","SIDE","0.51117495776932731","-0.60277648239099635","-0.33772894068378151","0.51117495776932764","158.15680041604807","-31.902185232353553","3.7782530083292336","0.015735687","0.000118432","214"
"215","hotpot2","0.0","-0.98540000000000028","0.94719999999999993","-0.77839999668728732","0.94719999999999971","-0.43439999012704728","0.94720000000000359","SIDE","-0.49842379686928401","0.63329629658254449","0.31950467627821544","-0.49842379686928412","181.57734395945664","-73.548898109370654","107.08058847787798","0.006789264","0.000038889","215"
"216","hotpot2","0.0","-0.41239998908209979","0.94719999999999815","-0.9853999999999995","0.94719999999999949","-0.23939998738430671","0.9472000000000016","SIDE","-0.495753847343405","0.63286612297088329","0.32853723698270015","0.49575384734340477","-86.61955372034123","-239.43789873024642","13.999499573704641","0.000002942","0.000022822","216"
"217","hotpot2","0.0","-0.98539999999999994","1.2502000046128401","-0.80939999490008152","1.4322000099977501","-0.48039999231193131","1.469200008495525","SIDE","0.5031647819769266","0.34238320451045007","-0.61353414381383764","-0.50316478197692693","147.92533317368475","-34.661529339449743","28.718085679133026","0.022490644","0.000270995","217"
"218","hotpot2","0.0","0.43160002166908301","1.219200006400053","-0.96239999890756067","1.5707963267948959","-0.98539999999999994","1.570796326794897","SIDE","0.52049596874234194","-0.31094284604939743","0.6012340971174559","-0.52049596874234216","-135.8906015094837","39.357512226030771","0.4462939872761883","0.009999604","0.000078787","218"
"219","hotpot2","0.0","-0.92739999724515088","0.9472000000000016","-0.71239999355245531","0.94719999999999793","-0.44639999069702357","0.94720000000000326","SIDE","0.50508215999239114","0.62007115507292532","0.32449312159330745","0.50508215999239137","-180.82478747142727","48.969186375465547","27.113697140054516","0.008530379","0.000043643","219"
"220","hotpot2","0.0","-0.74339999502487231","0.94720000000000149","-0.54439999209213408","1.042200004512253","-0.58939999096988671","1.1662000038826901","SIDE","-0.45165256091284711","0.67293300017145075","0.37306984027388712","-0.45165256091284767","156.80772911247189","-37.55651258370473","113.57714145175056","0.018570205","0.000245654","220"
"221","hotpot2","0.0","-0.01739998335912539","0.94719999999999405","-0.79739999433011577","0.94719999999999938","-0.72439999412242695","0.94719999999999971","SIDE","0.7080137614133184","0.22834896470598373","0.66826137399005026","-2.744141991273838e-16","-162.36106346201493","95.251616257663542","65.5205586975014","0.006182948","0.000028038","221"
"222","hotpot2","0.0","1.0326000306572749","1.570796326794897","-0.48039999231193198","0.95020000014249262","-0.2133999861493667","0.94719999999999949","SIDE","2.3795093814769053e-16","0.18761422804746175","0.68919543791615712","0.69986466533874347","-40.134926275555266","-176.5659540347084","128.71199884490326","0.005390973","0.000007362","222"
"223","hotpot2","0.0","-0.29239998664203731","0.94719999999999782","-0.58939999096989737","0.94719999999999938","-0.9163999967226818","0.94719999999999938","SIDE","0.70547182118314133","-0.19527658447511884","-0.68130504553560567","-7.8686560631380732e-17","179.1421366327499","-22.416309269300825","86.697878555007549","0.007890511","0.000042397","223"
"224","hotpot2","0.0","-0.90239999605771382","0.9471999999999986","-0.75739999568983463","0.94719999999999938","-0.43339999007955032","0.94720000000000537","SIDE","-0.49842379686928401","0.63329629658254449","0.31950467627821544","-0.49842379686928412","205.23679612501678","-81.340806432315844","107.23739381058151","0.000724693","0.000076576","224"
"225","hotpot2","7.2164496600635195e-16","-0.48639998933728701","0.94719999999999949","-0.98539999999999872","0.94719999999999949","-0.3563999896818788","0.94719999999999949","SIDE","-0.49103915566238537","0.71109632256032573","0.11001415933380862","0.49103915566238543","-153.29825682481086","-200.60334362707758","37.701655089653549","0.000074930","0.000027052","225"
"226","hotpot2","0.0","-0.98540000000000016","0.94719999999999915","-0.27339998899921708","0.94719999999999971","-0.53939999185465748","0.94719999999999915","SIDE","-3.9236259289016084e-17","-0.6715667763605736","-0.22042882136149977","0.70739606982358005","201.41880601526393","101.31798859854516","85.781649591879528","0.006347543","0.000027756","226"
"227","hotpot2","0.0","-0.89039999548774118","1.1162000047674461","-0.98540000000000028","1.5707963267948959","-0.66539999457970411","1.570796326794897","SIDE","0.56347643964361949","0.29592257970043767","-0.52670525985273653","-0.5634764396436196","136.475465160401","-31.04421941201236","30.456059666366279","0.012977897","0.000084184","227"
"228","hotpot2","0.0","-0.56039999285209796","1.249200004565342","-0.33139998849443658","0.94719999999999815","-0.80139999452010868","0.94719999999999938","SIDE","0.54795571090192441","-0.55860674821346412","-0.29571536759240724","0.54795571090192474","165.27261893886046","-21.499717652678441","34.796070669288916","0.004843932","0.000100562","228"
"229","hotpot2","4.4408920985006252e-16","0.1516000181486889","0.94719999999999849","-0.57139999337457126","1.17520000431016","-0.59239999111239783","1.154200003312714","SIDE","0.52049596874234194","-0.31094284604939748","0.60123409711745579","-0.52049596874234216","-159.54436139848127","46.885086346465989","-1.6377815811750014","0.013418081","0.000103320","229"
"230","hotpot2","0.0","-0.98540000000000016","1.5707963267948959","-0.73739999473989282","1.570796326794897","-0.23039998695682901","0.94719999999999915","SIDE","2.3322340366096812e-16","0.14139595632333474","0.68566613768175588","0.71405121046882414","-28.409088135625638","-162.50362217748417","48.12419318973641","0.002970229","0.000057155","230"
"231","hotpot2","0.0","-0.65239999396223747","1.3382000087926149","-0.98540000000000016","1.570796326794897","-0.15839998679664091","0.94719999999999949","SIDE","0.69844076494972807","0.68930475331067809","-0.19245637147089675","-3.5765406756955279e-16","24.959435115026182","157.15340244506632","108.58945964779817","0.010109806","0.000096946","231"
"232","hotpot2","0.0","-0.86839999770242915","0.94719999999999882","-0.98540000000000028","1.570796326794897","-0.52539999118969016","1.570796326794897","SIDE","0.5743247113022979","0.27850837873604173","-0.51257715024070805","-0.57432471130229834","138.86661346261442","-29.896679373114498","22.62751886287851","0.015739110","0.000098448","232"
"233","hotpot2","0.0","-0.98540000000000016","0.94719999999999915","-0.92339999705514142","0.94719999999999949","-0.26639998866673842","0.94720000000000026","SIDE","-0.49842379686928401","0.63329629658254449","0.31950467627821544","-0.49842379686928429","196.17110757606756","-100.52439211012798","107.22096418716858","0.000014449","0.000046376","233"
"234","hotpot2","0.0","-0.98540000000000016","1.570796326794897","-0.49839998990726048","0.94719999999999793","-0.61539999220483355","0.94720000000000204","SIDE","0.57432471130229801","-0.51257715024070793","-0.27850837873604184","0.57432471130229834","151.49726506620445","-33.633874652092587","18.187921294869462","0.006799562","0.000136944","234"
"235","hotpot2","0.0","-0.88839999539275816","0.94720000000000271","-0.67639999510217652","0.94719999999999938","-0.47939999226443519","0.94719999999999949","SIDE","0.50508215999239137","0.62007115507292521","0.32449312159330757","0.50508215999239148","-179.59962989178723","52.214794956183539","27.117783530983484","0.000001056","0.000030110","235"
"236","hotpot2","0.0","-0.6793999952446681","1.435200010140242","-0.98540000000000028","1.570796326794897","-0.13639998575169729","0.94719999999999949","SIDE","3.1933213298992312e-16","0.21437112527279328","0.68596387362656841","0.69534062496628901","-37.101916963502461","-150.32120662387553","109.56103578369428","0.008534665","0.000057948","236"
"237","hotpot2","0.0","-0.66939999476969514","0.94719999999999649","-0.39939998846464281","0.9472000000000016","-0.65839999424721884","0.94719999999999993","SIDE","0.50360746291218339","0.62976879328706903","0.31008114034887135","0.5036074629121835","-161.36941161342614","72.425159372404352","28.25961675025934","0.003964452","0.000039059","237"
"238","hotpot2","0.0","0.3936000231238187","0.94719999999999394","-0.75139999540485303","1.5707963267948959","-0.98540000000000016","1.570796326794897","SIDE","0.52049596874234205","-0.31094284604939754","0.6012340971174559","-0.52049596874234205","-141.22137662950948","35.093517984770919","0.12836998185943932","0.002421618","0.000029042","238"
"239","hotpot2","0.0","-0.025399983739110059","0.94719999999999882","-0.79139999404511596","0.94719999999999815","-0.71339999359995832","0.94719999999999915","SIDE","1.9813663655166208e-16","-0.67607336528551687","0.22878721906296898","0.70041502921121646","154.10399791652506","-87.901476346474155","68.950250283031139","0.008123618","0.000046979","239"
"240","hotpot2","0.0","-0.94139999791011542","0.94719999999999938","-0.79839999437762288","0.94720000000000115","-0.3463999892068953","0.94720000000000426","SIDE","-0.45718528712666134","0.64646976203704232","0.40501860851273741","-0.45718528712666151","166.41711756185228","-52.753785819988472","112.78550799810127","0.010029222","0.000040978","240"
"241","hotpot2","0.0","-0.45339999102948858","0.94719999999999915","-0.8803999982723959","0.94719999999999949","-0.27039998885672839","0.94719999999999993","SIDE","-0.49509663632791734","-0.37266399491287622","0.60899933357035718","0.49509663632791795","177.35548322805192","-14.806412898660472","109.09810627538219","0.007931502","0.000018942","241"
"242","hotpot2","0.0","-0.61939999239482857","1.4622000081630371","-0.2223999865768469","0.94719999999999949","-0.62939999286979464","1.5707963267948959","SIDE","0.70439320634440261","-0.68703072224319073","0.17837880353296348","0.0","-30.649650134144927","-146.76007381427604","86.736324255719083","0.002412754","0.000171803","242"
"243","hotpot2","0.0","-0.51939999090471112","1.266200005372798","-0.23239998705182299","0.94719999999999938","-0.5763999936120594","1.461200008115543","SIDE","1.3646002402238844e-16","-0.17492840184093308","-0.68015645680457337","0.71188991318631967","21.633117934786451","153.25462418558166","84.518670400680861","0.012070383","0.000310388","243"
"244","hotpot2","0.0","0.1076000193184368","0.9471999999999986","-0.44839999079200632","0.98020000156741427","-0.63639999320228091","1.0152000032298301","SIDE","0.52049596874234205","-0.31094284604939748","0.60123409711745579","-0.52049596874234205","-164.87513651850702","42.621092105206095","-1.9557055865919697","0.016101274","0.000129264","244"
"245","hotpot2","0.0","-0.98539999999999994","1.1812000045951501","-0.79039999399762262","1.410200008952798","-0.48739998938478152","1.3722000071479039","SIDE","0.50508215999239148","0.6200711550729251","0.32449312159330768","0.50508215999239137","-155.83137649799616","44.777107790861997","27.62674348943802","0.022785441","0.000307206","245"
"246","hotpot2","0.0","-0.87339999793991585","0.94719999999999949","-0.68439999548215225","0.9472000000000006","-0.47539999207444239","0.94719999999999971","SIDE","-0.49786670562387969","-0.33368692411199685","0.62682575213461411","0.49786670562387969","173.38599872169837","-45.296389864587283","51.889430859037844","0.010049761","0.000078786","246"
"247","hotpot2","0.0","-0.70439999317248569","0.94719999999999938","-0.55339999251962368","0.94719999999999949","-0.62839999282230186","0.94720000000000271","SIDE","0.57432471130229779","-0.51257715024070805","-0.27850837873604189","0.57432471130229845","174.13248227420652","-40.331250966726131","10.231779488267152","0.009514034","0.000033868","247"
"248","hotpot2","0.0","-0.98540000000000016","1.2782000059427661","-0.63739999324977481","0.94719999999999938","-0.63839999329727515","1.570796326794897","SIDE","2.3218336725574484e-16","0.50176750079578702","0.48351031356076463","0.71724971371588642","-123.20025402404031","-123.21381839827588","62.325745080346273","0.013861999","0.000166896","248"
"249","hotpot2","0.0","0.33860002051145238","0.94719999999999793","-0.01439998321663412","0.98220000166241106","-0.98539999999999994","1.1322000055274","SIDE","-0.48666037721526106","-0.34803645497935087","0.63654849029968286","0.48666037721526145","135.17569114994788","-75.705391790237826","133.26751489655453","0.013306498","0.000074867","249"
"250","hotpot2","0.0","-0.41039998898711999","0.94719999999999194","-0.89639999577272567","0.94719999999999782","-0.28439998952169049","0.94719999999999949","SIDE","0.49730842180977941","0.62199703751049351","0.34422137139100306","0.49730842180977941","-186.60440000343104","28.802158587432515","107.69849876163497","0.007415608","0.000014176","250"
"251","hotpot2","0.0","-0.98540000000000028","1.570796326794897","-0.36739999020434899","0.94719999999999938","-0.56539999308958744","1.5252000111553821","TOP","0.054400674445900965","0.32842926712044579","0.94296064770411181","-8.8303501370520294e-17","-34.725367041659354","-12.774718927112207","235.86952808888805","0.005713014","0.000113191","251"
"252","hotpot2","0.0","-0.9003999959627127","0.94719999999999882","-0.71339999359994888","0.94719999999999949","-0.42739998979456462","0.94719999999999938","SIDE","0.50316478197692682","0.34238320451045007","-0.61353414381383764","-0.50316478197692682","173.32523811536845","-38.223740409752516","28.39539922812007","0.009727485","0.000055703","252"
"253","hotpot2","0.0","0.38260002260133619","0.94719999999999405","0.048600016516079127","1.3402000088876","-0.98539999999999994","1.060200002107583","SIDE","0.49856728677400391","-0.4124395290952993","0.57684916222290195","-0.49856728677400408","-163.20174786283286","-14.985245446483498","11.230983732181885","0.012165075","0.000056745","253"
"254","hotpot2","7.7715611723760968e-16","-0.4133999891295983","0.94719999999999915","-0.98539999999999894","0.94719999999999915","-0.2403999874318028","0.94720000000000337","SIDE","0.50266976450844214","0.3307417002484081","-0.62069005422581602","0.50266976450844247","76.170467192341675","244.3483454647297","8.2540125119438663","0.000031822","0.000021588","254"
"255","hotpot2","0.0","0.2846000212062248","0.94719999999999427","-0.26339998852424801","1.4862000093029819","-0.98540000000000016","1.444200010567712","SIDE","0.51011943275357741","-0.60616479271956236","-0.33484410211557591","0.51011943275357785","148.97123558996913","-14.100584103450203","4.9778579204041069","0.010292947","0.000069971","255"
"256","hotpot2","0.0","-0.67939999524466732","0.94719999999999938","-0.98540000000000016","1.5707963267948959","-0.54339999204465483","1.570796326794897","SIDE","0.49003532749325202","0.072966095775188269","0.71722151702558989","0.49003532749325202","-122.60782104862523","-109.63920282745997","55.042098980665507","0.000006901","0.000051751","256"
"257","hotpot2","0.0","-0.98540000000000016","1.20520000573509","-0.78539999376013381","1.357200006435439","-0.45239999098200628","1.306200007272696","SIDE","-0.49786670562387958","-0.33368692411199685","0.626825752134614","0.49786670562387975","149.56171194078425","-38.025456665951921","51.677322863550643","0.023936844","0.000295031","257"
"258","hotpot2","0.0","0.30560002220365468","0.9471999999999885","-0.3063999873069882","1.570796326794897","-0.98540000000000016","1.504200010157936","SIDE","0.51210889371140023","-0.34207143728011336","0.59872873136378613","-0.51210889371140045","-154.66178256697697","17.919258852081274","4.0411784892414451","0.008920604","0.000047932","258"
"259","hotpot2","0.0","-0.98540000000000016","1.5707963267948959","-0.533399991569669","0.94719999999999438","-0.55939999280460484","0.94719999999999938","SIDE","0.5634764396436196","-0.5267052598527362","-0.29592257970043773","0.56347643964361982","152.6897944530381","-35.593039900587833","25.733360826788044","0.000019209","0.000065914","259"
"260","hotpot2","0.0","-0.88939999544024628","0.94719999999999793","-0.7543999955473436","0.94719999999999971","-0.42939998988956579","0.9471999999999986","SIDE","0.49826097513055234","-0.32348203124645614","0.63153097848369177","-0.49826097513055223","-215.90546585233696","87.40894769775359","107.38842887196154","0.000016198","0.000039437","260"
"261","hotpot2","0.0","-0.64339999353476707","0.9632000007599566","-0.40539998874961131","0.94719999999999949","-0.65439999405723048","0.98320000170990773","SIDE","-0.49987211524264952","-0.33491357591694126","0.62296760226532277","0.49987211524264991","154.12017755781142","-60.277324116632336","30.554387251453761","0.011508397","0.000121017","261"
"262","hotpot2","0.0","-0.43239999003205348","0.9471999999999986","-0.29639998683202889","0.94719999999999815","-0.3863999878471735","0.94719999999999938","SIDE","0.70439320634440261","-0.68703072224319062","0.17837880353296356","3.9403525425340676e-17","-36.90947421524249","-170.86995331998244","86.927145360557788","0.007933726","0.000013377","262"
"263","hotpot2","0.0","-0.70939999340997451","0.94719999999999938","-0.50139999004975655","0.9471999999999986","-0.60839999187235216","1.107200004339961","SIDE","-0.4003374514686332","0.70896818260142724","0.42050441848098175","-0.40033745146863353","155.83145722311787","-29.680720917990236","141.56690864263103","0.012405993","0.000107979","263"
"264","hotpot2","0.0","-0.98539999999999961","0.94720000000000004","-0.86739999765492615","0.94719999999999938","-0.34239998901691032","0.94719999999999938","SIDE","0.50051549128021022","0.36939874943838286","-0.60209056618619894","-0.50051549128021111","209.82889567884803","-22.26588321967283","50.074753792831679","0.014222644","0.000068891","264"
"265","hotpot2","0.0","-0.90939999639021063","0.94720000000000004","-0.71639999374243823","0.9472000000000016","-0.44439999060202212","0.94720000000000026","SIDE","-0.49786670562387969","-0.33368692411199685","0.62682575213461411","0.49786670562387975","174.42351859222541","-42.239375193201312","51.890282356463757","0.009640762","0.000074780","265"
"266","hotpot2","0.0","0.076600017846004148","0.94719999999999849","-0.33439998863693149","0.94719999999999949","-0.77539999654479297","0.94719999999999971","SIDE","0.51210889371140023","-0.34207143728011336","0.59872873136378624","-0.51210889371140045","-178.57794407727877","24.443765865031828","2.824450561103252","0.007696810","0.000040391","266"
"267","hotpot2","0.0","0.20660002076104081","0.94719999999999405","-0.44639999069702319","0.94719999999999938","-0.98540000000000016","0.94719999999999971","SIDE","-0.49387220115307218","-0.35132486002047247","0.62349927071972899","-0.49387220115307218","49.853903698824134","246.31582089247192","110.84528787586308","0.000436807","0.000022289","267"
"268","hotpot2","0.0","-0.98539999999999983","1.116200004767449","-0.82439999561253863","1.336200008697624","-0.39239998813216392","1.2712000056102859","SIDE","-0.49786670562387969","-0.33368692411199685","0.62682575213461411","0.49786670562387975","150.59923181131234","-34.96844199456595","51.678174360976548","0.021849857","0.000209436","268"
"269","hotpot2","0.0","-0.90039999596272746","0.94720000000000182","-0.68239999538716045","0.94719999999999915","-0.48339999245442322","0.94720000000000004","SIDE","0.50375000108821399","0.62534783344143297","0.31845244545670309","0.50375000108821444","-180.10417001294553","54.238132397638857","47.987997829415548","0.009958770","0.000076330","269"
"270","hotpot2","0.0","-0.74139999492987818","0.94719999999999938","-0.5893999909698926","0.94719999999999815","-0.59139999106489938","0.94720000000000426","SIDE","0.56347643964361949","-0.52670525985273631","-0.29592257970043773","0.56347643964361993","175.69949345597013","-42.048255430709567","19.031395126027139","0.011170006","0.000042392","270"
"271","hotpot2","0.0","-0.54439999209213763","0.94719999999999938","-0.98539999999999994","0.94720000000000037","-0.26639998866673781","0.94719999999999938","SIDE","-0.49918976915473168","0.63085955113001213","0.32192448724899864","-0.49918976915473201","176.85268088563234","-93.154498302783949","31.070668086981492","0.008984431","0.000016285","271"
"272","hotpot2","0.0","-0.98540000000000028","0.94719999999999949","-0.90439999615270905","0.94719999999999938","-0.45739999121949049","0.94719999999999971","SIDE","0.57522686034698367","0.29957308024965151","0.76116360181309739","0.0","-183.57268865280301","62.785465369029957","167.6576047513322","0.000010582","0.000044965","272"
"273","hotpot2","0.0","-0.43239999003205398","0.94719999999999793","-0.30439998721200801","0.94719999999999949","-0.39139998808466081","0.94719999999999949","SIDE","1.3646002402238844e-16","-0.17492840184093311","-0.68015645680457326","0.71188991318631967","27.837190817140531","177.37729486119002","84.180529680588876","0.007566092","0.000011400","273"
"274","hotpot2","0.0","-0.86039999732244832","0.94719999999999938","-0.67739999514967197","0.94719999999999949","-0.46039999136198229","0.94719999999999971","SIDE","0.5031647819769266","0.34238320451045007","-0.61353414381383764","-0.50316478197692693","171.88795327161444","-41.458651453734504","28.40174882415991","0.008363163","0.000045877","274"
"275","hotpot2","0.0","-0.51039999047723827","0.94719999999999727","-0.2343999871468212","0.94720000000000337","-0.88139999831989491","0.94719999999999949","SIDE","0.52092749343431521","0.61901640035946859","0.27219072220501772","0.52092749343431521","-159.92915946314665","101.62913111818561","16.640528922812425","0.009503111","0.000065123","275"
"276","hotpot2","0.0","-0.98539999999999994","1.234200007112511","-0.45239999098199912","0.94719999999999827","-0.46339999150447853","1.4602000080680519","SIDE","1.5987446628016913e-16","0.42502927366774956","0.58061278985069609","0.69443423359397882","-104.77479428685946","-134.31769060780007","34.781731000043379","0.003222668","0.000188612","276"
"277","hotpot2","0.0","-0.29539998678453139","0.94719999999999405","-0.33939998887442102","0.94719999999999949","-0.98540000000000016","1.570796326794897","TOP","0.0801672599267408","0.61440473366682324","0.78490765933556694","-1.502867183972677e-16","-20.058431571286686","55.430800585987363","252.45735887657227","0.000589275","0.000029355","277"
"278","hotpot2","0.0","-0.93039999738764478","0.94719999999999915","-0.7103999934574583","0.94719999999999915","-0.45639999117199048","0.94720000000000037","SIDE","0.50375000108821388","0.62534783344143285","0.31845244545670331","0.50375000108821455","-180.94946959959967","51.638574759470757","47.987997829415541","0.012151492","0.000137083","278"
"279","hotpot2","0.0","0.14660001791120419","0.94719999999999849","-0.26439998857173541","0.94719999999999949","-0.91639999672268535","0.94719999999999971","SIDE","-0.48666037721526106","-0.34803645497935087","0.63654849029968286","0.48666037721526145","159.04736666688922","-82.700487259575567","134.57894441761508","0.011117122","0.000033788","279"
"280","hotpot2","0.0","-0.98539999999999994","1.1492000030752261","-0.78839999390262427","1.386200007812866","-0.47139999188445558","1.3152000077001751","SIDE","0.50375000108821388","0.62534783344143285","0.3184524454567032","0.50375000108821444","-156.41777952731945","46.5360325354415","48.363049126158487","0.023251603","0.000254646","280"
"281","hotpot2","0.0","-0.98539999999999994","1.570796326794897","-0.42439998965206938","1.141200005954879","-0.35739998972937481","0.94719999999999938","TOP","0.030763630298289334","0.9715158733094027","-0.23294657329441226","0.030763630298289105","-9.0668293477992261","10.834266150903167","234.1611848370444","0.006998845","0.000076358","281"
"282","hotpot2","0.0","-0.98539999999999994","1.570796326794897","-0.18539998481944209","1.323200008080154","-0.14739998627416909","0.94719999999999938","SIDE","1.576593629517926e-16","-0.093229346810211389","-0.4652827739365164","0.88023873419162935","40.571713713643611","171.48217427806992","22.504428831326159","0.003597082","0.000055779","282"
"283","hotpot2","0.0","-0.4633999915044727","0.94719999999999949","-0.25739998823925819","0.94719999999999938","-0.91639999672267924","0.94719999999999949","SIDE","-0.49526821680022465","-0.31627906712476123","0.63983305522123635","0.49526821680022498","155.71400663303226","-88.446312803325696","68.98227416033653","0.007003446","0.000052874","283"
