ipa320/cob_manipulation/cob_grasp_generation/files/database/hotpot2/hotpot2.csv
"id","object","sdh_knuckle_joint","sdh_finger_12_joint","sdh_finger_13_joint","sdh_finger_22_joint","sdh_finger_23_joint","sdh_thumb_2_joint","sdh_thumb_3_joint","direction","qw","qx","qy","qz","pos-x","pos-y","pos-z","eps_l1","vol_l1"
"0","hotpot2","0.0","1.032600030657276","1.5707963267948959","-0.66039999434221486","0.46999999999999942","-0.29439998673704021","0.46999999999999992","SIDE","0.51296603212757197","0.37490316861926298","-0.57721686905861069","0.51296603212757241","41.716288770407893","268.22643660607019","28.818924953024187","0.000008195","0.000000050","0"
"1","hotpot2","0.0","1.032600030657274","1.570796326794897","-0.76839999621231425","0.94720000000000037","-0.69339999265000518","0.94720000000000182","SIDE","0.50007817778430985","-0.60986995967587021","-0.35763426079278277","-0.50007817778431052","-57.293852312838339","-248.84816327999218","65.868711501661281","0.000028223","0.000000170","1"
"2","hotpot2","0.0","1.032600030657274","1.570796326794897","-0.58239999389704322","0.46999999999999958","-0.51939999090470468","0.46999999999999958","SIDE","0.50391487885377129","0.35408528977330894","-0.60560977312600339","0.50391487885377195","48.613566986736238","253.99031582800436","62.650275270034179","0.000027635","0.000000174","2"
"3","hotpot2","0.0","0.31560001941900578","0.46999999999999897","-0.59039999101739837","0.47000000000000031","-0.51939999090471045","0.47000000000000192","SIDE","0.50007817778431007","-0.6098699596758701","-0.35763426079278277","-0.50007817778431052","-57.293852312838354","-248.84816327999215","65.868711501661295","0.006140493","0.000054132","3"
"4","hotpot2","0.0","-0.56539999308959044","0.46999999999999931","-0.38439999101180528","0.46999999999999947","-0.84639999665748811","0.46999999999999897","SIDE","4.3188588938237127e-16","-0.67732427666363826","0.20368495537902911","0.7069259248282822","173.25997935505021","-44.532897956419568","40.561445587397046","0.009264642","0.000064496","4"
"5","hotpot2","0.0","-0.51639999076221688","0.46999999999999897","-0.37939999077431819","0.47000000000000058","-0.6753999950546794","0.47000000000000008","SIDE","3.9262353580215569e-16","-0.67732427666363826","0.20368495537902911","0.7069259248282822","221.14178842395924","-58.93191550191235","40.58701926796482","0.000905565","0.000055893","5"
"6","hotpot2","0.0","-0.56339999299459165","0.46999999999999997","-0.37539999058432749","0.46999999999999997","-0.85439999703746394","0.46999999999999981","SIDE","0.70501060913993108","0.21401783528636167","0.67613342409577926","-1.9684509180286647e-16","-182.82923500793657","53.76480491910408","41.470186474099272","0.010857508","0.000118389","6"
"7","hotpot2","0.0","-0.7193999938849408","0.94719999999999582","-0.56139999289959674","0.94720000000000126","-0.962399998907563","0.94720000000000182","SIDE","3.5336118222194016e-16","-0.67732427666363826","0.20368495537902911","0.7069259248282822","187.24146744994385","-48.737411033625946","40.568913102041691","0.010108062","0.000099703","7"
"8","hotpot2","0.0","-0.51539999071470421","0.46999999999999847","-0.37639999063182289","0.46999999999999897","-0.67739999514967419","0.46999999999999992","SIDE","0.70501060913993108","0.21401783528636167","0.67613342409577926","-1.9684509180286647e-16","-230.49735872609921","68.85328936130874","41.766190574113672","0.007088728","0.000054981","8"
"9","hotpot2","0.0","-0.6743999950071794","0.46999999999999958","-0.58039999380204677","0.4699999999999992","-0.49839998990726841","0.46999999999999942","SIDE","0.71443210542094981","0.19173672436575873","0.67292183444533726","-7.7699687360144815e-17","-231.05801091978105","62.386641342436882","61.429589959425925","0.003006964","0.000052564","9"
"10","hotpot2","0.0","-0.82339999556504551","0.94719999999999815","-0.76039999583233142","0.94719999999999971","-0.67839999519717031","0.94719999999999949","SIDE","0.71443210542094981","0.1917367243657587","0.67292183444533715","-7.7699687360144815e-17","-231.05801091978105","62.386641342436882","61.429589959425932","0.000004145","0.000052998","10"
"11","hotpot2","0.0","-0.71739999378992858","0.94719999999999793","-0.56139999289959575","0.94719999999999938","-0.9363999976726306","0.94719999999999938","SIDE","0.70501060913993108","0.21401783528636167","0.67613342409577926","-1.5747607344229318e-16","-209.90472932673396","62.335064097114874","41.638316803198073","0.009129424","0.000052140","11"
"12","hotpot2","0.0","-0.81739999528006502","0.4700000000000023","-0.87739999812990577","0.46999999999999981","-0.31039998749700431","0.46999999999999897","SIDE","0.70692592482828198","-0.20368495537902909","-0.67732427666363859","3.9262353580215597e-17","189.53979442866188","-49.42856391893713","40.570140638785496","0.009823224","0.000104094","12"
"13","hotpot2","0.0","1.0326000306572749","1.570796326794897","-0.8933999956302372","0.47000000000000008","-0.30239998711702298","0.46999999999999931","SIDE","-0.49887041758208811","0.60399242090511762","0.37074218590837604","0.49887041758208839","-46.138402769160479","-220.2089101945235","41.287372072350671","0.000817441","0.000003651","13"
"14","hotpot2","0.0","-0.87439999798741297","0.94719999999999882","-0.76339999597482189","0.94719999999999938","-0.76339999597482766","0.94719999999999949","SIDE","0.79687602302171157","-0.16318799811609638","-0.58168572374088878","1.7415240773829064e-17","172.17665454915988","-41.059946786668576","20.057481800161543","0.009493579","0.000062998","14"
"15","hotpot2","0.0","-0.71139999350495808","0.46999999999999909","-0.60139999153987478","0.46999999999999942","-0.65839999424721984","0.63600000462494777","SIDE","0.79687602302171157","-0.16318799811609647","-0.58168572374088878","3.4830481547658127e-17","172.17665454915988","-41.059946786668576","20.057481800161533","0.013283868","0.000182773","15"
"16","hotpot2","0.0","-0.73039999440740755","0.4699999999999997","-0.65039999386724134","0.47000000000000097","-0.56339999299459198","0.79600000570528873","SIDE","0.50391487885377195","0.60560977312600295","0.354085289773309","-0.50391487885377195","33.201140264355715","195.18399353440282","63.606101163170777","0.005209745","0.000117183","16"
"17","hotpot2","0.0","-0.90539999620021094","0.94719999999999938","-0.80039999447260557","0.94719999999999915","-0.70939999340996163","0.94719999999999949","SIDE","1.1654953104021726e-16","0.6729218344453376","-0.19173672436575867","0.71443210542094959","-181.34774116047333","48.222612471469752","62.506318273543819","0.008458108","0.000081012","17"
"18","hotpot2","0.0","-0.82439999561253896","0.46999999999999859","-0.68739999236502158","0.4700000000000023","-0.49539998976477828","0.4699999999999992","SIDE","1.7415240773829056e-16","-0.58168572374088834","0.16318799811609624","0.79687602302171179","183.48682057286302","-44.232937417930209","16.763203819774034","0.009205758","0.000072625","18"
"19","hotpot2","0.0","-0.9183999968176676","0.94719999999999727","-0.80639999475757673","0.94719999999999949","-0.61039999196735562","0.94720000000000182","SIDE","1.5673716696446151e-16","-0.58168572374088834","0.16318799811609624","0.79687602302171179","207.03421656973097","-50.839000205342813","9.9046247356651058","0.003085745","0.000051586","19"
"20","hotpot2","0.0","-0.83239999599252179","0.47000000000000192","-0.66839999472219658","0.49500000118743592","-0.550399992377125","0.46999999999999997","SIDE","0.71443210542094981","0.1917367243657587","0.67292183444533715","-3.8849843680072407e-17","-182.98231462313018","48.688354174922353","62.470913285046954","0.008630929","0.000065802","20"
"21","hotpot2","0.0","-0.81139999499507687","0.94719999999999949","-0.7493999953098669","0.94719999999999949","-0.69439999269749852","0.94719999999999915","SIDE","1.9424921840036212e-16","0.6729218344453376","-0.19173672436575867","0.71443210542094959","-229.42343745712449","61.920899638984388","61.46499494792269","0.003084724","0.000084567","21"
"22","hotpot2","0.0","-0.64939999381974778","0.47000000000000303","-0.56839999323207968","0.46999999999999931","-0.51639999076222254","0.46999999999999792","SIDE","1.553993747202897e-16","0.6729218344453376","-0.19173672436575867","0.71443210542094959","-229.42343745712446","61.920899638984395","61.464994947922676","0.011144267","0.000118473","22"
"23","hotpot2","0.0","-0.96439999900255402","0.94719999999999849","-0.80139999452010047","0.94719999999999938","-0.69939999293499022","0.94719999999999971","SIDE","0.71443210542094981","0.1917367243657587","0.67292183444533715","-7.7699687360144815e-17","-182.98231462313021","48.688354174922353","62.470913285046947","0.008827785","0.000040146","23"
"24","hotpot2","0.0","-0.78539999376014447","0.47000000000000042","-0.89239999558274385","0.46999999999999909","-0.31039998749699549","0.46999999999999842","SIDE","3.9369018360573302e-17","0.67613342409577948","-0.21401783528636156","0.70501060913993097","-193.88823937954137","57.265333204926435","41.538859423246862","0.007132934","0.000041154","24"
"25","hotpot2","0.0","1.0326000306572769","1.570796326794897","-0.8933999956302261","0.46999999999999931","-0.31439998768699301","0.46999999999999947","SIDE","0.51296603212757197","0.37490316861926309","-0.57721686905861092","0.5129660321275723","31.338283154465962","219.38591282239321","31.445754976365372","0.000585430","0.000003129","25"
"26","hotpot2","0.0","-0.77639999659229275","0.47000000000000242","-0.65339999400973581","0.4699999999999997","-0.57339999346956994","0.53000000284984228","SIDE","1.553993747202897e-16","0.67292183444533749","-0.19173672436575867","0.71443210542094959","-181.34774116047336","48.222612471469752","62.506318273543805","0.008235365","0.000047446","26"
"27","hotpot2","0.0","-0.69439999269749597","0.47000000000000342","-0.7083999933624584","0.77600000475533548","-0.50039999000226287","0.62200000395998412","SIDE","0.50007817778431041","-0.35763426079278232","0.6098699596758701","0.50007817778431041","-44.099862593791393","-198.23978074523205","65.885067572765792","0.008639298","0.000196431","27"
"28","hotpot2","0.0","0.23660001892633661","0.94719999999999882","-0.66639999462720001","0.94719999999999938","-0.43439999012704639","0.94719999999999938","SIDE","0.59352709176138385","0.26710349599871308","-0.47339930831784333","-0.59352709176138441","156.23994920322815","-36.616872876276354","49.53780787910312","0.000149825","0.000029312","28"
"29","hotpot2","0.0","-0.47839999221693691","0.47000000000000802","-0.58239999389704267","0.46999999999999992","-0.43739999026954562","0.46999999999999909","SIDE","0.50007817778431018","-0.35763426079278232","0.60986995967587021","0.50007817778431041","-56.713619460752035","-246.62255550229114","65.869430793550578","0.009123633","0.000074722","29"
"30","hotpot2","0.0","-0.65339999400973681","0.94719999999999427","-0.7573999956898384","0.94720000000000004","-0.6103999919673474","0.94720000000000037","SIDE","0.50007817778431041","-0.35763426079278243","0.60986995967587021","0.50007817778431041","-56.713619460752042","-246.62255550229114","65.869430793550563","0.007132310","0.000032031","30"
"31","hotpot2","2.2204460492503131e-16","0.1566000183861721","0.94719999999999815","-0.79139999404511807","0.94719999999999949","-0.70239999307748502","0.94720000000000393","SIDE","0.5039148788537714","0.35408528977330889","-0.6056097731260035","0.50391487885377195","35.938874030993169","205.6298536922574","63.436316296076491","0.004634479","0.000024537","31"
"32","hotpot2","0.0","-0.6273999927747923","0.46999999999999981","-0.4893999894797702","0.46999999999999892","-0.32839998835195722","0.46999999999999831","SIDE","-0.49987211524264963","-0.33491357591694121","0.62296760226532288","0.49987211524264996","220.85449755162043","-58.84552139123933","40.586865825873012","0.011989401","0.000109495","32"
"33","hotpot2","0.0","-0.49339998966976678","0.47000000000000353","-0.54939999232962844","0.46999999999999897","-0.43039998993706352","0.4699999999999982","SIDE","0.50391487885377173","0.60560977312600295","0.35408528977330894","-0.50391487885377206","45.875833220098691","243.5444556701496","62.820060137128486","0.006976043","0.000027437","33"
"34","hotpot2","0.0","-0.87039999779742383","0.94719999999999882","-0.68339999543465657","0.94720000000000004","-0.47139999188445753","0.94719999999999949","SIDE","-0.49987211524264963","-0.33491357591694121","0.62296760226532288","0.49987211524264996","172.97268848271142","-44.446503845746442","40.561292145305131","0.008332926","0.000032948","34"
"35","hotpot2","0.0","-0.89239999558273908","0.94719999999999949","-0.67939999524466732","0.94719999999999915","-0.48739998938478768","0.94720000000000037","SIDE","0.49851778253130391","0.6294319917908574","0.32676506653915316","0.49851778253130391","-181.30385495377286","53.281973386834608","41.460714342308478","0.009863185","0.000047708","35"
"36","hotpot2","0.0","0.26960002049375331","0.46999999999999881","-0.67639999510217541","0.59000000244006634","-0.59039999101740348","0.64200000490994291","SIDE","0.50391487885377151","0.35408528977330894","-0.60560977312600339","0.50391487885377184","35.938874030993162","205.6298536922574","63.436316296076477","0.008503559","0.000125435","36"
"37","hotpot2","0.0","-0.80539999471008672","0.94719999999999815","-0.65839999424721773","0.94719999999999849","-0.51539999071472486","0.94719999999999993","SIDE","0.49851778253130397","0.6294319917908574","0.32676506653915316","0.49851778253130391","-228.97197867193594","68.3704578290385","41.756718442322878","0.000005685","0.000039860","37"
"38","hotpot2","0.0","-0.63739999324977137","0.46999999999999892","-0.48039999231193209","0.47000000000000008","-0.33739998877942751","0.46999999999999809","SIDE","0.49851778253130397","0.62943199179085729","0.3267650665391531","0.49851778253130397","-228.97197867193597","68.370457829038514","41.756718442322878","0.006022504","0.000067725","38"
"39","hotpot2","0.0","0.2636000202087625","0.46999999999999947","-0.69039999250751372","0.60000000291504385","-0.58139999384954499","0.62200000395998978","SIDE","0.50007817778430996","-0.6098699596758701","-0.35763426079278265","-0.50007817778431041","-44.680095445877697","-200.46538852293327","65.884348280876523","0.007143509","0.000119782","39"
"40","hotpot2","0.0","-0.66539999457970489","0.94719999999999938","-0.72539999416992273","0.94719999999999949","-0.60239999158736401","0.94719999999999827","SIDE","0.50391487885377173","0.60560977312600295","0.35408528977330894","-0.50391487885377206","45.875833220098691","243.54445567014957","62.820060137128486","0.007748516","0.000028469","40"
"41","hotpot2","0.0","-0.73439999459740013","0.4699999999999982","-0.5263999912371885","0.47300000014249199","-0.31239998759198701","0.4699999999999987","SIDE","-0.49987211524264952","-0.33491357591694132","0.62296760226532288","0.49987211524264996","172.97268848271142","-44.446503845746449","40.561292145305131","0.007270235","0.000043270","41"
"42","hotpot2","0.0","0.1186000165812678","0.94719999999999671","-0.80639999475758606","0.9472000000000016","-0.69939999293499089","0.94720000000000326","SIDE","0.50007817778430985","-0.60986995967587021","-0.35763426079278288","-0.50007817778431052","-44.68009544587769","-200.46538852293327","65.884348280876523","0.003285552","0.000022361","42"
"43","hotpot2","0.0","-0.75939999578483308","0.46999999999999842","-0.5213999909997008","0.46999999999999897","-0.32239998806696679","0.46999999999999931","SIDE","0.49851778253130391","0.6294319917908574","0.3267650665391531","0.49851778253130391","-181.30385495377288","53.281973386834601","41.460714342308471","0.008530683","0.000036386","43"
"44","hotpot2","0.0","-0.075399986113975498","0.94719999999999849","-0.66939999476969336","0.94720000000000149","-0.51339999061972652","0.94719999999999949","SIDE","0.59352709176138407","0.26710349599871297","-0.47339930831784333","-0.5935270917613843","200.19079679194328","-48.861088229109399","29.082926148157544","0.005621662","0.000031867","44"
"45","hotpot2","0.0","0.106600019270922","0.47000000000000242","-0.4953999897647654","0.46999999999999942","-0.33939998887441819","0.46999999999999831","SIDE","0.59352709176138407","0.26710349599871297","-0.47339930831784333","-0.5935270917613843","200.19079679194326","-48.861088229109399","29.082926148157544","0.004313080","0.000028105","45"
"46","hotpot2","0.0","-0.025399983739112779","0.94719999999999793","-0.65939999429472462","0.94719999999999915","-0.43439999012705011","0.94719999999999949","SIDE","0.486552549473106","0.64310517332365646","0.33607881404038437","0.486552549473106","-168.43065190816222","48.83949515117547","124.05352414161962","0.002941210","0.000015025","46"
"47","hotpot2","0.0","-0.017399983359124301","0.47000000000000031","-0.6573999941997265","0.94200000938028772","-0.37639999063182961","0.77600000475533304","SIDE","0.48655254947310606","0.64310517332365646","0.33607881404038431","0.486552549473106","-168.43065190816219","48.839495151175463","124.05352414161963","0.010937787","0.000106670","47"
"48","hotpot2","0.0","-0.045399984689052333","0.47000000000000219","-0.50739999033473659","0.46999999999999947","-0.33839998882693217","0.46999999999999847","SIDE","0.486552549473106","0.64310517332365635","0.33607881404038437","0.486552549473106","-216.07309845368428","63.777940937648438","126.70684746186379","0.003894605","0.000027350","48"
"49","hotpot2","0.0","-0.74139999492988384","0.94719999999999938","-0.58939999096990825","0.94719999999999849","-0.59139999106489138","0.94720000000000026","SIDE","0.56347643964361938","-0.52670525985273631","-0.29592257970043767","0.56347643964361993","175.69949345597013","-42.04825543070956","19.031395126027139","0.011170006","0.000042392","49"
"50","hotpot2","0.0","-0.22639998676683051","0.94719999999999427","-0.67839999519716943","0.94719999999999882","-0.5113999905247284","0.94720000000000004","SIDE","0.486552549473106","0.64310517332365635","0.33607881404038437","0.486552549473106","-216.07309845368425","63.777940937648438","126.70684746186379","0.005599731","0.000018983","50"
"51","hotpot2","0.0","0.48060002399646151","0.46999999999999942","-0.19539998529441549","0.46999999999999931","-0.85739999717995952","0.46999999999999892","SIDE","-0.49690536692459331","-0.38770439091886211","0.59653618323225344","-0.49690536692459358","37.457110212747899","249.22711034415013","118.41967610058823","0.001936992","0.000019654","51"
"52","hotpot2","0.0","0.24460001930631389","0.47000000000001019","-0.60839999187234517","0.79300000556279004","-0.39439998822714178","0.82700000717770394","SIDE","0.59352709176138385","0.26710349599871291","-0.47339930831784321","-0.5935270917613843","156.23994920322812","-36.616872876276354","49.537807879103113","0.011783969","0.000093696","52"
"53","hotpot2","0.0","-0.55939999280460251","0.46999999999999892","-0.38539998779965912","0.46999999999999958","-0.37939999077432007","0.4699999999999987","SIDE","0.5634764396436196","-0.52670525985273642","-0.29592257970043762","0.56347643964361993","222.05263407428387","-55.052315725072511","5.5302555193371674","0.013261375","0.000102758","53"
"54","hotpot2","0.0","-0.65739999419972261","0.71600000516510864","-0.41839998936707479","0.47000000000000253","-0.42039998946208668","0.46999999999999931","SIDE","0.56347643964361938","-0.52670525985273631","-0.29592257970043778","0.56347643964361982","175.69949345597013","-42.04825543070956","19.031395126027135","0.011123960","0.000083571","54"
"55","hotpot2","0.0","-0.56539999308959032","0.46999999999999931","-0.34639998920690779","0.46999999999999947","-0.32739998830445988","0.46999999999999931","SIDE","0.59352709176138385","-0.47339930831784321","-0.26710349599871319","0.59352709176138441","219.26546460770393","-54.175077681726577","20.205507494490913","0.006583323","0.000068239","55"
"56","hotpot2","0.0","-0.5683999932320758","0.46999999999999909","-0.41439998917709708","0.46999999999999958","-0.42339998960458181","0.4699999999999982","SIDE","0.50517978644053574","-0.34024925434326575","0.6114059303463133","-0.50517978644053596","-223.65435354154206","60.277105076311614","61.589953754793484","0.008137205","0.000032338","56"
"57","hotpot2","0.0","-0.75139999540485247","0.94719999999999782","-0.55539999261461181","0.94719999999999938","-0.57139999337457514","0.94719999999999938","SIDE","0.50517978644053563","-0.34024925434326586","0.61140593034631341","-0.50517978644053596","-175.57865724489119","46.578817908797085","62.631277080414726","0.007058773","0.000034452","57"
"58","hotpot2","0.0","-0.74239999497737563","0.94719999999999582","-0.58839999092239526","0.94720000000000149","-0.59739999134988997","0.94719999999999971","SIDE","0.50517978644053574","-0.34024925434326564","0.61140593034631341","-0.50517978644053596","-223.65435354154204","60.277105076311614","61.589953754793477","0.008876495","0.000040830","58"
"59","hotpot2","0.0","-0.66039999434221719","0.67400000317021969","-0.43339999007954583","0.57400000168010523","-0.44239999050702522","0.55000000379980496","SIDE","0.50517978644053563","-0.34024925434326575","0.61140593034631352","-0.50517978644053585","-175.57865724489119","46.578817908797085","62.631277080414719","0.017298078","0.000184801","59"
"60","hotpot2","0.0","-0.030399983976597392","0.46999999999999897","-0.45639999117199331","0.46999999999999942","-0.36239998996686562","0.46999999999999859","SIDE","0.70653713459528067","-0.037811507376294934","-0.013447854316309012","0.70653713459528089","10.029463268461878","-3.7025954566425323","-196.55130770530315","0.008527037","0.000017443","60"
"61","hotpot2","0.0","-0.18439998803157309","0.94719999999999815","-0.64639999367724299","0.94719999999999949","-0.5223999910471897","0.94719999999999938","TOP","0.0435063431956728","0.85168356367809728","0.52224736041680153","-5.2957239400764178e-17","-13.488804588577263","18.045645119975305","331.10280847458728","0.005724796","0.000016260","61"
"62","hotpot2","0.0","-0.57439999351706528","0.46999999999999859","-0.41039998898711683","0.46999999999999892","-0.38839998794216629","0.46999999999999931","SIDE","0.48655254947310606","-0.33607881404038475","0.64310517332365624","-0.48655254947310617","-217.7882266363462","64.315725019518709","126.80236710735279","0.012824694","0.000062301","62"
"63","hotpot2","0.0","-0.75139999540485647","0.94719999999999782","-0.58039999380204854","0.94720000000000026","-0.56039999285209796","0.9471999999999986","SIDE","0.48655254947310606","-0.33607881404038475","0.64310517332365624","-0.48655254947310617","-217.78822663634622","64.315725019518695","126.80236710735282","0.014923558","0.000079265","63"
"64","hotpot2","0.0","-0.45339999102949752","0.47000000000000253","-0.76739999616481314","0.46999999999999892","-0.08239998644646343","0.46999999999999981","SIDE","0.49487905077387917","-0.35467147481390737","0.61999806061278639","0.49487905077387934","-61.406266888288094","-254.91685737242963","120.36268981364483","0.010438533","0.000049486","64"
"65","hotpot2","0.0","-0.85839999722745375","0.94719999999999904","-0.67439999500718184","0.94719999999999949","-0.47239999193195042","0.9472000000000016","SIDE","0.50517978644053585","0.61140593034631341","0.34024925434326525","0.50517978644053607","-179.6170159857966","47.729474102669478","62.543805915605603","0.007216927","0.000051859","65"
"66","hotpot2","0.0","-0.58439999399204001","0.46999999999999909","-0.50639999028724891","0.46999999999999942","-0.33239998854194519","0.46999999999999792","SIDE","0.56347643964361938","0.29592257970043773","-0.52670525985273653","-0.56347643964361982","205.92174043475998","-50.526902545026566","10.228652307623587","0.004310894","0.000042993","66"
"67","hotpot2","0.0","-0.74839999526237533","0.94719999999999915","-0.67739999514967419","0.94719999999999949","-0.50739999033473304","0.94719999999999949","SIDE","0.56347643964361971","0.29592257970043773","-0.52670525985273642","-0.56347643964361971","205.92174043475995","-50.526902545026559","10.228652307623593","0.000813970","0.000044978","67"
"68","hotpot2","0.0","-0.77839999668728543","0.47000000000000008","-0.77539999654479297","0.46999999999999942","-0.1233999851342331","0.46999999999999942","SIDE","0.68808921427207281","0.21710042065221877","0.69238763749439602","8.0674351639100864e-17","-225.22044916054051","66.646122832833882","127.21628559337783","0.000001504","0.000029373","68"
"69","hotpot2","0.0","-0.73339999454990024","0.94720000000000026","-0.54539999213963097","0.94719999999999915","-0.51439999066723296","0.94720000000000448","SIDE","0.56347643964361938","-0.52670525985273631","-0.29592257970043778","0.56347643964361982","222.05263407428387","-55.052315725072518","5.5302555193371763","0.002749757","0.000067962","69"
"70","hotpot2","0.0","-0.75839999573733874","0.94719999999999793","-0.5233999910946967","0.94719999999999949","-0.50939999042972506","0.94719999999999938","SIDE","0.48655254947310606","-0.33607881404038475","0.64310517332365624","-0.48655254947310617","-170.14578009082419","49.377279233046515","124.14904378710867","0.012734726","0.000068760","70"
"71","hotpot2","0.0","-0.62439999263229395","0.46999999999999781","-0.49039998952726088","0.46999999999999931","-0.33539998868444099","0.46999999999999831","SIDE","0.50517978644053585","0.61140593034631341","0.34024925434326536","0.50517978644053618","-227.69271228244767","61.427761270183453","61.502482589984368","0.000189142","0.000059338","71"
"72","hotpot2","0.0","-0.0033999826941835151","0.46999999999999992","-0.47439999202694721","0.46999999999999909","-0.3503999893968906","0.46999999999999847","TOP","0.043506343195672793","0.85168356367809728","0.52224736041680153","-5.7030873200822958e-17","-13.488804588577262","18.045645119975305","331.10280847458728","0.004343049","0.000015915","72"
"73","hotpot2","0.0","-0.80539999471007828","0.94719999999999938","-0.66739999467469524","0.94719999999999949","-0.51139999052473528","0.94719999999999949","SIDE","0.50517978644053585","0.61140593034631341","0.34024925434326536","0.50517978644053618","-227.69271228244767","61.427761270183453","61.502482589984368","0.008559637","0.000074707","73"
"74","hotpot2","0.0","-0.68339999543465479","0.94719999999999882","-0.52239999104719537","0.94719999999999938","-0.55539999261461803","0.94719999999999938","SIDE","0.49851778253130397","-0.32676506653915377","0.62943199179085729","-0.49851778253130369","-168.9101426352151","49.358967383796909","41.383753275361144","0.004706961","0.000030699","74"
"75","hotpot2","0.0","-0.62839999282230774","0.79600000570527951","-0.49639998981226979","0.87400000615045448","-0.54639999218712976","0.92000000833534146","SIDE","0.49851778253130391","-0.32676506653915366","0.62943199179085729","-0.49851778253130391","-168.91014263521507","49.358967383796909","41.383753275361144","0.016454427","0.000145573","75"
"76","hotpot2","0.0","-0.63639999320227669","0.85400000846013491","-0.49839998990726242","0.87800000634044173","-0.53139999147467409","0.89100000695791293","SIDE","-0.49987211524264963","0.62296760226532266","0.33491357591694126","-0.49987211524264996","161.48105421340998","-40.990739606944764","40.555154461919159","0.019302523","0.000196230","76"
"77","hotpot2","0.0","-0.67039999481718904","0.94720000000000026","-0.52239999104719481","0.94720000000000115","-0.55139999242462689","0.94720000000000149","SIDE","-0.49987211524264968","0.62296760226532277","0.33491357591694121","-0.49987211524264996","161.48105421340998","-40.990739606944771","40.555154461919152","0.009471699","0.000047114","77"
"78","hotpot2","0.0","-0.70839999336247483","0.46999999999999897","-0.6283999928222902","0.86600000903010799","-0.39039998803714782","0.90200000748038323","SIDE","0.5634764396436196","0.29592257970043778","-0.52670525985273642","-0.5634764396436196","159.5685998164449","-37.522842250663487","23.729791914313573","0.014796889","0.000170499","78"
"79","hotpot2","2.2204460492503131e-16","-0.84139999641999841","0.94719999999999827","-0.65839999424722495","0.94719999999999993","-0.40439998870213001","0.94719999999999949","SIDE","0.56347643964361971","0.29592257970043773","-0.52670525985273642","-0.56347643964361971","159.5685998164449","-37.522842250663487","23.729791914313566","0.008548385","0.000051547","79"
"80","hotpot2","0.0","-0.75139999540484848","0.94719999999999938","-0.54139999194964761","0.94719999999999882","-0.53039999142717276","0.94719999999999949","SIDE","0.59352709176138374","-0.4733993083178431","-0.26710349599871319","0.59352709176138441","175.31461701898809","-41.93086232889398","40.660389225436134","0.011886721","0.000092058","80"
"81","hotpot2","0.0","1.032600030657274","1.570796326794897","-0.49439998971726717","1.044000010965394","-0.072399985971488917","0.46999999999999847","SIDE","0.70273030912073942","0.69596318430119442","-0.14766637647213973","-1.9748383736541025e-16","23.199161637149857","182.0282833034745","117.57190260788452","0.007628003","0.000030959","81"
"82","hotpot2","0.0","1.032600030657276","1.570796326794897","-0.49439998971726462","1.0442000046072539","-0.25239998800177199","0.94719999999999949","SIDE","0.70273030912073942","0.69596318430119442","-0.14766637647213976","-1.7773545362886921e-16","23.19916163714986","182.0282833034745","117.57190260788452","0.007590944","0.000018761","82"
"83","hotpot2","0.0","-0.31639998778197898","0.64500000505242105","-0.1173999848492404","0.46999999999999942","-0.30839998740200381","0.74200000640005215","SIDE","0.70721734126939551","-0.68412879511998881","0.17835757313755912","1.3736161288174149e-16","-37.086613584842723","-171.33895724799419","65.893761622244128","0.009615296","0.000128832","83"
"84","hotpot2","0.0","-0.6683999947222008","0.72100000540259379","-0.39239998813216348","0.46999999999999992","-0.36539999010935431","0.46999999999999859","SIDE","0.59352709176138385","-0.4733993083178431","-0.26710349599871314","0.59352709176138452","175.31461701898809","-41.93086232889398","40.660389225436134","0.010282119","0.000071607","84"
"85","hotpot2","0.0","-0.52339999109470037","0.47000000000000358","-0.4113999890346155","0.46999999999999881","-0.42839998984206218","0.46999999999999847","SIDE","-0.49987211524264968","0.62296760226532266","0.33491357591694132","-0.49987211524264996","209.36286328231904","-55.389757152437539","40.580728142487033","0.008446848","0.000032478","85"
"86","hotpot2","0.0","-0.66439999453220411","0.66100000581237317","-0.49539998976475752","0.87000000922009202","-0.46939999178946029","0.82700000717770761","SIDE","0.48655254947310606","-0.33607881404038475","0.64310517332365624","-0.48655254947310617","-170.14578009082416","49.377279233046522","124.14904378710867","0.019105266","0.000142752","86"
"87","hotpot2","0.0","-0.53439999161716656","0.46999999999999931","-0.41539998922459281","0.46999999999999931","-0.43139998998455409","0.46999999999999892","SIDE","0.49851778253130391","-0.32676506653915366","0.62943199179085729","-0.49851778253130369","-216.57826635337821","64.447451826001625","41.679757375375324","0.006788280","0.000017943","87"
"88","hotpot2","0.0","-0.43139998998455648","0.94719999999999949","-0.29639998683202268","0.94719999999999849","-0.38739998789466717","0.94719999999999938","SIDE","0.70721734126939562","-0.68412879511998859","0.17835757313755907","1.3736161288174151e-16","-37.086613584842731","-171.33895724799419","65.893761622244142","0.008134294","0.000014978","88"
"89","hotpot2","0.0","-0.42939998988956229","0.94719999999999638","-0.30139998706951848","0.94719999999999938","-0.39639998832214268","0.94719999999999949","SIDE","3.3105258593398341e-16","-0.17785466781313258","-0.67860688684735382","0.71264325595659916","28.435455580880006","177.00045926728203","63.901652597159185","0.007319720","0.000010988","89"
"90","hotpot2","0.0","-0.72339999407493005","0.48200000056996822","-0.53039999142718075","0.52100000242236166","-0.31639998778197348","0.46999999999999909","SIDE","0.50517978644053563","0.61140593034631341","0.34024925434326536","0.50517978644053618","-179.61701598579663","47.729474102669478","62.54380591560561","0.013920473","0.000099802","90"
"91","hotpot2","0.0","-0.69339999265000285","0.94719999999999949","-0.58339999394453657","0.94719999999999938","-0.60039999149237766","0.94720000000000426","SIDE","-0.49987211524264968","0.62296760226532277","0.33491357591694121","-0.49987211524264996","209.36286328231901","-55.389757152437546","40.580728142487033","0.007721889","0.000017415","91"
"92","hotpot2","0.0","0.042600016231082657","0.46999999999999997","-0.47639999212194178","0.94000000928528571","-0.034399984166588363","0.46999999999999842","SIDE","2.3795093814769053e-16","0.18761422804746172","0.68919543791615712","0.69986466533874347","-40.21370902182619","-177.06660927910534","118.71811251541109","0.006633372","0.000027338","92"
"93","hotpot2","0.0","0.041600016183589099","0.94719999999999815","-0.47939999226443408","0.94719999999999971","-0.2143999861968674","0.94719999999999938","SIDE","1.9829244845640874e-16","0.1876142280474617","0.68919543791615723","0.69986466533874347","-40.21370902182619","-177.06660927910534","118.71811251541111","0.001942424","0.000003177","93"
"94","hotpot2","0.0","-0.70439999317247248","0.94719999999999638","-0.58639999082739913","0.94719999999999971","-0.60439999168236902","0.94720000000000004","SIDE","0.49851778253130391","-0.32676506653915377","0.62943199179085729","-0.4985177825313038","-216.57826635337818","64.44745182600164","41.679757375375324","0.007681801","0.000021937","94"
"95","hotpot2","0.0","-0.62739999277480352","0.94719999999999782","-0.49539998976476068","0.94719999999999949","-0.21739998633936261","0.94719999999999938","SIDE","3.3440011244543429e-16","0.16493282287955185","0.68924145033502426","0.70550931041131881","-50.420511141776814","-238.10350833275473","41.370415426791766","0.006556766","0.000008642","95"
"96","hotpot2","0.0","-0.26939998880922877","0.51700000223237663","-0.1213999850392256","0.4699999999999992","-0.29039998654704341","0.67000000623986933","SIDE","3.3105258593398341e-16","-0.17785466781313258","-0.67860688684735382","0.71264325595659916","28.43545558088001","177.00045926728203","63.901652597159185","0.010830574","0.000213472","96"
"97","hotpot2","0.0","-0.2093999859593863","0.94719999999999793","-0.62539999267980884","0.94719999999999938","-0.53739999175966624","0.94720000000000037","SIDE","0.70653713459528067","-0.037811507376294934","-0.013447854316309011","0.70653713459528089","10.02946326846188","-3.7025954566425328","-196.55130770530315","0.010053464","0.000023086","97"
"98","hotpot2","0.0","-0.2453999876692888","0.46999999999999958","-0.13739998579919321","0.46999999999999942","-0.30139998706951637","0.77500000470783537","SIDE","0.70550931041131881","-0.68924145033502426","0.16493282287955183","1.9670594849731422e-17","-34.222970423829437","-170.41524433903322","41.056294905339684","0.009084706","0.000052615","98"
"99","hotpot2","0.0","-0.42339998960457548","0.94719999999999938","-0.3153999877344757","0.94719999999999938","-0.36839999025184639","0.94719999999999949","SIDE","0.70550931041131892","-0.68924145033502437","0.1649328228795518","1.9670594849731425e-17","-34.222970423829437","-170.41524433903322","41.056294905339676","0.007628755","0.000010239","99"
"100","hotpot2","0.0","-0.45839999126698783","0.47000000000000169","-0.32039998797196512","0.46999999999999942","-0.043399984594064259","0.46999999999999892","SIDE","3.344001124454342e-16","0.16493282287955185","0.68924145033502426","0.70550931041131881","-50.420511141776814","-238.1035083327547","41.370415426791766","0.004971941","0.000014647","100"
"101","hotpot2","0.0","-0.60839999187235627","0.94719999999999849","-0.49539998976476679","0.94719999999999949","-0.2163999862918643","0.94719999999999938","SIDE","0.72544351967152554","0.6732505351456155","-0.1430573895076066","3.8260146879796221e-17","35.863093440756224","240.68038042845481","30.300457127260255","0.005616107","0.000007004","101"
"102","hotpot2","0.0","-0.073399986018980984","0.94719999999999405","-0.67039999481718848","0.94719999999999949","-0.5043999901922519","0.94719999999999949","TOP","0.043506343195672793","0.85168356367809728","0.52224736041680164","-6.1104507000881751e-17","-11.216697299044396","14.340281378425914","281.29208866441326","0.003100936","0.000047016","102"
"103","hotpot2","0.0","-0.073399986018987451","0.47000000000000097","-0.63039999291728677","0.84400000798515784","-0.39439998822715472","0.65100000533741453","TOP","0.043506343195672793","0.85168356367809728","0.52224736041680153","-6.1104507000881738e-17","-11.216697299044394","14.340281378425912","281.29208866441331","0.013930703","0.000099584","103"
"104","hotpot2","0.0","1.032600030657272","1.5707963267948959","-0.49739998985976008","0.94719999999999971","-0.2173999863393592","0.94719999999999938","SIDE","2.3795093814769053e-16","0.18761422804746172","0.68919543791615712","0.69986466533874347","-53.344165914349212","-225.30096273012344","119.73705753643982","0.000385806","0.000000089","104"
"105","hotpot2","0.0","-0.26239998847674528","0.47000000000000008","-0.16339998703412531","0.46999999999999942","-0.26639998866673759","0.71100000492763105","SIDE","-1.7217066095908299e-16","-0.1430573895076063","-0.6732505351456155","0.72544351967152565","22.14336987562066","176.11320732351118","33.773126453772619","0.006161532","0.000057605","105"
"106","hotpot2","0.0","0.040600016136108377","0.47000000000000308","-0.61039999196734018","0.90700000771786859","-0.46639999164696511","0.73200000592506931","SIDE","0.70653713459528067","-0.037811507376294927","-0.013447854316309011","0.70653713459528089","6.4077990153144073","-1.9812128945149166","-146.71236319288016","0.019391230","0.000113367","106"
"107","hotpot2","0.0","1.032600030657274","1.570796326794897","-0.32239998806696307","0.46999999999999942","-0.047399984784053398","0.46999999999999942","SIDE","2.3795093814769053e-16","0.18761422804746172","0.68919543791615723","0.69986466533874347","-53.344165914349212","-225.30096273012344","119.73705753643983","0.000881594","0.000000357","107"
"108","hotpot2","0.0","1.0326000306572769","1.5707963267948959","-0.31639998778197409","0.46999999999999947","-0.051399984974042412","0.46999999999999942","SIDE","0.7027303091207393","0.69596318430119442","-0.14766637647213976","-1.9748383736541025e-16","33.576125475650365","230.9357256675375","118.18891387219145","0.001432643","0.000000783","108"
"109","hotpot2","0.0","1.0326000306572749","1.570796326794897","-0.49139998957477332","0.94719999999999949","-0.2233999866243441","0.94719999999999949","SIDE","0.70273030912073942","0.69596318430119442","-0.1476663764721397","-2.1723222110195127e-16","33.576125475650365","230.93572566753753","118.18891387219143","0.000480847","0.000000108","109"
"110","hotpot2","0.0","-0.43839999031703991","0.94719999999999915","-0.34139998896941642","0.94719999999999949","-0.35639998968187769","0.94720000000000149","SIDE","-1.7217066095908299e-16","-0.1430573895076063","-0.6732505351456155","0.72544351967152565","22.14336987562066","176.1132073235112","33.773126453772619","0.008634351","0.000014490","110"
"111","hotpot2","0.0","-0.43839999031703669","0.47000000000000092","-0.32139998801946318","0.46999999999999931","-0.045399984689058433","0.46999999999999909","SIDE","0.72544351967152587","0.67325053514561539","-0.1430573895076066","3.8260146879796221e-17","35.863093440756224","240.68038042845475","30.300457127260263","0.003534043","0.000008837","111"
"112","hotpot2","0.0","-0.336399988731929","0.94719999999999938","-0.63739999324977414","0.94720000000000115","-0.51739999080971644","0.94719999999999938","SIDE","0.70653713459528067","0.013447854316308685","-0.037811507376295107","-0.70653713459528078","10.094653229086646","-3.7335803446935105","-197.44840876250521","0.003972317","0.000019178","112"
"113","hotpot2","0.0","-0.50539999023974413","0.94719999999999849","-0.36339999001435769","0.94719999999999915","-0.34439998911190661","0.94719999999999949","SIDE","1.6655921390155762e-16","-0.036245842252134071","0.017227704293192536","0.99919439806487087","9.3992936727000949","-3.4030748833615569","-187.8793311439355","0.006695530","0.000007322","113"
"114","hotpot2","0.0","-0.53639999171216424","0.94719999999999938","-0.41339998912960052","0.94719999999999938","-0.29939998697452358","0.94719999999999949","SIDE","0.99919439806487087","-0.017227704293192567","-0.036245842252134369","2.7886461220000197e-17","9.515186936033702","-3.4581591287872198","-189.47417746785078","0.007536403","0.000005726","114"
"115","hotpot2","0.0","-0.33439998863693582","0.94719999999999938","-0.62939999286979309","0.94719999999999938","-0.53939999185465215","0.94719999999999949","TOP","1.1406174640164592e-16","-0.52224736041680153","0.85168356367809728","-0.043506343195672592","-13.184342207595682","17.549126371782631","324.42817192826647","0.004319590","0.000016166","115"
"116","hotpot2","0.0","-0.50439999019224779","0.94719999999999815","-0.42239998955707753","0.94719999999999949","-0.29039998654704408","0.94719999999999938","TOP","0.030763630298289633","0.23294657329441215","0.97151587330940281","-0.030763630298289442","-12.761730225370858","16.859928672848579","315.16337746545963","0.007143648","0.000007638","116"
"117","hotpot2","0.0","-0.27839998923670461","0.46999999999999942","-0.62139999248980549","1.029000010252926","-0.47839999221692509","0.75100000682752799","TOP","1.0591447880152836e-16","-0.52224736041680153","0.85168356367809728","-0.043506343195672606","-10.912234918062813","13.843762630233236","274.61745211809233","0.020917828","0.000119899","117"
"118","hotpot2","0.0","-0.35939998982436933","0.46999999999999931","-0.2323999870518208","0.46999999999999942","-0.1193999849442401","0.46999999999999881","SIDE","0.99919439806487087","-0.017227704293192564","-0.036245842252134376","2.7669445957587748e-17","9.5151869360337038","-3.4581591287872198","-189.47417746785081","0.007353615","0.000007163","118"
"119","hotpot2","3.489207112697745e-16","-0.4593999913144845","0.94719999999999949","-0.6213999924898177","1.0282000038472849","-0.55439999256711159","0.9472000000000016","TOP","1.0591447880152836e-16","-0.52224736041680153","0.85168356367809717","-0.043506343195672606","-10.912234918062811","13.843762630233238","274.61745211809239","0.008197595","0.000052074","119"
"120","hotpot2","0.0","-0.59839999139737976","0.98000000792555286","-0.41539998922459459","0.82300000698771503","-0.071399985923990744","0.46999999999999909","SIDE","0.72544351967152554","0.6732505351456155","-0.1430573895076066","3.8260146879796221e-17","25.48508782481451","191.83985664477765","32.927287150601444","0.013370115","0.000104509","120"
"121","hotpot2","0.0","-0.59839999139738187","0.98020000156741116","-0.46339999150447381","0.94719999999999949","-0.2493999878592793","0.94719999999999949","SIDE","0.72544351967152565","0.6732505351456155","-0.1430573895076066","3.8260146879796228e-17","25.48508782481451","191.83985664477765","32.927287150601444","0.011169509","0.000040391","121"
"122","hotpot2","0.0","-0.48239999240692671","1.0482000015376129","-0.35939998982436938","0.94719999999999938","-0.35239998949188889","0.94719999999999938","TOP","0.030763630298289334","0.9715158733094027","-0.23294657329441226","0.030763630298289112","-10.198793199444498","12.680278366942852","258.97688544647315","0.008657463","0.000050087","122"
"123","hotpot2","0.0","-0.4823999924069276","1.0480000111553751","-0.2283999868618323","0.60100000296253919","-0.17139998741410681","0.46999999999999859","TOP","0.030763630298289331","0.9715158733094027","-0.23294657329441229","0.030763630298289112","-10.1987931994445","12.680278366942856","258.97688544647315","0.006956327","0.000100092","123"
"124","hotpot2","0.0","0.27360002068374079","0.46999999999999942","-0.19039998505691841","0.46999999999999931","-0.85639999713246129","0.46999999999999981","SIDE","-0.49487905077387895","0.61999806061278639","0.35467147481390771","0.49487905077387906","-57.913565308139511","-242.08651918276163","120.09165043442626","0.003622327","0.000018517","124"
"125","hotpot2","0.0","-0.52839999133218696","0.94719999999999849","-0.44839999079201248","0.94719999999999938","-0.26639998866673592","0.9472000000000016","TOP","0.030763630298289633","0.23294657329441215","0.97151587330940281","-0.030763630298289442","-10.489622935837994","13.154564931299404","265.35265765528561","0.007499606","0.000008247","125"
"126","hotpot2","0.0","-0.32739998830444722","0.46999999999999931","-0.24239998752679601","0.46999999999999942","-0.10939998446926109","0.4699999999999987","TOP","0.030763630298289633","0.23294657329441215","0.97151587330940281","-0.030763630298289442","-12.761730225370858","16.859928672848579","315.16337746545963","0.008320798","0.000011797","126"
"127","hotpot2","0.0","-0.33239998854193659","0.46999999999999842","-0.18539998481944139","0.46999999999999942","-0.1643999870816247","0.46999999999999897","SIDE","1.664507062703514e-16","-0.036245842252134064","0.017227704293192536","0.99919439806487087","9.3992936727000931","-3.4030748833615569","-187.8793311439355","0.004719099","0.000009096","127"
"128","hotpot2","0.0","-0.1913999851044185","0.47000000000000242","-0.46239999145697902","0.46999999999999947","-0.36339999001436102","0.46999999999999897","TOP","1.0591447880152836e-16","-0.52224736041680153","0.85168356367809728","-0.043506343195672606","-13.184342207595677","17.549126371782631","324.42817192826641","0.016536646","0.000060111","128"
"129","hotpot2","0.0","-0.61939999239482402","0.97800000783055996","-0.38039999082181591","0.71500000511761685","-0.057399985259027217","0.46999999999999931","SIDE","3.1472951759570286e-16","0.16493282287955185","0.68924145033502426","0.70550931041131881","-38.784346928382618","-189.4768822994788","41.144754134497134","0.006779755","0.000095817","129"
"130","hotpot2","0.0","-0.61939999239482435","0.97820000147241537","-0.46939999178946018","0.94719999999999949","-0.2373999872893085","0.94719999999999971","SIDE","3.1472951759570286e-16","0.16493282287955185","0.68924145033502426","0.70550931041131881","-38.784346928382618","-189.4768822994788","41.144754134497141","0.005889003","0.000047569","130"
"131","hotpot2","0.0","-0.63939999334477149","0.94719999999999815","-0.49839998990726131","0.94719999999999971","-0.21439998619686251","0.94719999999999949","SIDE","1.56984700436276e-16","0.17835757313755926","0.6841287951199887","0.70721734126939562","-54.569280741797229","-238.39748359577919","65.872089046079779","0.006365605","0.000007094","131"
"132","hotpot2","0.0","-0.50139999004975477","1.0032000026598491","-0.33339998858943581","0.94719999999999971","-0.37439999053683071","0.94719999999999938","SIDE","1.6655921390155762e-16","-0.036245842252134064","0.017227704293192536","0.99919439806487087","5.7776294195526221","-1.6816923212339407","-138.04038663151317","0.007169165","0.000043399","132"
"133","hotpot2","0.0","-0.62639999272730607","0.94719999999999793","-0.48739998938478668","0.94719999999999949","-0.2263999867668344","0.94719999999999949","SIDE","0.71264325595659916","0.67860688684735382","-0.17785466781313289","-3.8947363051056871e-16","33.277188426826136","195.47415632532349","63.601384916724967","0.004902184","0.000006651","133"
"134","hotpot2","0.0","-0.63039999291729198","0.94719999999999793","-0.49839998990725559","0.94719999999999949","-0.20739998586438771","0.94719999999999971","SIDE","0.71264325595659916","0.67860688684735371","-0.17785466781313289","-3.6999994898504027e-16","45.951881382569006","243.83461846107048","62.815343890682662","0.007076520","0.000006454","134"
"135","hotpot2","0.0","-0.1163999848017542","0.94719999999999815","-0.62539999267980106","0.94719999999999949","-0.5483999922821301","0.94719999999999949","SIDE","0.70653713459528067","-0.037811507376294934","-0.013447854316309012","0.70653713459528089","6.4077990153144073","-1.9812128945149166","-146.71236319288016","0.009019490","0.000024722","135"
"136","hotpot2","0.0","-0.49139998957477721","0.85300000841263812","-0.26939998880922611","0.46999999999999931","-0.084399986541458083","0.46999999999999942","TOP","0.030763630298289633","0.23294657329441215","0.97151587330940281","-0.030763630298289442","-10.489622935837994","13.154564931299406","265.35265765528567","0.009464387","0.000056337","136"
"137","hotpot2","0.0","-0.50139999004975599","1.004000009065491","-0.154399986606651","0.46999999999999942","-0.19439998524691759","0.46999999999999897","SIDE","1.664507062703514e-16","-0.036245842252134064","0.017227704293192536","0.99919439806487087","5.7776294195526203","-1.6816923212339407","-138.0403866315132","0.008709042","0.000074319","137"
"138","hotpot2","0.0","-0.1633999870341282","0.46999999999999892","-0.46839999174196162","0.46999999999999947","-0.34439998911190489","0.46999999999999847","SIDE","0.70653713459528067","0.013447854316308679","-0.0378115073762951","-0.70653713459528078","10.094653229086646","-3.7335803446935105","-197.44840876250524","0.000204541","0.000021725","138"
"139","hotpot2","0.0","-0.24339998757429179","0.46999999999999958","-0.1183999848967404","0.46999999999999931","-0.2393999873843019","0.46999999999999881","SIDE","3.3105258593398341e-16","-0.17785466781313258","-0.67860688684735382","0.71264325595659916","41.110148536623036","225.36092140302924","63.115611571116908","0.004259495","0.000010937","139"
"140","hotpot2","0.0","-0.6213999924898167","0.93500000904779434","-0.37439999053683071","0.65000000528991031","-0.046399984736558063","0.46999999999999842","SIDE","0.71264325595659916","0.67860688684735382","-0.17785466781313289","-3.8947363051056871e-16","33.277188426826143","195.47415632532349","63.601384916724953","0.006580500","0.000077186","140"
"141","hotpot2","0.0","-0.451399990934511","0.94719999999999815","-0.6403999933922685","0.94719999999999938","-0.51139999052472651","0.94719999999999938","SIDE","0.70653713459528067","0.013447854316308674","-0.037811507376295107","-0.70653713459528078","6.4729889759391739","-2.0121977825658948","-147.60946425008336","0.003781373","0.000031434","141"
"142","hotpot2","0.0","-0.26939998880922988","0.46999999999999942","-0.62039999244231658","0.8950000071479004","-0.41239998908210967","0.68700000378769077","SIDE","0.70653713459528067","0.013447854316308679","-0.037811507376295114","-0.70653713459528078","6.4729889759391748","-2.0121977825658948","-147.60946425008333","0.019495629","0.000139665","142"
"143","hotpot2","0.0","-0.62639999272730995","0.95500000999774515","-0.37439999053683048","0.66900000619236111","-0.046399984736555003","0.46999999999999892","SIDE","1.1773852532720699e-16","0.17835757313755926","0.68412879511998848","0.70721734126939562","-41.955523874837262","-190.01470883872028","65.887725825295007","0.007525609","0.000085259","143"
"144","hotpot2","0.0","-0.62639999272730884","0.95520000037997488","-0.48039999231193131","0.94720000000000026","-0.22639998676683459","0.94719999999999949","SIDE","1.3736161288174149e-16","0.17835757313755926","0.68412879511998859","0.70721734126939562","-41.955523874837255","-190.01470883872028","65.887725825295007","0.006555235","0.000036294","144"
"145","hotpot2","0.0","-0.25039998790677498","0.46999999999999909","-0.12339998513422611","0.46999999999999958","-0.23539998719431801","0.46999999999999942","SIDE","0.70721734126939562","-0.68412879511998881","0.17835757313755909","1.1773852532720704e-16","-49.700370451803359","-219.7217320050533","65.8781248430289","0.005485356","0.000008454","145"
"146","hotpot2","0.0","-0.29539998678453061","0.46999999999999947","-0.20739998586438441","0.46999999999999947","-0.14739998627416931","0.46999999999999897","TOP","0.030763630298289331","0.9715158733094027","-0.23294657329441229","0.030763630298289112","-12.470900488977144","16.385642108492249","308.78760525664717","0.005104410","0.000006934","146"
"147","hotpot2","0.0","-0.56139999289959897","0.94719999999999849","-0.44639999069701741","0.94719999999999971","-0.2703999888567265","0.94719999999999949","SIDE","0.99919439806487087","-0.01722770429319256","-0.036245842252134376","2.7777953588793972e-17","5.8935226828861209","-1.7367765666596038","-139.63523295542868","0.007888173","0.000005390","147"
"148","hotpot2","0.0","-0.46839999174196267","0.94719999999999827","-0.38639998784717028","0.94719999999999949","-0.32839998835194911","0.94719999999999949","TOP","0.030763630298289327","0.9715158733094027","-0.23294657329441229","0.030763630298289112","-12.470900488977144","16.385642108492249","308.78760525664717","0.005634679","0.000007836","148"
"149","hotpot2","0.0","-0.47039999183695469","0.46999999999999931","-0.32239998806695752","0.46999999999999947","-0.038399984356577391","0.46999999999999942","SIDE","1.1773852532720699e-16","0.17835757313755926","0.68412879511998848","0.70721734126939562","-54.569280741797229","-238.39748359577916","65.872089046079779","0.006204059","0.000009545","149"
"150","hotpot2","0.0","-0.42339998960458369","0.94719999999999815","-0.29739998687952629","0.94719999999999938","-0.41639998927209299","0.94719999999999949","SIDE","3.3105258593398341e-16","-0.17785466781313258","-0.67860688684735382","0.71264325595659916","41.110148536623036","225.36092140302918","63.115611571116894","0.007019702","0.000008712","150"
"151","hotpot2","0.0","-0.42939998988956002","0.94719999999999882","-0.30339998716450678","0.9471999999999986","-0.4123999890821059","0.94719999999999949","SIDE","0.70721734126939539","-0.68412879511998881","0.17835757313755912","1.1773852532720704e-16","-49.700370451803366","-219.72173200505327","65.8781248430289","0.008232962","0.000008241","151"
"152","hotpot2","0.0","-0.50539999023974369","0.80400000608526012","-0.2673999887142316","0.46999999999999931","-0.089399983519315399","0.46999999999999842","SIDE","0.99919439806487087","-0.01722770429319256","-0.036245842252134376","2.7777953588793972e-17","5.8935226828861209","-1.7367765666596036","-139.63523295542868","0.009222229","0.000050287","152"
"153","hotpot2","0.0","-0.46039999136198267","0.46999999999999942","-0.32239998806696363","0.46999999999999931","-0.03239998407159287","0.46999999999999942","SIDE","0.71264325595659916","0.67860688684735371","-0.17785466781313289","-4.2842099356162557e-16","45.951881382569006","243.83461846107045","62.815343890682662","0.005180532","0.000011945","153"
"154","hotpot2","0.0","-0.2293999869093313","0.46999999999999931","-0.13539998570419881","0.46999999999999892","-0.2263999867668384","0.46999999999999842","SIDE","0.70550931041131892","-0.68924145033502437","0.1649328228795518","1.9670594849731425e-17","-45.859134637223967","-219.04187037230915","41.281956197634081","0.006549908","0.000006242","154"
"155","hotpot2","0.0","-0.40939998893961238","0.94719999999999938","-0.31539998773448058","0.94720000000000115","-0.40239998860713089","0.94719999999999949","SIDE","0.70550931041131881","-0.68924145033502426","0.16493282287955183","1.9670594849731422e-17","-45.859134637223967","-219.04187037230915","41.281956197634088","0.009892362","0.000018317","155"
"156","hotpot2","0.0","-0.43539999017454428","0.94719999999999949","1.098600033792112","1.5707963267948959","-0.39439998822715427","0.94719999999999938","SIDE","0.69986466533874314","-0.68919543791615745","0.18761422804746156","-7.9316979382563526e-17","-51.348336427758603","-217.9693408625352","119.58217789022241","0.000085694","0.000002115","156"
"157","hotpot2","0.0","-0.22839998686183119","0.46999999999999942","-0.14339998608417431","0.46999999999999931","-0.21839998638685901","0.46999999999999847","SIDE","-1.9130073439898116e-16","-0.14305738950760633","-0.67325053514561572","0.72544351967152554","32.521375491562473","224.9537311071883","31.146296430431434","0.005746713","0.000011114","157"
"158","hotpot2","0.0","-0.40939998893961482","0.94719999999999793","-0.32239998806696452","0.94720000000000115","-0.39539998827464651","0.94719999999999938","SIDE","-1.7217066095908301e-16","-0.1430573895076063","-0.67325053514561561","0.72544351967152565","32.521375491562473","224.9537311071883","31.146296430431434","0.009009354","0.000013176","158"
