ipa320/cob_manipulation/cob_grasp_generation/common/files/database/instanttomatosoup/instanttomatosoup.csv
"id","object","sdh_knuckle_joint","sdh_finger_12_joint","sdh_finger_13_joint","sdh_finger_22_joint","sdh_finger_23_joint","sdh_thumb_2_joint","sdh_thumb_3_joint","direction","qw","qx","qy","qz","pos-x","pos-y","pos-z","eps_l1","vol_l1"
"0","instanttomatosoup","0.0","1.032600030657274","1.570796326794897","-0.9063999962477014","0.94719999999999949","-0.23539998719431601","0.94719999999999938","TOP","0.2389451218832245","-0.4069187345669838","0.84866224195190088","-0.23894512188322437","-133.61038170383711","85.932053316181367","294.06853004708285","0.000039528","0.000000107","0"
"1","instanttomatosoup","1.0469999999999999","-0.78500000000000081","1.0469999999999999","-0.2379999903170408","1.0469999999999999","-0.42999999291729141","1.0469999999999999","SIDE","0.99999024006841952","-0.0040064385891631074","-0.0018623151548418924","-1.5265546172692635e-16","-5.2392133983158606","-40.375162280602019","-213.99733236622467","0.007489193","0.000020937","1"
"2","instanttomatosoup","1.0469999999999999","-0.78500000000000303","1.0469999999999979","-0.32099999099969412","1.0469999999999999","-0.27099999188445811","1.0469999999999999","SIDE","2.2226954434800271e-16","-0.02879914528348429","-0.034548644758048919","0.99898798810412281","26.182651152854827","55.718772764176251","-209.25752870357252","0.000188404","0.000015569","2"
"3","instanttomatosoup","0.0","-0.98540000000000016","0.94719999999999938","-0.78239999687727568","0.94720000000000115","-0.61039999196735606","0.94719999999999938","SIDE","0.70969301348724156","-0.26316473552824976","-0.65351369425723926","-1.1732780972118683e-16","180.67512452584884","-113.34649212548351","64.982334140513885","0.003549803","0.000034029","3"
"4","instanttomatosoup","0.0","-0.98539999999999994","1.2512000046603371","-0.79439999418761931","1.5352000116303459","-0.97739999962002111","1.415200009190293","SIDE","0.70403850665080614","0.2311176945252631","0.67150159525516373","-1.5769350882618872e-16","-161.87486800221694","25.969650032700308","52.861705480344561","0.024851154","0.000372696","4"
"5","instanttomatosoup","0.0","-0.86739999765493092","0.94719999999999815","-0.63739999324976948","0.9471999999999986","-0.80239999456760736","0.94720000000000149","SIDE","0.70403850665080614","0.23111769452526312","0.67150159525516406","-1.5769350882618877e-16","-185.42791968261031","34.07614902223488","53.077415177382072","0.010117454","0.000090317","5"
"6","instanttomatosoup","1.0469999999999999","-0.78500000000000025","1.046999999999999","-0.58099999682977732","1.0469999999999999","-0.72799999729265452","1.0469999999999999","SIDE","0.49098744332407546","-0.29825950158268655","0.65490757417503032","-0.49098744332407557","-229.5940033705688","69.538594152762755","94.160670092593449","0.000535394","0.000058220","6"
"7","instanttomatosoup","0.0","-0.879399998224899","0.94720000000000071","-0.62339999258481782","0.94719999999999938","-0.80939999490007963","0.94719999999999938","SIDE","2.8176896717587493e-16","-0.67959605340497586","0.25038631900506481","0.68953309960543241","173.57343646063805","-35.888708368079882","59.769211843574539","0.008492994","0.000045812","7"
"8","instanttomatosoup","1.0469999999999999","-0.78500000000000048","1.046999999999999","-0.2449999906495163","1.0469999999999999","-0.42199999253731241","1.0469999999999999","SIDE","4.4404721574500941e-16","0.012609513048459807","-0.040054828636301609","0.99911791640606518","-11.405394750234654","58.081845702509789","-209.31914510995637","0.000074078","0.000012681","8"
"9","instanttomatosoup","0.0","-0.68239999538715979","0.9471999999999986","-0.48439999250192001","0.94719999999999938","-0.96339999895505679","0.94720000000000271","SIDE","0.74063972805191969","0.20561904679254131","0.63966678890443052","-1.4990054983214845e-16","-196.26318757650861","34.109373517657303","14.857813437850306","0.000219825","0.000112389","9"
"10","instanttomatosoup","0.0","-0.98540000000000028","0.94720000000000026","-0.79839999437761167","0.94719999999999938","-0.66739999467469924","0.94719999999999949","SIDE","0.70365291686335762","0.22862527546492467","0.67275779892044074","-2.3666988326591795e-16","-210.67150994536513","42.002088131180884","68.284792675908449","0.011800690","0.000118294","10"
"11","instanttomatosoup","1.0469999999999999","-0.78500000000000114","1.0469999999999999","-0.57299999644979971","1.0469999999999999","-0.71199999653267665","1.0469999999999999","SIDE","0.50006454796942168","0.27604787531088798","-0.65089819961697526","-0.50006454796942212","204.65712479346416","-100.10549964484076","51.618459933595155","0.003538139","0.000123458","11"
"12","instanttomatosoup","1.0469999999999999","-0.78500000000000092","1.046999999999999","-0.24299999055452531","1.046999999999999","-0.24199999050702811","1.0469999999999999","TOP","-1.5631134988968193e-17","0.88782982282533063","-0.31235982961700492","0.33791943203014801","-135.82449206790636","86.711030456050253","296.91581127067769","0.001069378","0.000006664","12"
"13","instanttomatosoup","0.0","-0.65239999396223924","0.98820000194739555","-0.36839999025184722","1.065200002345069","-0.98539999999999994","0.94719999999999971","SIDE","0.74063972805191958","0.20561904679254128","0.63966678890443063","-1.4990054983214847e-16","-172.66033302219205","26.522303907002904","17.276435279072963","0.017089329","0.000161206","13"
"14","instanttomatosoup","0.0","-0.92439999710266541","1.1112000045299479","-0.72139999397993404","1.4092000089053089","-0.98540000000000016","1.4232000095702699","SIDE","3.2202167677242846e-16","-0.67959605340497586","0.25038631900506481","0.68953309960543241","150.22758651661292","-27.287302573797707","58.546424554966904","0.026527888","0.000357632","14"
"15","instanttomatosoup","0.0","-0.84339999651499509","0.94719999999999815","-0.76539999606982012","0.94719999999999915","-0.65839999424721984","0.94720000000000182","SIDE","0.7036529168633574","0.22862527546492467","0.67275779892044085","-1.9722490272159828e-16","-234.25569948525251","50.016773117109061","68.527544242326769","0.000034515","0.000075632","15"
"16","instanttomatosoup","0.0","-0.98539999999999905","0.94719999999999949","-0.78639999380763925","0.94720000000000071","-0.65739999419972239","0.94719999999999949","SIDE","1.9618578878032937e-16","-0.65700674974162521","0.26068342494703173","0.70737987160494664","206.70942929663244","-53.366207267964988","66.292041966997317","0.012262986","0.000107250","16"
"17","instanttomatosoup","1.0469999999999999","-0.78500000000000036","1.046999999999999","-0.60199999456759812","1.0469999999999999","-0.64799999675248054","1.046999999999997","SIDE","0.50434313679222209","-0.2789544496565165","0.64300887688895403","-0.50434313679222209","-229.40596191032918","81.835152059196389","82.609544992688242","0.000067921","0.000103502","17"
"18","instanttomatosoup","1.0469999999999999","-0.78500000000000092","1.046999999999999","-0.29399998971725699","1.046999999999999","-0.44099999343976581","1.0469999999999999","SIDE","3.1441840840267172e-16","0.32071488164576589","0.63119971553810061","0.70620739432235013","-132.27090206876102","-234.67917125053421","32.233577560238622","0.000082711","0.000017999","18"
"19","instanttomatosoup","1.0469999999999999","-0.78500000000000048","1.046999999999999","-0.6279999958025364","1.046999999999999","-0.67199999789242193","1.0469999999999999","SIDE","-0.49978568167356352","0.65185421983767344","0.27479923738613377","-0.4997856816735638","213.38588188240936","-81.183215466387963","86.634938612874123","0.000085561","0.000129119","19"
"20","instanttomatosoup","0.0","-0.64239999348726318","0.94719999999999949","-0.426399989747063","0.94719999999999949","-0.9854000000000005","0.94719999999999949","SIDE","7.8418216165645946e-17","0.65399628051466363","-0.26680777140466161","0.70788592173531972","-206.36133846704371","98.446078678335823","105.9961567178765","0.012918685","0.000115493","20"
"21","instanttomatosoup","0.0","-0.67639999510217597","0.94719999999999915","-0.47839999221693608","0.94719999999999949","-0.98540000000000016","0.94720000000000126","SIDE","0.71021183133603183","0.24719192936716608","0.65916257834168479","-1.5632280055608677e-16","-209.71665277077037","62.469454126796414","29.961845044500269","0.009571943","0.000052509","21"
"22","instanttomatosoup","1.0469999999999999","-0.78500000000000092","1.046999999999999","-0.57399999649729683","1.0469999999999999","-0.72499999715016417","1.046999999999999","SIDE","0.50138887597217519","0.64795757625812533","0.27815349983851273","0.50138887597217485","-216.68667592589543","100.81325373951937","50.477973109058006","0.006562608","0.000077597","22"
"23","instanttomatosoup","0.0","-0.68739999236501326","0.94719999999999427","-0.47239999193194832","0.94719999999999949","-0.98540000000000016","0.94719999999999949","SIDE","3.1248471791318694e-16","-0.65338635828678515","0.26108601026333522","0.71057748490189754","194.18082387832462","-63.751340654433342","29.764579902664522","0.012539896","0.000086421","23"
"24","instanttomatosoup","0.0","-0.30839998740200131","0.94719999999999782","-0.9853999999999995","0.94720000000000026","-0.2643999885717403","0.94719999999999938","SIDE","0.50073162053908371","-0.66691899116741171","-0.23185070110924322","-0.50073162053908404","-117.84122482465264","-227.52772773805481","11.067491752268801","0.000009657","0.000023803","24"
"25","instanttomatosoup","1.0469999999999999","-0.78500000000000092","1.0469999999999999","-0.36199999294709662","1.0469999999999999","-0.39199999111238543","1.046999999999999","SIDE","2.7297260091710223e-16","0.27647759956359608","0.64573059685653467","0.71175285965203916","-113.43579357957103","-241.83981914044651","28.796572510406314","0.000880835","0.000014071","25"
"26","instanttomatosoup","0.0","-0.98540000000000016","0.94719999999999949","-0.93839999776761918","0.9471999999999986","-0.50939999042972883","0.94719999999999949","SIDE","0.7031936008152726","0.23313530043171785","0.67168943081238353","0.0","-225.12710965616913","48.371331238404984","88.703888879696692","0.000063023","0.000057444","26"
"27","instanttomatosoup","0.0","-0.98540000000000028","0.94719999999999949","-0.89339999563023254","0.94719999999999938","-0.52639999123718739","0.94719999999999938","SIDE","0.71571946495922034","-0.26646651377099695","-0.64555498953785373","-3.8779964741087973e-17","184.60288645128605","-116.86753291894979","46.648320784174174","0.001119804","0.000063209","27"
"28","instanttomatosoup","0.0","-0.81339999509007066","0.9472000000000016","-0.58139999384954588","0.94719999999999949","-0.89639999577273188","0.94719999999999915","SIDE","0.70974823573338264","-0.26392900105291461","-0.6531454082182323","-1.5642490797852615e-16","157.66481147579259","-80.984899236734122","85.202406878623009","0.012552047","0.000109824","28"
"29","instanttomatosoup","0.0","-0.86339999746494112","0.94719999999999815","-0.64439999358225664","0.94719999999999915","-0.83939999632500251","0.9472000000000016","SIDE","0.71021183133603183","0.24719192936716605","0.65916257834168479","-1.1724210041706507e-16","-180.88827913280704","52.159902812388687","50.232849109186347","0.007989503","0.000048194","29"
"30","instanttomatosoup","0.0","-0.98540000000000016","1.276200005847772","-0.7713999963548005","1.4722000086380189","-0.96739999914505148","1.2682000054677971","SIDE","0.71021183133603183","0.247191929367166","0.65916257834168479","-1.1724210041706507e-16","-157.56529214834035","43.41357172393414","50.452099225503964","0.022620168","0.000402277","30"
"31","instanttomatosoup","0.0","-0.98539999999999994","0.94720000000000026","-0.89839999586771702","0.94719999999999971","-0.52739999128468429","0.94719999999999938","SIDE","1.1787322092167951e-16","0.65179945676555939","-0.2759411539683958","0.70640919282432313","-197.2390332130216","120.88560202922609","52.078413650256707","0.000551169","0.000067478","31"
"32","instanttomatosoup","0.0","-0.86739999765493114","0.94719999999999782","-0.63639999320226948","0.94720000000000126","-0.84139999641999774","0.94719999999999938","SIDE","2.3613720746555738e-16","-0.65765421590130635","0.2648153678175178","0.70524020962712464","167.47516708817045","-53.890423895833102","52.547163743349223","0.010104263","0.000053163","32"
"33","instanttomatosoup","0.0","-0.81739999528005747","0.94719999999999904","-0.57939999375455187","0.94720000000000026","-0.90039999596271303","0.94719999999999949","SIDE","1.9704842602412319e-16","0.65553400850657584","-0.27250773613270851","0.70428310886966949","-169.93060523060129","84.692681736481703","87.7694565783098","0.007933106","0.000047256","33"
"34","instanttomatosoup","0.0","-0.98540000000000016","1.2352000071600031","-0.73739999473988982","1.4272000097602651","-0.96739999914504859","1.265200005325299","SIDE","2.7549340870981695e-16","-0.65765421590130657","0.2648153678175178","0.70524020962712441","144.45192674490102","-44.619734660611961","52.416300455915668","0.022549947","0.000390099","34"
"35","instanttomatosoup","0.0","-0.92039999691266627","1.21820000635256","-0.64139999343976684","1.410200008952804","-0.98539999999999994","1.1842000047376311","SIDE","1.9704842602412319e-16","0.65553400850657584","-0.27250773613270851","0.70428310886966949","-146.92963143186688","75.131098023959609","87.570908804726969","0.021053210","0.000333645","35"
"36","instanttomatosoup","0.0","-0.92239999700766551","1.2452000076349881","-0.63839999329727404","1.4062000087628139","-0.98540000000000016","1.1562000034077069","SIDE","0.70974823573338264","-0.26392900105291467","-0.6531454082182323","-1.173186809838946e-16","134.56981380198837","-71.65246025963927","85.388861124492777","0.025042984","0.000309493","36"
"37","instanttomatosoup","1.046999999999999","-0.23499999017454609","1.046999999999997","-0.43499999315477422","1.0469999999999999","-0.78500000000000125","1.0469999999999999","TOP","-0.024890227665427582","0.93432842149126072","0.35467076835732508","-0.02489022766542786","27.340564047662692","15.032154155311133","338.11909220154826","0.009334568","0.000019264","37"
"38","instanttomatosoup","0.0","1.03260003065727","1.570796326794897","-0.9673999991450446","0.94719999999999938","-0.2263999867668382","1.570796326794897","TOP","0.33791943203014829","0.31235982961700476","0.88782982282533052","-2.6572929481245932e-16","-63.400882435289382","61.230667233844962","203.78116577217909","0.003681654","0.000028806","38"
"39","instanttomatosoup","1.0469999999999999","-0.24799999079200791","1.046999999999997","-0.74399999805260253","1.046999999999997","-0.42099999248981551","1.047000000000001","TOP","-2.1706198578363612e-19","0.99897931788592342","-0.033908515514603221","-0.029841833250839511","6.0772812256143514","-39.055192057711352","332.97274510827884","0.005966124","0.000018548","39"
"40","instanttomatosoup","0.0","-0.65839999424722417","0.94719999999999882","-0.47839999221693841","0.94719999999999938","-0.98539999999999994","0.94720000000000026","SIDE","0.71021183133603205","0.24719192936716611","0.65916257834168468","-1.5632280055608675e-16","-211.80843691309835","71.130644495168639","29.917836588059895","0.010387497","0.000057611","40"
"41","instanttomatosoup","0.0","-0.87839999817740322","0.94719999999999915","-0.76339999597482278","0.94719999999999949","-0.69539999274501463","0.94719999999999971","SIDE","0.70539032748312958","0.25813111310495546","0.66014605530930792","-3.9347825642381987e-17","-225.33659823527245","71.859779187893551","67.477851855550767","0.000043626","0.000042118","41"
"42","instanttomatosoup","1.0469999999999999","-0.28599998933729243","1.046999999999997","-0.4619999944372129","1.0469999999999999","-0.78500000000000025","1.0469999999999999","SIDE","0.50328527358887387","-0.26110129835929469","0.65209966935449004","0.50328527358887409","-112.99893368699998","-240.81950574211177","28.811207047146596","0.000418747","0.000018413","42"
"43","instanttomatosoup","0.0","-0.66439999453220344","0.94719999999999949","-0.47539999207444461","0.94719999999999915","-0.98539999999999994","0.94719999999999949","SIDE","3.5154530765233527e-16","-0.65338635828678504","0.26108601026333528","0.71057748490189754","196.59124620526984","-73.079669732519577","29.708487771800865","0.010086139","0.000051031","43"
"44","instanttomatosoup","1.0469999999999999","-0.2219999895570792","1.0469999999999979","-0.4829999954346561","1.0469999999999999","-0.78500000000000048","1.0469999999999999","SIDE","0.49936403744941588","-0.21954593150084861","0.67310526677917271","0.49936403744941604","-131.13844589366161","-232.4503815794256","32.22722197882058","0.002378207","0.000031749","44"
"45","instanttomatosoup","0.0","-0.83139999594502423","1.4692000084955219","-0.40539998874962108","1.478200008922997","-0.98540000000000016","1.2612000051353101","SIDE","3.5448227539294451e-16","-0.66107549320087311","0.25766438287496918","0.70469018588801391","147.67625734360311","-29.095838574283633","32.616820962617773","0.001685142","0.000243863","45"
"46","instanttomatosoup","0.0","-0.84039999637249663","0.9471999999999946","-0.75639999564234184","0.94719999999999949","-0.68639999231752657","0.94720000000000037","SIDE","2.7429962690783329e-16","-0.65602313303929316","0.26063636139415897","0.7083094917029723","215.43576842737886","-72.078725374969736","65.709797322037957","0.000274317","0.000069019","46"
"47","instanttomatosoup","1.0469999999999999","-0.2339999901270513","1.046999999999999","-0.47999999529216369","1.0469999999999999","-0.78500000000000147","1.0469999999999999","SIDE","0.50389050460422613","0.65759377656413887","0.24445683415177746","-0.50389050460422669","109.68355514981921","238.85557785871174","28.275252647903667","0.000228245","0.000017104","47"
"48","instanttomatosoup","0.0","-0.98539999999999994","0.94719999999999949","-0.79639999428260788","0.94719999999999938","-0.70239999307749734","0.94720000000000004","SIDE","2.7429962690783329e-16","-0.65602313303929316","0.26063636139415897","0.7083094917029723","192.28603796609934","-62.881394959607789","65.794607703377494","0.007987802","0.000085676","48"
"49","instanttomatosoup","0.0","-0.84339999651498954","0.94719999999999949","-0.64139999343976117","0.94719999999999938","-0.86439999751243801","0.94720000000000037","SIDE","0.70907094842285201","0.26149097014673589","0.65485942203990311","-1.5657432124310904e-16","-177.04066738057244","61.793316097771275","50.763310655977051","0.010865031","0.000093347","49"
"50","instanttomatosoup","0.0","-0.83739999623000416","0.94719999999999815","-0.6383999932972686","0.94719999999999938","-0.86839999770242637","0.94719999999999949","SIDE","2.7549340870981695e-16","-0.65765421590130646","0.2648153678175178","0.70524020962712453","165.17044989353732","-60.952656135419112","52.549799990238895","0.010165714","0.000095601","50"
"51","instanttomatosoup","0.0","-0.98539999999999994","0.94719999999999938","-0.79939999442510568","0.94719999999999949","-0.71139999350496297","0.94719999999999949","SIDE","0.71067785244153925","-0.26366252564558962","-0.65224156768736441","-1.5622029317657459e-16","177.44005796793374","-89.057082383888314","64.545352330754397","0.007995082","0.000058983","51"
"52","instanttomatosoup","0.0","-0.98540000000000016","1.3252000081751469","-0.76439999602232067","1.4662000083530331","-0.98039999976251357","1.22620000673253","SIDE","0.70907094842285201","0.26149097014673589","0.65485942203990322","-1.5657432124310906e-16","-153.90715932956317","52.555908404510461","50.901890461059764","0.019984534","0.000326951","52"
"53","instanttomatosoup","0.0","-0.96439999900255347","1.2662000053727991","-0.73139999445490911","1.3922000080978461","-0.98540000000000016","1.2222000065425349","SIDE","3.1484960995407651e-16","-0.65765421590130646","0.2648153678175178","0.70524020962712453","142.06372479479273","-51.648350380005809","52.418462178394826","0.022199818","0.000321058","53"
"54","instanttomatosoup","0.0","-0.85239999694246893","0.94719999999999915","-0.75739999568984107","0.94720000000000149","-0.69639999279249398","0.94719999999999971","SIDE","1.5723876165345487e-16","0.6535525923344585","-0.27263090049368688","0.70607464276017629","-214.02311765007175","103.24769533802991","67.070751952846848","0.000015223","0.000057385","54"
"55","instanttomatosoup","0.0","0.0026000175908195639","0.94719999999999549","-0.98539999999999994","0.94719999999999971","-0.55739999270960994","0.94719999999999971","SIDE","0.70298767340605639","0.28029557031304986","0.6536380682778673","0.0","-166.85047228683487","115.5366337335619","88.480613790264556","0.005396329","0.000029846","55"
"56","instanttomatosoup","0.0","-0.87639999808240798","0.94719999999999915","-0.75839999573733574","0.94720000000000115","-0.70439999317247537","0.94719999999999938","SIDE","0.71067785244153925","-0.26366252564558967","-0.65224156768736441","-1.9527536647071824e-16","200.53330374320421","-98.392310017494808","64.293113174999746","0.001717550","0.000047912","56"
"57","instanttomatosoup","0.0","-0.98540000000000016","0.94719999999999882","-0.79439999418760965","0.94719999999999971","-0.70639999326748193","0.9472000000000016","SIDE","0.70539032748312946","0.25813111310495546","0.66014605530930792","-3.9347825642381987e-17","-202.13738504379134","62.788394641832241","67.357063968349337","0.007301093","0.000044109","57"
"58","instanttomatosoup","1.0469999999999999","-0.26899999178946099","1.046999999999999","-0.3399999919021392","1.0469999999999979","-0.78500000000000103","1.046999999999999","TOP","0.076510548278133722","-0.45797932079391879","0.8823532250349061","0.076510548278133722","-40.653152463370404","-80.110704417456873","326.94232796072907","0.000010067","0.000021843","58"
"59","instanttomatosoup","0.0","-0.071399985923996198","0.94719999999999938","-0.88339999841488981","0.94719999999999938","-0.55539999261461526","0.94720000000000149","SIDE","3.1378133986484476e-16","-0.65520243435469272","0.2644876128720785","0.70764120333182567","191.00648027819079","-121.59380655641151","86.126599354571667","0.004171801","0.000021964","59"
"60","instanttomatosoup","0.0","-0.79239999409262474","0.94719999999999938","-0.8013999945201018","0.94719999999999938","-0.73039999440741155","0.94719999999999949","SIDE","3.9347825642382e-17","0.66014605530930826","-0.25813111310495529","0.70539032748312935","-173.60542967626148","59.172103360263463","67.221826140761777","0.007201788","0.000032226","60"
"61","instanttomatosoup","0.0","-0.91539999667518124","0.94719999999999493","-0.77939999673478388","0.94719999999999993","-0.72139999397993082","0.94719999999999993","SIDE","2.7429962690783329e-16","-0.65602313303929316","0.26063636139415897","0.7083094917029723","203.67289189219306","-75.414815034922626","65.742822642097295","0.005704195","0.000045285","61"
"62","instanttomatosoup","0.0","-0.94439999805260544","1.570796326794897","-0.28539998630955571","0.94719999999999938","-0.38939998798966469","1.000200002517367","SIDE","4.4404721574500941e-16","0.012609513048459805","-0.040054828636301602","0.99911791640606518","-8.6239220713409068","49.246341025883062","-99.318464358590305","0.002234009","0.000117819","62"
"63","instanttomatosoup","0.0","-0.98540000000000016","0.94719999999999971","-0.9373999977201245","0.94719999999999971","-0.55039999237712978","0.94720000000000004","SIDE","2.3561486196836751e-16","-0.65524294341291256","0.26661813497165848","0.70680368930263604","202.64130890267336","-76.811252307191765","86.624996373447274","0.003860030","0.000085483","63"
"64","instanttomatosoup","0.0","-0.98540000000000028","0.94719999999999993","-0.93239999748263513","0.94719999999999949","-0.54739999223463409","0.94720000000000282","SIDE","0.69436110130379891","0.25218827062715859","0.67399090287203312","-1.9986413095082934e-16","-217.70697906801041","65.090806966038301","93.706958486623492","0.000289695","0.000062060","64"
"65","instanttomatosoup","0.0","-0.9243999971026593","0.94719999999999638","-0.78339999692477247","0.94720000000000026","-0.72739999426492485","0.9472000000000016","SIDE","0.70539032748312958","0.25813111310495546","0.66014605530930792","-3.9347825642381987e-17","-212.25526347749656","74.285008360899241","67.42305847252527","0.005763315","0.000049268","65"
"66","instanttomatosoup","1.046999999999999","-0.44499999362975218","1.046999999999999","-0.33099999147467057","1.0469999999999999","-0.26799999174196848","1.047000000000001","SIDE","0.98516312972802467","-0.15557556877762571","0.072455850170994845","-3.0814856863324765e-16","-58.146332465347413","-104.39543528207773","-199.23638064340344","0.000004131","0.000003297","66"
"67","instanttomatosoup","0.0","-0.98540000000000016","0.94719999999999949","-0.93439999757763359","0.94720000000000093","-0.54539999213963952","0.94720000000000026","SIDE","2.3561486196836742e-16","-0.65524294341291245","0.26661813497165837","0.70680368930263593","205.77438730072549","-70.438006419802804","86.625424918262226","0.000159076","0.000084733","67"
"68","instanttomatosoup","0.0","-0.98540000000000016","0.94720000000000004","-0.93239999748263958","0.94719999999999993","-0.54939999232962899","0.94720000000000115","SIDE","0.71324890414134956","0.25742535421704116","0.65192652020560926","-1.5565716514653566e-16","-218.4322948523546","77.501994806184697","82.815431382356593","0.001543387","0.000055008","68"
"69","instanttomatosoup","0.0","-0.59339999115989672","0.94719999999999793","-0.58639999082741345","0.94719999999999938","-0.97339999943003086","0.94719999999999949","SIDE","0.7068036893026356","-0.26661813497165843","-0.65524294341291289","3.9269143661394596e-17","170.12278339664812","-55.931380690810819","86.592435540026486","0.009293359","0.000086451","69"
"70","instanttomatosoup","0.0","-0.98540000000000016","0.94719999999999938","-0.89539999572523099","0.94719999999999938","-0.59439999120738773","0.94719999999999938","SIDE","7.8287160621554568e-17","0.65485942203990355","-0.26149097014673589","0.70907094842285168","-206.84262963520354","96.882441830749599","50.536943240744215","0.000053884","0.000092135","70"
"71","instanttomatosoup","0.0","-0.98539999999999983","0.94719999999999949","-0.79239999409261419","0.9472000000000016","-0.71539999369494578","0.94719999999999971","SIDE","1.5723876165345487e-16","0.6535525923344585","-0.27263090049368688","0.70607464276017629","-191.03333423656306","93.657456652277773","66.998084558085452","0.006603848","0.000039446","71"
"72","instanttomatosoup","0.0","-0.72139999397993448","0.94719999999999904","-0.5873999908749149","0.94719999999999949","-0.96039999881256732","0.94719999999999949","SIDE","3.8914291286633928e-17","0.65192652020560959","-0.2574253542170411","0.71324890414134934","-181.5217154620741","62.927163625972952","83.507942453731502","0.009447162","0.000056835","72"
"73","instanttomatosoup","1.0469999999999999","-0.76099999886006231","1.046999999999999","-0.51299999359994553","1.046999999999995","-0.78500000000000048","1.046999999999999","SIDE","0.70403850665080614","0.2311176945252631","0.67150159525516373","-1.1827013161964153e-16","-235.62589366216855","51.353308299252511","53.537151346859794","0.000107240","0.000067231","73"
"74","instanttomatosoup","0.0","-0.58439999399203901","1.245200007634985","-0.61639999225232833","1.3232000080801669","-0.98540000000000016","0.95920000056997023","SIDE","0.7068036893026356","-0.26661813497165848","-0.655242943412913","-3.9269143661394596e-17","147.04973997032315","-46.542967021820822","86.57108543867912","0.012442751","0.000197431","74"
"75","instanttomatosoup","0.0","-0.71839999383743969","0.9471999999999986","-0.5873999908749008","0.94719999999999949","-0.97239999938253407","0.94719999999999971","SIDE","0.70680368930263571","-0.26661813497165837","-0.655242943412913","0.0","167.54545878902593","-62.530762610029754","86.592521248989755","0.009807580","0.000095714","75"
"76","instanttomatosoup","0.0","-0.98540000000000061","0.94719999999999938","-0.8933999956302503","0.94719999999999949","-0.59339999115988651","0.94720000000000126","SIDE","0.70719806580032785","-0.26505920624681073","-0.65544985537574563","0.0","194.83022763951135","-96.131573129895557","51.621196944241277","0.000743040","0.000076989","76"
"77","instanttomatosoup","0.0","-0.054399985116538041","0.94719999999999849","-0.98540000000000028","0.94719999999999971","-0.55239999247212423","0.94720000000000004","SIDE","3.137813398648448e-16","-0.65520243435469272","0.26448761287207856","0.70764120333182556","167.90752500759021","-112.2693791443286","86.164266894139772","0.008394049","0.000040908","77"
"78","instanttomatosoup","0.0","-0.60539999172986136","0.94719999999999938","-0.58239999389704311","0.94719999999999915","-0.94739999819510023","0.94719999999999971","SIDE","7.9945652380331764e-17","0.67399090287203345","-0.25218827062715837","0.6943611013037988","-179.9024989465079","50.945443247960583","92.264012720538076","0.009271329","0.000074979","78"
"79","instanttomatosoup","0.0","-0.78739999385513282","0.94719999999999938","-0.79039999399762151","0.94719999999999971","-0.74039999488238784","0.94719999999999938","SIDE","0.70830949170297175","-0.26063636139415919","-0.65602313303929394","0.0","160.27295511889639","-58.172127947165194","65.901820829745276","0.008816768","0.000064140","79"
"80","instanttomatosoup","0.0","-0.65039999386724745","1.4702000085430249","-0.69439999269749764","1.528200011297876","-0.98540000000000016","1.0642000022975699","SIDE","7.9945652380331764e-17","0.67399090287203334","-0.25218827062715843","0.69436110130379891","-156.58708441896454","42.221476732091197","91.374094949708393","0.013614760","0.000229893","80"
"81","instanttomatosoup","1.0469999999999999","-0.78500000000000036","1.0469999999999999","-0.41699999229983048","1.046999999999999","-0.328999991379678","1.0469999999999999","SIDE","1.6167801293230365e-16","-0.25813404284540326","-0.67957841476057335","0.68668769765869098","90.137693349278251","244.16892764797089","118.67947170747951","0.000006784","0.000018198","81"
"82","instanttomatosoup","0.0","-0.92139999696016972","1.3842000077178711","-0.98540000000000028","1.4762000088280069","-0.9233999970551573","1.520200010917893","SIDE","7.8695651284763987e-17","0.66014605530930826","-0.25813111310495523","0.70539032748312924","-150.49003540036625","50.133493788475377","67.101474661021101","0.014759181","0.000285171","82"
"83","instanttomatosoup","0.0","0.30960002239364581","0.94719999999999815","-0.9853999999999995","1.4542000077830639","-0.91639999672267825","1.5052000102054339","SIDE","2.7425271167373868e-16","-0.65506837087425296","0.26270026766671384","0.70843065916714043","121.00920429962488","-92.606211157263417","65.934866824766701","0.010780837","0.000164585","83"
"84","instanttomatosoup","0.0","-0.029399983929099469","0.94719999999999427","-0.92839999729264422","0.94720000000000115","-0.5603999928521034","0.94719999999999949","SIDE","0.70298767340605639","0.2802955703130498","0.6536380682778673","0.0","-189.66002770849678","125.3179143164792","88.768939343047521","0.005427334","0.000024210","84"
"85","instanttomatosoup","0.0","-0.98539999999999994","0.94720000000000026","-0.79539999423511454","0.94720000000000093","-0.72939999435991421","0.94719999999999971","SIDE","3.1348528789466662e-16","-0.65602313303929316","0.26063636139415897","0.7083094917029723","180.52316143091349","-66.217484619560679","65.827633023437059","0.007052502","0.000041287","85"
"86","instanttomatosoup","0.0","-0.93839999776762306","1.4112000090003021","-0.98539999999999994","1.4752000087805099","-0.94239999795761353","1.5252000111553841","SIDE","0.70830949170297186","-0.26063636139415908","-0.65602313303929383","0.0","137.12322465761687","-48.974797531803119","65.986631211085012","0.013334956","0.000272816","86"
"87","instanttomatosoup","0.0","-0.80939999490008607","1.277200005895273","-0.62239999253731848","1.330200008412636","-0.98539999999999983","0.96320000075995993","SIDE","0.7068036893026356","-0.26661813497165843","-0.655242943412913","0.0","144.47241536270096","-53.142348941039749","86.571171147642602","0.015090886","0.000247601","87"
"88","instanttomatosoup","0.0","-0.8383999962775105","0.94719999999999882","-0.98540000000000028","0.97420000128243267","-0.63839999329727637","1.3802000075278791","SIDE","7.8287160621554581e-17","0.65485942203990366","-0.26149097014673595","0.70907094842285168","-155.95026303679151","53.371737195442464","50.889651378556515","0.010802451","0.000156973","88"
"89","instanttomatosoup","0.0","-0.78439999697227103","1.2012000055450971","-0.60039999149237078","1.260200005087815","-0.98540000000000016","0.98020000156741427","SIDE","0.0","0.65192652020560948","-0.25742535421704105","0.71324890414134956","-158.35611911390816","53.77979553962053","83.942572096806771","0.012672494","0.000200507","89"
"90","instanttomatosoup","0.0","0.33360002027396007","0.94719999999999815","-0.98540000000000028","1.4882000093979799","-0.93139999743513802","1.506200010252936","SIDE","0.70396703366220836","0.27858104137848094","0.65331693602822838","7.8854759636222249e-17","-130.30347769472118","100.04263422890199","67.644939914617012","0.009725368","0.000153165","90"
"91","instanttomatosoup","2.4633073358870661e-16","1.032600030657272","1.570796326794897","-0.53239999152216799","0.94719999999999949","-0.98539999999999994","1.373200007195402","TOP","0.096680871547657393","0.8270897989668774","0.54518628247462464","-0.096680871547657393","20.452401368108529","72.67504868288141","243.98361076421114","0.000536658","0.000017835","91"
"92","instanttomatosoup","0.0","-0.13239998556170851","0.94719999999999949","-0.98540000000000016","0.94719999999999971","-0.55439999256711492","0.94720000000000326","SIDE","3.137813398648448e-16","-0.65520243435469283","0.26448761287207856","0.70764120333182556","173.08437180115797","-110.3980526644134","86.158067098491117","0.005388019","0.000038749","92"
"93","instanttomatosoup","0.0","-0.31639998778197892","0.94719999999999949","-0.98539999999999994","0.94719999999999949","-0.26339998852424412","0.94720000000000004","SIDE","0.5103154758836127","0.25106121541001036","-0.64507712427601371","0.51031547588361315","95.909072519404575","229.48463732547631","3.1790622629331948","0.000009411","0.000024814","93"
"94","instanttomatosoup","0.0","-0.84139999642000063","0.94719999999999949","-0.98540000000000016","0.97120000113993843","-0.63839999329727637","1.3312000084601361","SIDE","0.70524020962712419","-0.26481536781751797","-0.65765421590130679","0.0","144.00242645436924","-52.429000728860146","52.429481690362273","0.010606530","0.000190560","94"
"95","instanttomatosoup","0.0","-0.98539999999999994","0.94719999999999949","-0.79739999433010345","0.94719999999999938","-0.73039999440740855","0.94720000000000182","SIDE","0.70539032748312946","0.25813111310495546","0.66014605530930803","-7.8695651284763974e-17","-189.05605028601551","65.213623814837945","67.302270585323839","0.007419505","0.000041829","95"
"96","instanttomatosoup","1.0469999999999999","-0.65499999708496048","1.0469999999999979","-0.59599999428261152","1.0469999999999999","-0.78500000000000092","1.0469999999999999","SIDE","0.70974823573338264","-0.26392900105291467","-0.6531454082182323","-1.5642490797852615e-16","207.06270394863918","-100.94605375214813","84.803599876398621","0.000002225","0.000084576","96"
"97","instanttomatosoup","0.0","-0.814399995137568","1.5707963267948959","1.09860003379211","1.5707963267948959","-0.40239998860713139","0.98920000199489266","SIDE","0.99999024006841952","-0.0040064385891631074","-0.0018623151548418924","-1.5265461468571203e-16","-5.6540959262090595","-39.48261658799985","-102.61167911093277","0.000487548","0.000046728","97"
"98","instanttomatosoup","0.0","-0.14539998617917549","0.94719999999999616","-0.9854000000000005","0.94720000000000071","-0.5643999930420901","0.94720000000000326","SIDE","0.70342588354870883","0.28040040423242418","0.65312145858179527","-3.1566169246550881e-16","-179.77189683120608","114.61806103242243","88.384452250810227","0.006150403","0.000042078","98"
"99","instanttomatosoup","2.2204460492503131e-16","-0.40439998870212579","0.94719999999999849","-0.98540000000000016","0.94720000000000037","-0.24639998771678959","0.94720000000000026","SIDE","0.50073162053908371","-0.66691899116741171","-0.23185070110924327","-0.50073162053908415","-122.73444565622349","-225.49236429994988","11.066613165244339","0.000021992","0.000020877","99"
"100","instanttomatosoup","0.0","-0.57039999332707858","0.94719999999999815","-0.47239999193195198","0.94719999999999915","-0.98540000000000016","0.94720000000000037","SIDE","0.7042292954568381","0.26740249781305553","0.65769065949251881","-3.9412696680878197e-17","-206.3811106070973","98.063499821975242","33.335393305325319","0.002487624","0.000078016","100"
"101","instanttomatosoup","0.0","-0.56739999318457945","0.94719999999999815","-0.47339999197944832","0.94719999999999915","-0.98540000000000016","0.94719999999999915","SIDE","2.7436815316440513e-16","-0.65469035575516732","0.26444050624472748","0.7081325841522933","193.69988371310558","-95.603436266393032","31.077923077896372","0.006548030","0.000060499","101"
"102","instanttomatosoup","0.0","1.0326000306572789","1.570796326794897","-0.89439999567772399","0.94719999999999638","-0.27839998923670689","0.94719999999999938","SIDE","-0.49999745422912822","-0.28292806736483389","0.64804073963446263","0.49999745422912856","174.00013339300483","-39.59375829996192","126.44962164175918","0.000023925","0.000000039","102"
"103","instanttomatosoup","0.0","-0.59639999130238674","1.49820000987295","-0.73839999478739138","1.401200008525324","-0.98539999999999994","1.1662000038826821","SIDE","3.1397795845743146e-16","-0.65544985537574529","0.26505920624681067","0.70719806580032807","134.20012766127948","-71.613196868020523","51.63808378315138","0.016384967","0.000284983","103"
"104","instanttomatosoup","1.0469999999999999","-0.78500000000000092","1.0469999999999999","-0.45899999429471727","1.0469999999999999","-0.25499999112449662","1.0469999999999999","SIDE","1.6653459367512702e-16","0.0034728344704103025","-0.0091108417627457638","0.99995246486176292","12.552392802069939","24.733393416093737","-199.7823882105352","0.009771186","0.000020743","104"
"105","instanttomatosoup","0.0","-0.53639999171216113","0.9471999999999986","-0.63939999334476827","0.94719999999999949","-0.90139999601021359","0.94719999999999949","SIDE","2.7473071365025253e-16","-0.65544985537574529","0.26505920624681067","0.70719806580032807","157.2933352422292","-80.951923882599758","51.631651808334176","0.009072579","0.000051113","105"
"106","instanttomatosoup","1.0469999999999999","-0.78500000000000059","1.0469999999999999","-0.7209999969601627","1.0469999999999999","-0.55299999549986623","1.0469999999999999","SIDE","-0.49868013459276173","-0.27777901339355887","0.65228449808591249","0.49868013459276223","212.74748534222027","-80.110337843189114","52.82022618448309","0.009059771","0.000066276","106"
"107","instanttomatosoup","1.0469999999999999","-0.64499999660998997","1.0469999999999999","-0.59799999437760709","1.046999999999999","-0.78500000000000048","1.0469999999999999","SIDE","2.3645811122894781e-16","0.65553400850657584","-0.27250773613270851","0.70428310886966949","-219.04428735383186","105.10940787862893","88.193413073513156","0.000069368","0.000156454","107"
"108","instanttomatosoup","1.0469999999999999","-0.78500000000000036","1.0469999999999999","-0.74299999800510896","1.047000000000001","-0.55099999540485989","1.0469999999999999","SIDE","0.50138887597217519","0.64795757625812533","0.27815349983851273","0.50138887597217485","-224.67284895960955","80.813253739519354","50.477973109058226","0.002420122","0.000097620","108"
"109","instanttomatosoup","0.0","-0.61639999225233466","1.5312000114403559","-0.75839999573733508","1.458200007973053","-0.98539999999999983","1.187200004880131","SIDE","0.70907094842285201","0.26149097014673595","0.65485942203990322","-1.5657432124310906e-16","-146.29245975220422","72.704240933931175","50.899665173003278","0.012228565","0.000215804","109"
"110","instanttomatosoup","0.0","-0.53639999171216202","0.9471999999999946","-0.64239999348726262","0.94719999999999971","-0.90339999610521216","0.94720000000000337","SIDE","0.70907094842285201","0.26149097014673589","0.65485942203990322","-1.5657432124310906e-16","-169.42596780321352","81.941648627191981","50.761085367920785","0.013042800","0.000085230","110"
"111","instanttomatosoup","1.0469999999999999","-0.78500000000000114","1.0469999999999999","-0.44899999381974293","1.0469999999999999","-0.62899999585002631","1.0469999999999999","SIDE","1.1837313467456585e-16","0.65312145858179549","-0.28040040423242402","0.70342588354870839","-206.32651966316143","126.01858520519774","88.684551374892692","0.003787730","0.000119015","111"
"112","instanttomatosoup","0.0","1.0326000306572789","1.5707963267948959","-0.89139999553524341","0.94719999999999849","-0.28139998937919802","0.94720000000000037","SIDE","0.48808856289778041","0.65705310372249381","0.30301869319465535","0.48808856289778041","-185.81941406197936","38.380292293791697","134.2158364588617","0.000001659","0.000000005","112"
"113","instanttomatosoup","1.0469999999999999","-0.78500000000000025","1.0469999999999999","-0.45499999410472369","1.0469999999999999","-0.25499999112449723","1.0469999999999999","SIDE","0.99982596205918373","-0.0033698243387618736","0.018349111050773758","-2.7754985025207658e-16","-34.883970404417056","-19.995427516179539","-198.27559287697687","0.009416909","0.000015445","113"
"114","instanttomatosoup","0.0","1.03260003065728","1.570796326794897","-0.98540000000000016","0.94719999999999915","-0.21739998633936389","0.94720000000000326","SIDE","0.49716883174381316","-0.27338034112400794","0.65643696923002826","-0.49716883174381316","-188.63387419185526","122.88987586015983","13.904743840967642","0.000055185","0.000000096","114"
"115","instanttomatosoup","0.0","1.0326000306572709","1.570796326794897","-0.98539999999999994","0.94719999999999971","-0.2433999875742989","0.94720000000000448","SIDE","0.50052417608508504","-0.65007787125152694","-0.27631478356717759","0.50052417608508537","171.16593486701871","-112.82663990684495","11.2736968152283","0.000010849","0.000000027","115"
"116","instanttomatosoup","0.0","-0.98540000000000016","1.2642000052778071","-0.68039999529216466","1.540200011867858","-0.64539999362975642","1.5342000115828449","SIDE","1.1837313467456585e-16","0.6531214585817956","-0.28040040423242402","0.70342588354870839","-135.20790994306634","95.485693272259084","87.88082568773666","0.002468699","0.000259523","116"
"117","instanttomatosoup","0.0","1.0326000306572749","1.570796326794897","-0.98540000000000016","0.94720000000000004","-0.22339998662434449","0.94719999999999971","SIDE","0.70639118071233131","0.044793651911549645","0.0040655100668929725","-0.70639118071233142","25.348321175205509","54.717876045713588","-194.8161961828734","0.000017793","0.000000228","117"
"118","instanttomatosoup","0.0","-0.80639999475758717","1.570796326794897","-0.32739998830444911","0.94719999999999949","-0.35039998939689071","0.94719999999999949","TOP","1.6839163656674879e-16","0.3000776654474126","0.94775823220059108","0.10820225503953801","-34.095047566696721","-59.397740344686774","228.31705335122166","0.010012863","0.000083894","118"
"119","instanttomatosoup","0.0","-0.52639999123718773","0.94719999999999649","-0.80039999447259702","0.94719999999999849","-0.72939999435991787","0.94720000000000026","SIDE","2.3433043976486179e-16","-0.65224156768736419","0.26366252564558956","0.71067785244153936","153.345578794831","-79.317115556230988","64.808527596115667","0.003415183","0.000091262","119"
"120","instanttomatosoup","1.0469999999999999","-0.28599998933728699","1.046999999999999","-0.36399999304209218","1.0469999999999999","-0.78500000000000025","1.0469999999999999","TOP","0.096680871547657352","0.82708979896687729","0.54518628247462442","-0.096680871547657338","24.759185619305939","93.640012473994048","320.03952606862157","0.000022942","0.000022757","120"
"121","instanttomatosoup","0.0","-0.98540000000000028","1.570796326794897","-0.31039998749697351","0.94719999999999949","-0.42339998960458219","1.100200004007476","TOP","-5.3290603755526095e-17","0.91146006808590119","-0.40987985729768511","-0.035200097535002001","21.353785974943065","17.72438371976283","245.05029695228882","0.003256753","0.000079341","121"
"122","instanttomatosoup","1.0469999999999999","-0.78500000000000048","1.0469999999999999","-0.76199999890755965","1.0469999999999999","-0.49199999260251931","1.0469999999999999","SIDE","-0.49868013459276173","-0.27777901339355887","0.65228449808591249","0.49868013459276223","215.7015284532882","-73.30956744363526","52.821280683238733","0.008780316","0.000061526","122"
"123","instanttomatosoup","0.0","-0.98540000000000028","1.570796326794897","-0.30339998716451128","0.94719999999999938","-0.37739999067932423","0.94720000000000126","SIDE","0.99999910203181586","-0.00057062972641688803","0.0012125664011106427","-5.5511412836977213e-17","-6.3192274957637133","-18.773266665303456","-111.46283720666833","0.005204281","0.000016367","123"
"124","instanttomatosoup","0.0","0.089600018463465089","0.94719999999999438","-0.78339999692477358","0.94719999999999949","-0.74939999530986079","0.94719999999999938","SIDE","0.70396703366220836","0.278581041378481","0.65331693602822827","3.9427379818111125e-17","-153.21637252418574","109.81292755910886","67.865663215665563","0.006408000","0.000033665","124"
"125","instanttomatosoup","1.0469999999999999","-0.74799999824260022","1.363000005230306","-0.51699999378994543","1.4070000073201909","-0.78500000000000125","1.257000003455206","SIDE","0.49927016791958961","0.65491062840182379","0.2693523114016616","0.49927016791958978","-147.65638358406494","75.562666338883659","66.860976263504767","0.025787549","0.000377987","125"
"126","instanttomatosoup","1.0469999999999999","-0.70099999601022234","1.046999999999999","-0.53999999488237649","1.046999999999999","-0.75699999867007539","1.0469999999999999","SIDE","0.49927016791958961","0.65491062840182379","0.26935231140166155","0.49927016791958978","-170.64616699757363","85.1529050246358","66.933643658265936","0.022029691","0.000197150","126"
"127","instanttomatosoup","2.7755575615628909e-16","1.03260003065727","1.5707963267948959","-0.98539999999999861","1.1812000045951461","-0.037399984309076581","1.033200004084786","SIDE","-0.49999745422912811","-0.28292806736483395","0.64804073963446251","0.4999974542291285","150.80981848570963","-30.49884794107718","126.44936798179535","0.006669096","0.000027418","127"
"128","instanttomatosoup","1.0469999999999999","-0.70799999634270872","1.046999999999999","-0.54199999497737728","1.0469999999999999","-0.75599999862257783","1.0469999999999999","SIDE","0.50252512870050492","0.27476687565471136","-0.64764199531224842","-0.50252512870050514","159.64963634372629","-81.865471591020082","64.739670659789809","0.016648370","0.000076012","128"
"129","instanttomatosoup","0.0","-0.40439998870212313","0.94719999999999915","-0.98539999999999994","0.94720000000000026","-0.2433999875742954","0.94720000000000426","SIDE","0.50182684896173002","0.2406326457335583","-0.66214466480486667","0.50182684896173047","106.25333901372746","229.23403057923167","10.154120448364401","0.000057864","0.000020624","129"
"130","instanttomatosoup","1.0469999999999999","-0.7309999974351441","1.3030000056400921","-0.51099999350495573","1.3800000060377611","-0.78500000000000125","1.252000003217719","SIDE","0.50252512870050514","0.27476687565471136","-0.64764199531224842","-0.50252512870050492","136.55639056845584","-72.530243957413163","64.991909815544446","0.026949344","0.000351923","130"
"131","instanttomatosoup","0.0","1.03260003065727","1.570796326794897","-0.98540000000000016","1.182200004642644","-0.04839998483154228","1.119200004909942","SIDE","0.48808856289778052","0.65705310372249381","0.3030186931946553","0.48808856289778035","-162.4737588916347","29.771388987643856","133.04311802174038","0.007411498","0.000038598","131"
"132","instanttomatosoup","0.0","-0.56339999299459453","0.94719999999999815","-0.88439999846238637","0.94720000000000026","-0.22739998681434159","0.94719999999999949","SIDE","0.70709987987274281","-0.0041498355694996741","0.0015161242201095766","0.70709987987274325","-5.2525474448685836","-40.34647645988526","-210.41747207859163","0.007077958","0.000016657","132"
"133","instanttomatosoup","1.046999999999999","-0.67499999803491462","1.0469999999999959","-0.63599999618250957","1.046999999999999","-0.78500000000000125","1.0469999999999999","SIDE","0.71021183133603183","0.24719192936716608","0.65916257834168479","-1.5632280055608677e-16","-230.50229350868511","70.765606989464359","49.766447510190645","0.000133961","0.000056375","133"
"134","instanttomatosoup","0.0","-0.98540000000000028","1.570796326794897","-0.26239998847675189","0.94719999999999971","-0.46739999169446778","1.1502000031227231","TOP","0.02076793626371334","0.43294935968557829","0.9011789748830108","-8.2772802679607839e-17","-31.846890789044902","-16.56690812077688","246.0185716736359","0.005737097","0.000094690","134"
"135","instanttomatosoup","0.0","1.0326000306572749","1.570796326794897","-0.75439999554734793","1.5707963267948959","-0.22439998667184119","0.94719999999999949","SIDE","0.0","-0.29805400703695512","-0.63835995818307401","0.70969033576463381","62.590131399926669","135.71794715671399","10.909694588919132","0.000338276","0.000004434","135"
"136","instanttomatosoup","0.0","1.0326000306572749","1.570796326794897","-0.91439999662767646","0.94719999999999949","-0.277399989189207","0.94719999999999949","SIDE","0.4971688317438131","-0.27338034112400811","0.65643696923002814","-0.4971688317438131","-197.65617694270611","118.86649262612859","13.981646516280971","0.000263537","0.000000435","136"
"137","instanttomatosoup","1.0469999999999999","-0.73299999753013123","1.2780000044526489","-0.50899999340997359","1.255000003360212","-0.78500000000000048","1.306000005782572","SIDE","0.50085044476196827","-0.64817614455292649","-0.27958066742173138","0.50085044476196861","148.04969979917846","-45.306407675531794","65.956670096082945","0.028634189","0.000366987","137"
"138","instanttomatosoup","0.0","1.0326000306572789","1.570796326794897","-0.74339999502486964","0.94719999999999949","-0.38439999101180611","0.94720000000000037","SIDE","0.50097608876363398","0.27809171281584583","-0.64862232172299761","-0.50097608876363442","161.31260085131771","-51.597887388048498","125.82770427745361","0.000145455","0.000000863","138"
"139","instanttomatosoup","1.0469999999999999","-0.42999999291729107","1.0469999999999999","-0.33099999147466991","1.0469999999999999","-0.78500000000000014","1.5707963267948959","SIDE","0.70707316876795556","0.0088980027967206533","-0.0039866731887898948","0.70707316876795534","13.156637282694843","23.148182287879433","-112.7989290407656","0.003207497","0.000018390","139"
"140","instanttomatosoup","0.0","1.0326000306572789","1.570796326794897","-0.77839999668728621","0.94719999999999915","-0.35639998968187991","0.94720000000000037","SIDE","0.47707963646472629","0.6678770530649516","0.31421375356697051","0.47707963646472645","-177.17420329814291","44.791797753118693","140.75386945646096","0.000083523","0.000000181","140"
"141","instanttomatosoup","0.0","-0.78039999678228089","0.94719999999999938","-0.96939999924004172","0.94719999999999971","-0.58739999087490169","0.94719999999999949","SIDE","1.5657432124310914e-16","0.65485942203990344","-0.26149097014673595","0.70907094842285168","-179.08377108780104","62.609144888703405","50.751071573473808","0.005667369","0.000056553","141"
"142","instanttomatosoup","0.0","-0.98540000000000016","1.5707963267948959","-0.33739998877942418","0.94719999999999827","-0.33039998844694268","0.94719999999999938","SIDE","0.705398372847022","-0.64316255089007246","0.29791788922008122","3.934737686395003e-17","-79.132787667881757","-152.93483936880725","87.040548078502965","0.007535774","0.000039495","142"
"143","instanttomatosoup","0.0","-0.96339999895505668","0.94719999999999938","-0.6753999950546774","0.94720000000000026","-0.48939998947978081","0.94719999999999938","SIDE","0.50245415813261296","0.27739823634922428","-0.64662961300951405","-0.5024541581326134","166.3293681004148","-60.987355717600387","30.029196982126255","0.007891394","0.000074981","143"
"144","instanttomatosoup","0.0","-0.57239999342206949","0.94719999999999949","-0.32339998811446102","0.94719999999999849","-0.8443999965624891","0.94720000000000415","SIDE","0.50386605309401933","-0.64361109926894799","-0.27928973124109979","0.50386605309401966","172.15374186354771","-39.26968148056519","83.897337361017435","0.007229716","0.000073041","144"
"145","instanttomatosoup","0.0","-0.55439999256711869","0.94719999999999793","-0.31939998792447249","0.9471999999999986","-0.81339999509006111","0.94720000000000126","SIDE","0.49723296362346536","-0.31010459950953834","0.6398077032479994","-0.49723296362346536","-183.76064837324967","34.01353143303016","88.220555893143512","0.004274080","0.000025260","145"
"146","instanttomatosoup","0.0","-0.44139999045952522","0.94719999999999938","-0.19639998534190789","0.94719999999999949","-0.98539999999999961","0.94719999999999949","SIDE","0.50075886916161483","0.27726808314008033","-0.64931003379263008","-0.50075886916161538","146.41453829988248","-102.67767401952256","51.175489158322215","0.011960770","0.000073372","146"
"147","instanttomatosoup","0.0","-0.59139999106489805","0.94719999999999915","-0.79439999418762264","0.94720000000000004","-0.73139999445489912","0.94720000000000093","SIDE","7.8695651284763999e-17","0.66014605530930826","-0.25813111310495529","0.70539032748312935","-176.16283356854035","52.631793945996144","67.22182614076155","0.009411342","0.000072666","147"
"148","instanttomatosoup","0.0","-0.98539999999999928","0.94720000000000004","-0.76439999602231989","0.94719999999999971","-0.45639999117198971","0.94720000000000182","SIDE","0.50219560201662494","0.64088941855992343","0.29130723953970478","0.50219560201662483","-204.94157314650272","60.678756074465738","30.006733667207179","0.007838975","0.000056147","148"
"149","instanttomatosoup","1.0469999999999999","-0.74199999795760863","1.2790000045001471","-0.50899999340996316","1.255000003360212","-0.78500000000000048","1.302000005592586","SIDE","0.49878628394672042","-0.28426749177101585","0.64932001279450691","-0.49878628394672042","-160.87985148384766","46.655823711293046","67.142254514739491","0.033428225","0.000506142","149"
"150","instanttomatosoup","0.0","1.0326000306572769","1.570796326794897","-0.9853999999999995","1.4902000094929719","-0.27439998904671808","1.4862000093029859","SIDE","0.4770796364647264","0.6678770530649516","0.31421375356697057","0.47707963646472645","-153.83176344247855","36.38589043585155","138.52242961676194","0.009981362","0.000055877","150"
"151","instanttomatosoup","1.0469999999999999","-0.78500000000000048","1.0469999999999999","-0.43799999329727352","1.0469999999999999","-0.32399999114219019","1.046999999999999","SIDE","0.705398372847022","-0.64316255089007246","0.29791788922008128","3.934737686395003e-17","-118.80925824775228","-238.59072292540941","87.496148083986782","0.000095111","0.000013581","151"
"152","instanttomatosoup","0.0","-0.98540000000000016","0.94719999999999938","-0.76539999606981657","0.94719999999999849","-0.45139999093450223","0.94719999999999949","SIDE","0.50245415813261318","0.27739823634922417","-0.64662961300951394","-0.5024541581326134","196.22366320041411","-64.567636803645428","29.742930308297517","0.008612317","0.000048291","152"
"153","instanttomatosoup","1.0469999999999999","-0.62299999556504482","1.0469999999999979","-0.66899999774992203","1.0469999999999979","-0.78500000000000025","1.0469999999999999","SIDE","0.70907094842285201","0.26149097014673595","0.65485942203990322","-1.1743074093233181e-16","-226.25161114912109","81.443666989554131","50.468515634817152","0.000033609","0.000133758","153"
"154","instanttomatosoup","1.0469999999999999","-0.71099999648518541","1.0469999999999919","-0.56699999616481678","1.0469999999999999","-0.7409999979101114","1.046999999999999","SIDE","0.50085044476196816","-0.64817614455292671","-0.27958066742173132","0.50085044476196861","171.19943026045715","-54.503738090893826","65.871859714743422","0.010422088","0.000059743","154"
"155","instanttomatosoup","0.0","-0.65039999386724456","1.4702000085430209","-0.1593999868441405","1.230200006922515","-0.9853999999999995","1.3102000074626849","SIDE","0.50386605309401922","-0.64361109926894822","-0.27928973124109996","0.50386605309401977","148.98652523202969","-30.124265442822793","84.284040147266026","0.017885797","0.000260075","155"
"156","instanttomatosoup","0.0","-0.14439998613167701","0.94719999999999782","-0.67039999481719037","1.4652000083055341","-0.98540000000000016","1.0632000022500721","SIDE","7.8941490887998704e-17","0.67168943081238375","-0.23313530043171765","0.70319360081527238","-163.63004160731731","27.026440612538003","87.985346354120892","0.009680120","0.000159140","156"
"157","instanttomatosoup","0.0","1.032600030657272","1.5707963267948959","-0.33639998873193022","0.94719999999999938","-0.32839998835194573","0.94719999999999949","SIDE","0.68550944701192051","0.67493258003717627","-0.27302529271437792","-3.2391180879111951e-16","60.783763129674369","158.67575001729753","133.97314513543046","0.000010376","0.000000005","157"
"158","instanttomatosoup","0.0","-0.4923999896222801","0.94720000000000326","-0.28339998947419143","0.94719999999999949","-0.95239999843258094","0.94719999999999993","SIDE","0.50075886916161472","0.27726808314008045","-0.64931003379263008","-0.50075886916161538","169.53063020333391","-111.95930474882631","51.099818054136001","0.008504236","0.000054715","158"
"159","instanttomatosoup","1.0469999999999999","-0.61399999513755998","1.046999999999999","-0.63999999637250393","1.0469999999999999","-0.78500000000000036","1.0469999999999999","SIDE","2.7549340870981695e-16","-0.65765421590130657","0.26481536781751785","0.70524020962712441","214.9737456271404","-81.006778437585638","52.832880169552432","0.000131549","0.000067601","159"
"160","instanttomatosoup","0.0","0.05560001684855178","0.94719999999999938","-0.79539999423511354","0.94719999999999949","-0.731399994454909","0.94719999999999971","SIDE","2.3507375286320453e-16","-0.65506837087425285","0.26270026766671384","0.70843065916714054","144.12919749532446","-101.87795846030755","65.84150420215984","0.003730005","0.000029712","160"
"161","instanttomatosoup","0.0","-0.64939999381974911","1.567796329912039","-0.19439998524692581","1.4592000080205509","-0.98540000000000028","1.397200008335334","SIDE","0.49723296362346536","-0.31010459950953834","0.6398077032479994","-0.49723296362346525","-160.22928188683048","25.846077928893436","87.945611281279952","0.022718007","0.000251278","161"
"162","instanttomatosoup","1.0469999999999999","-0.71499999667518488","1.0469999999999919","-0.57599999659229228","1.0469999999999999","-0.73799999776762448","1.0469999999999999","SIDE","0.49878628394672042","-0.28426749177101585","0.64932001279450691","-0.49878628394672042","-184.07906467532786","55.727208257354214","67.263042401940922","0.020482677","0.000140248","162"
"163","instanttomatosoup","0.0","1.0326000306572749","1.5707963267948959","-0.98539999999999994","1.570796326794897","-0.40739998884461531","1.570796326794897","SIDE","0.50097608876363398","0.27809171281584594","-0.6486223217229975","-0.50097608876363431","138.18308931307246","-42.349951482711802","125.9250566937998","0.000020045","0.000000115","163"
"164","instanttomatosoup","0.0","0.19060002000108481","0.94719999999999793","-0.41039998898710051","1.3082000073676869","-0.27839998923670561","0.94719999999999949","SIDE","0.70814144887543096","-0.63552614413376896","0.30763973817936674","0.0","-72.484343989346115","-133.82889754859028","11.372361435707264","0.011538910","0.000072309","164"
"165","instanttomatosoup","0.0","-0.4983999899072612","0.94719999999998972","-0.23239998705182549","0.94719999999999938","-0.95539999857507596","0.94720000000000037","SIDE","0.49950673053859435","0.65601167703212881","0.26577195467314069","0.49950673053859435","-159.68578074610141","104.98732578271076","51.997991224581817","0.013644980","0.000071720","165"
"166","instanttomatosoup","1.0469999999999999","-0.78500000000000014","1.0469999999999999","-0.48799999241251069","1.0469999999999999","-0.28399999250192409","1.0469999999999999","SIDE","-1.5763171041471041e-16","-0.30966517219967293","-0.63878677036945319","0.70431452003171879","114.83999540692946","236.48166551524901","88.15984654104254","0.000190041","0.000025222","166"
"167","instanttomatosoup","0.0","-0.47539999207444461","0.94719999999999793","-0.25439998809676129","0.94719999999999949","-0.9853999999999995","0.94720000000000037","SIDE","0.49935529187916816","0.65674630044185323","0.2645238775620844","0.49935529187916805","-178.45824392136888","120.61460802012927","52.15750194067985","0.013439922","0.000083500","167"
"168","instanttomatosoup","1.0469999999999999","-0.64299999651499939","1.046999999999997","-0.47499999505467799","1.0469999999999999","-0.78500000000000081","1.0469999999999999","SIDE","7.8418216165645946e-17","0.65399628051466363","-0.26680777140466155","0.70788592173531961","-220.15739086942466","104.07438896897455","105.963302866452","0.000098454","0.000125227","168"
"169","instanttomatosoup","0.0","-0.49539998976477367","0.94719999999999971","-0.23539998719432251","0.94719999999999938","-0.95039999833759481","0.94719999999999938","SIDE","0.50609008709987224","0.26805603188441662","-0.64489658957763762","-0.50609008709987224","148.85975999429579","-102.11379938326436","47.596317507897055","0.012044041","0.000069381","169"
"170","instanttomatosoup","0.0","1.032600030657272","1.570796326794897","-0.34439998911190789","0.94719999999999949","-0.33139998849444119","0.94719999999999949","SIDE","2.0124830207204621e-16","0.28591682143825198","0.66537480797126491","0.68958533636950914","-77.090996827005938","-156.24733982498529","132.60020711398116","0.000428951","0.000000300","170"
"171","instanttomatosoup","0.0","1.032600030657276","1.570796326794897","-0.37139999039433841","0.94719999999999827","-0.30939998744950548","0.94719999999999882","SIDE","0.70814144887543096","-0.63552614413376896","0.30763973817936668","0.0","-88.535967325157117","-154.84470610855135","11.296480807614802","0.000040242","0.000000013","171"
"172","instanttomatosoup","0.0","-0.77439999649729618","0.94719999999999938","-0.97439999947752987","0.94719999999999949","-0.59139999106488716","0.94719999999999949","SIDE","0.7052402096271243","-0.26481536781751791","-0.65765421590130668","0.0","167.02566679763888","-61.699689964081372","52.560344977795594","0.006887515","0.000065092","172"
"173","instanttomatosoup","1.0469999999999999","-0.78500000000000114","1.0469999999999999","-0.47099999486468769","1.0469999999999999","-0.27499999207444592","1.0469999999999999","SIDE","0.70850485680584829","-0.61869670777866603","0.33946318160643629","0.0","-138.44130902611968","-230.10610709742843","85.5834848988235","0.000150156","0.000027347","173"
"174","instanttomatosoup","1.0469999999999999","-0.70799999634269739","1.0469999999999879","-0.65299999698996669","1.0469999999999999","-0.65799999722745728","1.047000000000001","SIDE","0.50085044476196816","-0.64817614455292638","-0.27958066742173138","0.50085044476196849","164.73376224864202","-59.944395540520887","65.885478403885358","0.009383660","0.000058389","174"
"175","instanttomatosoup","1.0469999999999999","-0.78500000000000048","1.4360000086976259","-0.69799999586772166","1.4230000080801599","-0.7309999974351451","1.4870000078603729","SIDE","0.50085044476196816","-0.64817614455292638","-0.27958066742173138","0.50085044476196849","141.58403178736245","-50.747065125158976","65.970288785224881","0.029682258","0.000427228","175"
"176","instanttomatosoup","0.0","-0.98539999999999994","1.0132000031348269","-0.78139999682977612","1.3872000078603679","-0.45439999107700141","1.304200007177704","SIDE","0.50245415813261296","0.27739823634922428","-0.64662961300951405","-0.5024541581326134","143.19885703770819","-51.74465762309444","30.274329419432604","0.020342604","0.000214740","176"
"177","instanttomatosoup","0.0","-0.98540000000000016","1.570796326794897","-0.29839998692701919","0.94719999999999949","-0.48039999231193298","1.308200007367686","SIDE","0.7094112749706849","0.63617480179513863","-0.30334347612134865","3.9124801923645563e-17","68.996618003029454","144.93358781902216","50.923176354925509","0.007973040","0.000174721","177"
"178","instanttomatosoup","1.046999999999999","-0.7850000000000007","1.570796326794897","-0.41399999215732708","1.0469999999999999","-0.39699999134987451","1.0469999999999999","TOP","0.13672739976474801","0.97034572284738896","-0.1993358881520057","-2.7888705631461123e-16","19.858794469557893","69.785433970746695","233.50077406589125","0.003547843","0.000034696","178"
"179","instanttomatosoup","0.0","-0.56639999313708445","0.94719999999999938","-0.79039999399762773","0.94719999999999949","-0.7373999947398977","0.94719999999999949","SIDE","0.70830949170297186","-0.26063636139415908","-0.65602313303929383","0.0","162.9283501153113","-51.217658492078499","65.902161296973901","0.008210200","0.000067231","179"
"180","instanttomatosoup","1.0469999999999999","-0.78500000000000025","1.399000006940218","-0.67999999827239643","1.3950000067502279","-0.72799999729263953","1.448000006007963","SIDE","0.49878628394672037","-0.2842674917710159","0.64932001279450702","-0.49878628394672042","-155.24908746524414","51.994384112594474","67.126252908425926","0.029536018","0.000405052","180"
"181","instanttomatosoup","0.0","-0.98540000000000016","1.5707963267948959","-0.38739998789466629","0.94719999999999949","-0.29839998692702518","0.94719999999999949","SIDE","0.98516312972802467","-0.15557556877762568","0.072455850170994832","-3.0462687070601055e-16","-42.626711677621152","-71.072055243540618","-96.930182290884161","0.009902130","0.000032262","181"
"182","instanttomatosoup","0.0","-0.98540000000000016","0.94719999999999915","-0.76239999592732999","0.94720000000000115","-0.4363999902220409","0.94719999999999915","SIDE","0.50055093556553421","-0.27378362038919191","0.65110678925620458","-0.50055093556553432","-196.91706176859333","94.593141752669609","106.01864727201666","0.008130372","0.000042704","182"
"183","instanttomatosoup","0.0","0.1026000190809372","0.94719999999999793","-0.45239999098200367","1.3252000081751529","-0.24939998785927711","0.94719999999999949","SIDE","2.6921207885563534e-16","-0.27861132105453146","-0.63366549687324136","0.72169506708348585","55.694588712431617","138.02198330769352","7.3478162955805795","0.011018488","0.000069719","183"
"184","instanttomatosoup","1.0469999999999999","-0.71299999658018642","1.046999999999995","-0.65699999717995805","1.0469999999999999","-0.66199999741744653","1.046999999999999","SIDE","0.49878628394672037","-0.28426749177101579","0.64932001279450691","-0.49878628394672053","-178.4483006567261","61.065768658655657","67.247040795627385","0.019740477","0.000133655","184"
"185","instanttomatosoup","0.0","-0.98540000000000016","1.570796326794897","-0.30239998711700888","0.94719999999999815","-0.35439998958688218","0.94719999999999915","SIDE","-1.182237828110328e-16","-0.30966517219967293","-0.63878677036945319","0.70431452003171879","67.473766377075179","154.42820157685057","87.414986780532544","0.006133231","0.000040241","185"
"186","instanttomatosoup","0.0","-0.17139998741410889","1.035200004179772","-0.3303999884469459","0.94719999999999949","-0.34939998934939331","0.94719999999999949","SIDE","2.9363814381202583e-16","0.24088299345310635","0.60840810876053719","0.75618447263845434","-75.102052398658969","-161.30699825136395","87.689863446037691","0.000002656","0.000019457","186"
"187","instanttomatosoup","0.0","1.0326000306572769","1.570796326794897","-0.26639998866673459","0.94719999999999949","-0.25039998790677642","0.94719999999999949","SIDE","2.4149796248645546e-16","0.28591682143825203","0.66537480797126491","0.68958533636950914","-67.268283981293322","-133.38829417458925","131.38100889226934","0.008267501","0.000020919","187"
"188","instanttomatosoup","0.0","1.032600030657276","1.570796326794897","-0.25239998800176688","0.94719999999999938","-0.23939998738430621","0.94720000000000004","SIDE","0.68550944701192063","0.67493258003717604","-0.27302529271437792","-3.2391180879111951e-16","51.45938131336667","135.62539811046469","132.47471905621018","0.007808277","0.000022356","188"
"189","instanttomatosoup","0.0","-0.70339999312498269","0.94719999999999427","-0.4153999892245977","0.94719999999999949","-0.66939999476969525","0.94719999999999971","SIDE","0.49098744332407546","-0.29825950158268655","0.65490757417503032","-0.49098744332407546","-171.94661664019108","47.968577845780572","91.960347476298907","0.004705606","0.000038860","189"
"190","instanttomatosoup","1.0469999999999999","-0.25899999131448398","1.046999999999999","-0.39399999120737628","1.0469999999999999","-0.37299999346956692","1.0469999999999999","SIDE","2.0124830207204616e-16","0.28591682143825198","0.66537480797126491","0.68958533636950925","-77.367026510708925","-156.88970566014126","132.6344680055287","0.004980480","0.000003608","190"
"191","instanttomatosoup","0.0","-0.98540000000000016","1.081200003105028","-0.80139999452008615","1.4242000096177669","-0.46739999169446739","1.4142000091427991","SIDE","0.50219560201662472","0.64088941855992332","0.29130723953970472","0.50219560201662483","-155.80892363637486","50.130320469917109","30.44426572030898","0.019543388","0.000261485","191"
"192","instanttomatosoup","0.0","-0.72239999402742261","0.94719999999999949","-0.42239998955707458","0.9471999999999986","-0.67939999524466843","0.94720000000000482","SIDE","-0.49978568167356346","0.65185421983767344","0.27479923738613377","-0.4997856816735638","158.26670283605227","-51.107145467955696","86.581464793048298","0.011305803","0.000057736","192"
"193","instanttomatosoup","0.0","0.28060002101622528","0.94719999999999638","-0.74539999511986832","1.448200007498079","-0.98539999999999994","1.1202000049574301","SIDE","0.70619502621829511","0.27734313495170188","0.65143639017152211","-1.1790896813984044e-16","-134.57031874195852","101.92972191393847","52.034570935421442","0.010118032","0.000168017","193"
"194","instanttomatosoup","0.0","-0.98539999999999994","0.94720000000000026","-0.76339999597482111","0.94719999999999938","-0.43739999026954829","0.94720000000000326","SIDE","-0.49950651370260452","0.65144697943981345","0.27677304514002515","-0.49950651370260502","183.9455837931271","-91.479600518879437","106.83185068250538","0.006772928","0.000036225","194"
"195","instanttomatosoup","0.0","-0.65339999400973281","1.570796326794897","-0.98539999999999894","1.4352000101402369","-0.897399995820231","1.472200008638018","SIDE","2.3433043976486179e-16","-0.65224156768736419","0.26366252564558956","0.71067785244153936","130.2523330195603","-69.981887922624182","65.060766751870531","0.013670081","0.000168197","195"
"196","instanttomatosoup","0.0","0.1226000167712591","0.94719999999999815","-0.65839999424721862","0.95720000047497344","-0.44739999074451459","0.94719999999999915","SIDE","-0.48825158074961833","-0.27569282118130684","0.66874079891994764","0.48825158074961833","154.08196496114402","-58.32466034117067","133.63244205367053","0.006692695","0.000032860","196"
"197","instanttomatosoup","1.0469999999999999","-0.24699999074450979","1.046999999999999","-0.72299999705515205","1.0469999999999999","-0.78500000000000048","1.0469999999999999","SIDE","1.9596413505771615e-16","-0.65518966978218129","0.26307338619228904","0.70817998424697026","197.82487617474828","-123.32008078172174","51.007196133279379","0.000037676","0.000069997","197"
"198","instanttomatosoup","0.0","-0.62739999277480407","0.94719999999999949","-0.98540000000000016","0.9852000018049053","-0.62539999267982216","1.374200007242895","SIDE","0.0","0.65916257834168479","-0.24719192936716608","0.71021183133603183","-159.34424318941765","44.080694455933575","50.435376014920529","0.010172889","0.000128154","198"
"199","instanttomatosoup","0.0","1.0326000306572749","1.5707963267948959","-0.32539998820945609","0.94720000000000126","-0.35339998953938512","0.94719999999999915","SIDE","0.70814144887543096","-0.63552614413376918","0.30763973817936674","0.0","-83.337753044659124","-156.25001014103424","11.299409431028362","0.000017173","0.000000006","199"
"200","instanttomatosoup","0.0","-0.66839999472219558","1.5627963296745619","-0.98540000000000016","1.477200008875504","-0.92639999719765331","1.519200010870394","SIDE","3.9347825642382e-17","0.66014605530930826","-0.25813111310495529","0.70539032748312935","-152.96362037705882","43.560409399934855","67.10103825356012","0.012209579","0.000264573","200"
"201","instanttomatosoup","1.0469999999999999","-0.78500000000000103","1.046999999999999","-0.3729999934695637","1.047000000000001","-0.29799998990725879","1.0469999999999999","SIDE","0.98516312972802467","-0.15557556877762568","0.072455850170994818","-3.063877196696291e-16","-54.590139409051261","-96.759657686332744","-175.79375938522017","0.000004439","0.000013341","201"
"202","instanttomatosoup","0.0","-0.93939999781511807","0.94719999999999915","-0.67339999495968217","0.94720000000000149","-0.48039999231193248","0.94720000000000037","SIDE","0.50219560201662472","0.64088941855992332","0.29130723953970472","0.50219560201662483","-179.04764450969842","58.845051004459137","30.225807756157909","0.007980156","0.000054745","202"
"203","instanttomatosoup","0.0","-0.98540000000000028","1.570796326794897","-0.29739998687953217","0.94719999999999949","-0.52239999104719914","1.4002000084778281","SIDE","3.9068508860222248e-16","0.30721638178824962","0.63316854389905597","0.71043345204015107","-82.549344572200681","-140.83479980102109","50.603255656170496","0.006730403","0.000069182","203"
"204","instanttomatosoup","0.0","-0.9853999999999995","0.94720000000000037","-0.86439999751243324","0.94719999999999915","-0.34039998892192358","0.94719999999999971","SIDE","-0.49829120907702301","-0.28525473171744131","0.64964719651971659","0.49829120907702334","212.24354078774331","-54.261934449346654","33.089688395543497","0.000058555","0.000045345","204"
"205","instanttomatosoup","0.0","-0.67539999505467785","1.570796326794897","-0.98540000000000016","1.477200008875508","-0.94339999800510299","1.5292000113453721","SIDE","0.70830949170297186","-0.26063636139415908","-0.65602313303929383","0.0","139.77861965403184","-42.020328076716638","65.986971678313424","0.014325340","0.000275295","205"
"206","instanttomatosoup","1.0469999999999999","-0.25499999112449467","1.046999999999997","-0.33899999185464841","1.0469999999999999","-0.42199999253731191","1.0469999999999999","SIDE","2.0124830207204621e-16","0.28591682143825203","0.66537480797126491","0.68958533636950914","-83.359444674441008","-156.38023081411222","132.72746185401462","0.004532638","0.000001673","206"
"207","instanttomatosoup","0.0","0.24260001921131721","0.94719999999999849","-0.9853999999999995","1.552796329199569","-0.38839998794217179","1.570796326794897","SIDE","0.51005417352976345","-0.2752812925786905","0.63553889738232783","-0.51005417352976368","-139.76468009320581","69.667960699025343","6.3008086624932771","0.007796914","0.000045785","207"
"208","instanttomatosoup","0.0","0.243600019258817","0.94719999999999438","-0.98540000000000016","1.5487963290095781","-0.39939998846464358","1.5707963267948959","SIDE","0.50359504024188961","-0.64531829319750633","-0.27631209049224753","0.50359504024189028","126.53007012853801","-68.070739090503182","9.7552732217917786","0.009585112","0.000045750","208"
"209","instanttomatosoup","1.0469999999999999","-0.31099999052472588","1.046999999999999","-0.5359999946923959","1.0469999999999979","-0.78500000000000103","1.163000002250075","SIDE","-0.49879197287808563","0.66544436084391045","0.24412484143530636","0.4987919728780858","-80.435722673829375","-155.7476916089409","87.055509520062827","0.006076326","0.000117637","209"
"210","instanttomatosoup","0.0","0.2376000189738349","0.94719999999999827","-0.22339998662434049","0.94719999999999949","-0.44339999055452972","1.2612000051353109","SIDE","0.68532087247354911","0.67481573770190206","-0.27378645310155703","-8.1000234285729176e-17","57.163946123848625","136.21726046558572","132.69032866645514","0.009775888","0.000056497","210"
"211","instanttomatosoup","1.0469999999999999","-0.19899998846463929","1.0480000000474849","-0.26599999164696658","1.0469999999999999","-0.44299999353475927","1.261000003645194","SIDE","0.68532087247354911","0.67481573770190206","-0.27378645310155691","-8.1000234285729176e-17","57.163946123848618","136.21726046558572","132.69032866645514","0.008604887","0.000020378","211"
"212","instanttomatosoup","0.0","0.39560002321880039","0.94719999999999793","-0.98539999999999994","1.570796326794897","-0.59439999120739229","1.5707963267948959","SIDE","-0.48825158074961822","-0.27569282118130684","0.66874079891994775","0.4882515807496185","131.10890638219399","-48.76388865246301","132.47558240592286","0.002711900","0.000015191","212"
"213","instanttomatosoup","1.0469999999999999","-0.2159999892720956","1.046999999999999","-0.71499999667516789","1.046999999999999","-0.78500000000000103","1.0469999999999999","SIDE","0.706195026218295","0.27734313495170188","0.65143639017152222","-3.9302989379946814e-17","-206.52075354401879","132.56196698070048","52.236105622763084","0.000041448","0.000046378","213"
"214","instanttomatosoup","0.0","0.3566000213664075","0.94719999999999638","-0.98540000000000028","1.570796326794897","-0.56439999304208865","1.570796326794897","SIDE","0.46965419187268842","0.68917466142713513","0.28963453896180535","0.46965419187268842","-142.56832686859451","49.572572379251582","141.66533242250367","0.008448295","0.000042015","214"
"215","instanttomatosoup","0.0","-0.50539999023974003","1.405200008715332","0.006600017780820748","1.103200004149971","-0.98540000000000016","1.02220000356231","SIDE","0.50609008709987224","0.26805603188441673","-0.64489658957763785","-0.50609008709987235","125.84111293751432","-92.612364598698193","48.206829350518696","0.014925324","0.000214880","215"
"216","instanttomatosoup","1.0469999999999999","-0.39899999144486847","1.046999999999999","-0.37899999375455118","1.0469999999999999","-0.41199999206233551","1.047000000000001","TOP","-0.076510548278133528","0.88235322503490599","0.45797932079391923","0.076510548278133403","-33.776201249521378","-58.390703644831717","223.52202398138192","0.011566029","0.000098510","216"
"217","instanttomatosoup","1.0469999999999999","-0.78500000000000059","1.0469999999999979","-0.25399999107699928","1.047000000000001","-0.37899999375455101","1.0469999999999999","SIDE","0.70969033576463381","0.63835995818307389","-0.29805400703695545","-3.9109417469697587e-17","111.24535392791189","239.92572522728832","10.067735650168846","0.000017265","0.000017223","217"
"218","instanttomatosoup","0.0","-0.80039999447260768","0.9471999999999946","-0.53239999152216444","0.94720000000000115","-0.61339999210984664","0.94719999999999971","SIDE","0.50434313679222209","-0.2789544496565165","0.64300887688895403","-0.50434313679222209","-173.70995255899538","59.842543243066373","83.654505644737526","0.007621803","0.000066910","218"
"219","instanttomatosoup","0.0","-0.65439999405723293","1.570796326794897","-0.98540000000000016","1.454200007783065","-0.9163999967226818","1.493200009635465","SIDE","0.70607464276017651","0.27263090049368699","0.65355259233445817","-2.3585814248018223e-16","-141.64821449550399","73.056345396790093","66.84198530621282","0.012303042","0.000270819","219"
"220","instanttomatosoup","1.0469999999999999","-0.78500000000000092","1.046999999999999","-0.28199999240692802","1.0469999999999999","-0.3359999917121631","1.0469999999999999","SIDE","3.1355967833495811e-16","0.30763973817936674","0.63552614413376896","0.70814144887543096","-123.156824792512","-238.50876279978621","11.031762547578387","0.000246060","0.000014991","220"
"221","instanttomatosoup","7.095019016745141e-16","-0.38839998794216729","0.94719999999999849","-0.77939999673478166","0.94719999999999938","-0.20839998591188039","0.94719999999999938","TOP","-0.076510548278133542","0.88235322503490599","0.45797932079391923","0.076510548278133403","-40.862253342331059","-80.77112370958352","330.08693024043725","0.000008039","0.000009845","221"
"222","instanttomatosoup","0.0","-0.98540000000000028","1.5707963267948959","-0.36539999010935442","0.94719999999999949","-0.28039998933169991","0.94720000000000004","SIDE","0.70941127497068479","0.63617480179513874","-0.30334347612134865","3.9124801923645576e-17","65.426384477979639","151.62124132155211","50.893797139592543","0.007429311","0.000036555","222"
"223","instanttomatosoup","0.0","0.03060001566112289","0.94719999999999815","-0.76639999611731513","0.94719999999999815","-0.34639998920690518","0.94720000000000459","SIDE","0.50359504024188972","-0.64531829319750622","-0.27631209049224759","0.50359504024189017","149.65295150842903","-77.328774420716115","9.3957756334088742","0.002284961","0.000013367","223"
"224","instanttomatosoup","0.0","0.28460002120621891","0.94719999999999849","-0.22839998686182941","0.94719999999999815","-0.5603999928521004","1.4642000082580351","SIDE","2.4149796248645546e-16","0.28591682143825198","0.66537480797126491","0.68958533636950914","-73.536731828729287","-133.52118516371729","131.5082636323028","0.010141890","0.000060008","224"
"225","instanttomatosoup","1.0469999999999999","-0.19199998813216079","1.0490000000949951","-0.26999999183695578","1.0469999999999999","-0.55999999583233551","1.464000006767926","SIDE","2.4149796248645546e-16","0.28591682143825198","0.66537480797126491","0.68958533636950914","-73.536731828729287","-133.52118516371726","131.5082636323028","0.009864340","0.000038810","225"
"226","instanttomatosoup","0.0","0.097600018843467376","0.94719999999999405","-0.66039999434221153","0.96120000066496358","-0.45839999126699299","0.94719999999999949","SIDE","0.46965419187268831","0.68917466142713502","0.2896345389618053","0.46965419187268842","-165.47067273698349","58.921080821309872","144.59723344972451","0.008757204","0.000055266","226"
"227","instanttomatosoup","0.0","-0.50739999033474081","0.94719999999999638","-0.34639998920690168","0.94719999999999938","-0.34239998901691421","0.94719999999999949","SIDE","-5.45863178721753e-17","0.072455850170995165","0.15557556877762585","0.98516312972802456","-40.984952589286131","-67.54690712421926","-86.107615603464183","0.007536254","0.000084442","227"
"228","instanttomatosoup","1.0469999999999999","-0.78500000000000103","1.046999999999999","-0.36899999327957561","1.0469999999999999","-0.39699999134987107","1.046999999999999","SIDE","0.70941127497068479","0.63617480179513874","-0.30334347612134865","3.9124801923645576e-17","106.35652765250865","237.46032398271208","50.272916419897975","0.008699128","0.000021673","228"
"229","instanttomatosoup","0.0","-0.98540000000000028","1.5707963267948959","-0.36539999010935398","0.94719999999999938","-0.28139998937919669","0.94719999999999938","SIDE","3.5161657974200014e-16","0.30721638178824978","0.63316854389905597","0.71043345204015107","-79.071845395060677","-147.52360829860308","50.560814445522155","0.005185643","0.000019912","229"
"230","instanttomatosoup","1.0469999999999999","-0.26899999178945888","1.046999999999997","-0.38599999082739422","1.0469999999999999","-0.37199999342207052","1.046999999999999","SIDE","0.68550944701192063","0.67493258003717604","-0.27302529271437792","-3.6440078489000944e-16","61.607273417746185","160.71150984705551","134.10548305514092","0.004117898","0.000002545","230"
"231","instanttomatosoup","0.0","1.032600030657274","1.570796326794897","-0.29839998692702702","0.94719999999999938","-0.37239999044183708","0.94719999999999938","SIDE","0.68532087247354911","0.67481573770190206","-0.27378645310155691","-8.1000234285729176e-17","66.511750986634638","159.25728221580093","134.20163339974468","0.000092607","0.000000031","231"
"232","instanttomatosoup","0.0","-0.80539999471008206","0.94719999999999949","-0.52639999123718539","0.94719999999999549","-0.6073999918248576","0.94719999999999949","SIDE","-0.49978568167356352","0.65185421983767344","0.27479923738613377","-0.4997856816735638","159.57965476144187","-59.289479609985548","86.585150278456496","0.010936766","0.000063342","232"
"233","instanttomatosoup","0.0","0.01860001509114978","0.94719999999999938","-0.7683999962123137","0.94719999999999949","-0.35539998963437452","0.94719999999999938","SIDE","0.51005417352976334","-0.27528129257869061","0.63553889738232783","-0.51005417352976368","-162.90943987938533","78.822430281744175","5.2889385625569716","0.002842274","0.000013661","233"
"234","instanttomatosoup","0.0","0.13260001724623241","0.94719999999999938","-0.35239998949188422","0.94719999999999949","-0.32039998797196523","0.94719999999999971","SIDE","2.6921207885563529e-16","-0.27861132105453151","-0.63366549687324125","0.72169506708348585","65.712016479478052","160.80533008402531","6.3093796815221186","0.000015611","0.000006009","234"
"235","instanttomatosoup","1.0469999999999999","-0.67199999789241971","1.0860000018524001","-0.78499999999999981","1.068000000997448","-0.43299999305979198","1.0469999999999999","SIDE","0.50085044476196794","0.27958066742173154","-0.64817614455292694","-0.50085044476196827","150.22684618815109","-54.180833820470568","65.938625332970545","0.017387651","0.000390909","235"
"236","instanttomatosoup","1.0469999999999979","-0.6719999978924196","1.0860000018524041","-0.78500000000000114","1.0680000009974451","-0.43299999305978382","1.0469999999999999","SIDE","0.50085044476196783","0.27958066742173143","-0.64817614455292694","-0.50085044476196827","150.22684618815106","-54.180833820470568","65.938625332970545","0.017387651","0.000390909","236"
"237","instanttomatosoup","1.0469999999999999","-0.78500000000000036","1.046999999999999","-0.30399999019223778","1.0469999999999999","-0.35499999261461229","1.0469999999999999","SIDE","0.72169506708348585","0.63366549687324125","-0.27861132105453157","-3.4612981567153116e-16","101.05250510928136","241.18271102671278","2.6458786106573786","0.000005948","0.000012524","237"
"238","instanttomatosoup","1.0469999999999999","-0.27999999231193412","1.0469999999999999","-0.71899999686516702","1.0469999999999999","-0.78500000000000081","1.0469999999999999","SIDE","0.70640919282432335","0.27594115396839586","0.65179945676555906","3.929107364055982e-17","-209.12752030834514","125.91862685606756","52.103873521426607","0.000029862","0.000049006","238"
"239","instanttomatosoup","0.0","-0.54139999194964961","1.4852000092554849","0.0096000179233128105","1.140200005907368","-0.98540000000000016","1.0122000030873359","SIDE","0.4995067305385944","0.65601167703212893","0.26577195467314074","0.49950673053859435","-136.74680302231201","95.276044316830095","51.94886609933021","0.014870245","0.000238850","239"
"240","instanttomatosoup","1.046999999999999","-0.28199999240692758","1.046999999999999","-0.55599999564234237","1.0469999999999999","-0.78500000000000103","1.159000002060083","SIDE","-0.49802557320257657","-0.23272411390080558","0.67065680022018326","-0.49802557320257679","68.952495837826007","157.47856984969883","87.44170714775035","0.005450633","0.000080124","240"
"241","instanttomatosoup","0.0","-0.086399983376820699","0.94719999999999704","-0.60239999158736446","1.2842000062277621","-0.98540000000000016","0.97220000118743777","SIDE","0.71257420590496434","-0.25761410986365124","-0.65258943561635163","-7.7902274277187809e-17","153.35769815096518","-31.849815626623791","84.211077357914377","0.008828766","0.000130194","241"
"242","instanttomatosoup","0.0","0.25560001982878422","0.94719999999999882","-0.74439999507237176","1.4082000088578079","-0.98539999999999994","1.1692000040251751","SIDE","2.7434978908080261e-16","-0.65518966978218129","0.26307338619228904","0.70817998424697026","125.25649349888535","-94.182243234033137","51.244750546417933","0.012526891","0.000190521","242"
"243","instanttomatosoup","1.0469999999999999","-0.29299998966976409","1.0469999999999919","-0.41099999201484322","1.0469999999999999","-0.36699999318458248","1.0469999999999999","SIDE","0.99898798810412281","0.034548644758049071","-0.028799145283484526","-2.778369304350034e-16","19.807219001469353","48.070540901425147","-98.905823589556803","0.007741408","0.000053766","243"
"244","instanttomatosoup","1.0469999999999979","-0.28699998938478288","1.0469999999999959","-0.43099999296478703","1.0469999999999999","-0.75699999867007595","1.0469999999999999","SIDE","0.70498733047755968","-0.0080329365331520738","0.076949331789841938","0.70498733047755924","-24.720169169169193","-1.978802631771746","-187.92795939303588","0.009111704","0.000019700","244"
"245","instanttomatosoup","1.0469999999999999","-0.24599999069701531","1.046999999999999","-0.54499999511987718","1.046999999999999","-0.78500000000000103","1.0469999999999999","SIDE","2.3517270271234724e-16","-0.65469035575516732","0.26444050624472742","0.7081325841522933","197.47043150908598","-123.6495509287643","31.037273887638118","0.000090686","0.000045460","245"
"246","instanttomatosoup","0.0","1.032600030657274","1.570796326794897","-0.37339999048933409","0.94720000000000115","-0.30039998702202469","0.94719999999999949","SIDE","0.0","-0.29805400703695517","-0.63835995818307401","0.70969033576463381","73.090284439030427","158.20674816829384","10.727993689197083","0.001019707","0.000000399","246"
"247","instanttomatosoup","0.0","-0.98540000000000016","1.458200007973053","-0.62239999253732081","1.5707963267948959","-0.78239999687727624","1.5707963267948959","SIDE","0.50434313679222209","-0.2789544496565165","0.64300887688895403","-0.50434313679222209","-150.54435621082942","50.695175156714015","84.089135287812809","0.004921741","0.000080700","247"
"248","instanttomatosoup","0.0","-0.50239999009724678","0.94719999999999782","-0.98539999999999994","0.94720000000000004","-0.3053999872595079","0.94719999999999949","SIDE","0.75157475088969616","-0.29823809009186092","-0.58837864971755238","1.4771957457470481e-16","185.43638069623282","-77.816666447640515","-13.478631250252569","0.000016093","0.000033655","248"
"249","instanttomatosoup","0.0","-0.52339999109469393","0.94719999999999427","-0.79439999418761298","0.94719999999999949","-0.73439999459739835","0.94720000000000426","SIDE","0.7060746427601764","0.27263090049368699","0.65355259233445817","-1.5723876165345482e-16","-164.55493566464429","82.611934484721587","66.914390153181017","0.011751999","0.000106381","249"
"250","instanttomatosoup","0.0","0.16960001900363539","0.94719999999999827","-0.39439998822715172","0.94719999999999949","-0.69439999269749819","0.94719999999999949","SIDE","0.50663351015412805","0.28235254596743309","-0.63790439139695754","-0.50663351015412794","148.84221376424244","-74.737634060401575","122.28917472264844","0.006656345","0.000019515","250"
"251","instanttomatosoup","1.0469999999999999","-0.26999999183696122","1.046999999999997","-0.54499999511986763","1.046999999999997","-0.78500000000000136","1.0469999999999999","SIDE","2.3517270271234724e-16","-0.65469035575516732","0.26444050624472742","0.7081325841522933","198.60255956150013","-120.8466867646503","31.037273887638115","0.000024867","0.000030923","251"
"252","instanttomatosoup","1.0469999999999999","-0.78500000000000103","1.0469999999999999","-0.63699999623001691","1.046999999999999","-0.5449999951198703","1.0469999999999999","SIDE","0.50219560201662505","0.64088941855992332","0.29130723953970478","0.50219560201662472","-228.94254594025054","77.556090367813667","29.756765649776792","0.000030045","0.000072927","252"
"253","instanttomatosoup","0.0","-0.98540000000000016","1.42920000985526","-0.64839999377224378","1.5707963267948959","-0.81639999523255968","1.570796326794897","SIDE","-0.49978568167356346","0.65185421983767344","0.27479923738613377","-0.4997856816735638","136.50661133511684","-49.90106594099565","86.563800177109115","0.003518257","0.000117613","253"
"254","instanttomatosoup","1.0469999999999999","-0.52999999440740708","1.046999999999999","-0.39399999120738038","1.0469999999999999","-0.38099999384954658","1.0469999999999999","SIDE","-5.45863178721753e-17","0.072455850170995179","0.15557556877762591","0.98516312972802456","-40.656600741039149","-66.841877434694581","-83.943102064393301","0.011046656","0.000103464","254"
"255","instanttomatosoup","0.0","-0.27839998923670478","0.9471999999999986","-0.47939999226443197","0.94719999999999993","-0.98540000000000028","1.570796326794897","SIDE","0.50389050460422602","0.65759377656413909","0.24445683415177757","-0.50389050460422669","68.202422254993962","161.84500542925852","29.639102377090015","0.003840631","0.000038190","255"
"256","instanttomatosoup","0.0","-0.98539999999999994","1.570796326794897","-0.549399992329626","1.5707963267948959","-0.93939999781512218","1.570796326794897","SIDE","0.5000645479694219","0.27604787531088804","-0.65089819961697504","-0.50006454796942212","125.30029630507516","-68.014169092417674","51.640562585235187","0.000032205","0.000041073","256"
"257","instanttomatosoup","0.0","-0.80139999452010935","0.94719999999999827","-0.52239999104719681","0.94719999999999938","-0.55439999256711492","0.94719999999999938","SIDE","0.49317005284956772","-0.28881911232977459","0.65585830657067246","-0.49317005284956783","-171.35371973828572","58.10636421042625","110.72412194808614","0.005150791","0.000025151","257"
"258","instanttomatosoup","0.0","-0.0053999827891588166","0.94719999999999949","-0.79639999428261254","0.9471999999999986","-0.73039999440741143","0.94720000000000026","SIDE","2.7376488934943582e-16","-0.65351369425723904","0.26316473552824982","0.70969301348724168","145.4360474420273","-99.155997752503154","65.260738043854786","0.008998636","0.000059424","258"
"259","instanttomatosoup","0.0","-0.70139999302998834","0.94719999999999949","-0.39739998836963419","0.94719999999999949","-0.70139999302998912","0.94719999999999938","SIDE","0.50006454796942179","0.27604787531088792","-0.65089819961697515","-0.50006454796942212","148.39350388602602","-77.352896106997576","51.634130610417778","0.005189437","0.000045475","259"
"260","instanttomatosoup","0.0","-0.69939999293499544","0.94720000000000093","-0.39239998813214372","0.94719999999999882","-0.65839999424722462","0.94720000000000149","SIDE","0.50072535223323955","0.27594831494586192","-0.64992366531796275","-0.50072535223323988","148.09016984815227","-77.180901524425579","31.220746908275476","0.005515456","0.000043233","260"
"261","instanttomatosoup","0.0","-0.70839999336246229","0.94719999999999249","-0.40639998879712169","0.94719999999999971","-0.66439999453220733","0.94719999999999993","SIDE","0.49796531032775487","0.65413964476004538","0.27597540574037988","0.49796531032775471","-161.93579363706064","79.993015465324774","32.945690198686648","0.011639037","0.000065474","261"
"262","instanttomatosoup","0.0","-0.98539999999999961","1.570796326794897","-0.3573999897293707","0.98920000199488989","-0.34739998925439719","0.94719999999999938","SIDE","0.70850485680584829","-0.61869670777866603","0.33946318160643629","0.0","-95.72649932212714","-152.25521318843252","85.93497876730936","0.004983823","0.000077731","262"
"263","instanttomatosoup","1.046999999999999","-0.37199999342207041","1.0469999999999999","-0.49599999279250662","1.0469999999999999","-0.34499999213963639","1.0469999999999999","TOP","0.014685148563321511","0.94337119234656441","0.33108833605847199","0.014685148563321537","-31.450119473218962","-16.75752717860534","235.42771505061279","0.011852761","0.000110818","263"
"264","instanttomatosoup","1.0469999999999999","-0.69799999586771877","1.0469999999999871","-0.78500000000000036","1.0469999999999999","-0.49699999284000201","1.0469999999999999","SIDE","0.49927016791958978","-0.26935231140166205","0.65491062840182357","-0.49927016791958961","-216.59804723056374","104.32183287259323","67.078890934452104","0.020234105","0.000182951","264"
"265","instanttomatosoup","0.0","-0.98540000000000016","0.94719999999999915","-0.88039999827239634","0.94719999999999949","-0.35039998939689088","0.94719999999999949","SIDE","0.52371137412167279","0.59770734646226675","0.30691810180602674","0.52371137412167279","-216.62550618974706","40.654782184110076","12.771254440394729","0.007627452","0.000073422","265"
"266","instanttomatosoup","0.0","-0.70039999298248401","0.94719999999999061","-0.39839998841712948","0.9472000000000016","-0.69839999288749011","0.94719999999999971","SIDE","0.50138887597217507","0.64795757625812545","0.27815349983851262","0.50138887597217496","-160.9749466711279","78.567083582880429","50.811710671209376","0.004831395","0.000042747","266"
"267","instanttomatosoup","1.046999999999999","-0.78500000000000103","1.046999999999999","-0.31099999052471872","1.0469999999999999","-0.44799999377224392","1.0469999999999999","SIDE","0.70941127497068479","0.63617480179513874","-0.30334347612134865","3.9124801923645576e-17","111.77744071952576","234.65393308668308","50.274222162801543","0.009004468","0.000039821","267"
"268","instanttomatosoup","0.0","0.25560001982878872","0.94719999999999727","-0.36239998996686051","0.94719999999999949","-0.32339998811446152","0.94719999999999971","SIDE","0.99898798810412281","0.034548644758049071","-0.028799145283484526","-2.778369304350034e-16","19.611583049491106","47.835847929104219","-95.519580842390795","0.009399768","0.000072667","268"
"269","instanttomatosoup","0.0","-0.63739999324978758","0.94719999999999938","-0.96739999914504859","0.94719999999999949","-0.58239999389704389","0.94719999999999938","SIDE","3.9080700139021693e-17","0.65916257834168479","-0.24719192936716605","0.71021183133603183","-182.66723017388543","52.827025544388121","50.216125898602911","0.007800206","0.000057733","269"
"270","instanttomatosoup","1.0469999999999999","-0.35399999256711462","1.0469999999999999","-0.50999999345745184","1.0469999999999999","-0.36199999294709589","1.0469999999999999","TOP","-0.024890227665427506","-0.35467076835732558","0.9343284214912605","0.024890227665427603","20.70569959284272","18.015825509822626","234.97532539548274","0.013392460","0.000112171","270"
"271","instanttomatosoup","0.0","-0.25939998833424882","0.94719999999999949","-0.58139999384954688","0.94719999999999938","-0.93839999776761618","0.94719999999999949","SIDE","1.1841223633199807e-16","0.67168943081238375","-0.23313530043171765","0.70319360081527238","-187.16140809373653","35.19389411667472","88.26029096598441","0.011071378","0.000058785","271"
"272","instanttomatosoup","1.0469999999999999","-0.67699999812990663","1.0469999999999999","-0.78500000000000014","1.0469999999999999","-0.48999999250751158","1.0469999999999999","SIDE","0.49878628394672025","0.64932001279450724","0.28426749177101568","0.49878628394672037","-230.91521291920628","74.041135883680752","67.506897197547602","0.000000066","0.000057062","272"
"273","instanttomatosoup","1.0469999999999999","-0.78500000000000081","1.0469999999999999","-0.30199999009724321","1.0469999999999999","-0.44899999381974559","1.0469999999999999","SIDE","3.5161657974200014e-16","0.30721638178824978","0.63316854389905597","0.71043345204015096","-126.41896095833476","-231.24944815712297","49.655401996507287","0.001238556","0.000011643","273"
