ipa320/cob_manipulation/cob_grasp_generation/common/files/database/instanttomatosoup/instanttomatosoup.csv
"id","object","sdh_knuckle_joint","sdh_finger_12_joint","sdh_finger_13_joint","sdh_finger_22_joint","sdh_finger_23_joint","sdh_thumb_2_joint","sdh_thumb_3_joint","direction","qw","qx","qy","qz","pos-x","pos-y","pos-z","eps_l1","vol_l1"
"0","instanttomatosoup","0.0","1.032600030657274","1.570796326794897","-0.9063999962477014","0.94719999999999949","-0.23539998719431601","0.94719999999999938","TOP","0.2389451218832245","-0.4069187345669838","0.84866224195190088","-0.23894512188322437","-133.61038170383711","85.932053316181367","294.06853004708285","0.000039528","0.000000107","0"
"1","instanttomatosoup","0.0","-0.98540000000000028","0.94719999999999915","-0.78239999687727635","0.94719999999999949","-0.61039999196734274","0.94719999999999815","SIDE","0.70969301348724134","-0.2631647355282497","-0.65351369425723937","-1.1732780972118683e-16","180.67512452584887","-113.34649212548351","64.982334140513885","0.003549803","0.000034029","1"
"2","instanttomatosoup","0.0","-0.98540000000000016","1.2512000046603371","-0.79439999418762053","1.5352000116303699","-0.97739999962001956","1.415200009190285","SIDE","0.70403850665080625","0.23111769452526312","0.67150159525516395","-1.1827013161964158e-16","-161.87486800221694","25.969650032700304","52.861705480344554","0.024851154","0.000372696","2"
"3","instanttomatosoup","0.0","-0.86739999765493114","0.94719999999999815","-0.63739999324977392","0.94719999999999904","-0.8023999945675957","0.94720000000000459","SIDE","0.70403850665080614","0.2311176945252631","0.67150159525516373","-1.5769350882618872e-16","-185.42791968261031","34.076149022234873","53.077415177382072","0.010117454","0.000090317","3"
"4","instanttomatosoup","0.0","-0.87939999822489934","0.94719999999999827","-0.62339999258481027","0.94719999999999849","-0.80939999490008374","0.94719999999999993","SIDE","3.2202167677242846e-16","-0.67959605340497586","0.25038631900506481","0.68953309960543241","173.57343646063805","-35.88870836807989","59.769211843574524","0.008492994","0.000045812","4"
"5","instanttomatosoup","0.0","-0.68239999538715956","0.94719999999999882","-0.48439999250192167","0.94719999999999938","-0.96339999895505557","0.94719999999999949","SIDE","0.74063972805191958","0.20561904679254128","0.63966678890443063","-1.1242541237411136e-16","-196.26318757650859","34.109373517657303","14.857813437850311","0.000219825","0.000112389","5"
"6","instanttomatosoup","0.0","-0.9854000000000005","0.94720000000000026","-0.79839999437760489","0.94719999999999949","-0.66739999467470068","0.94720000000000026","SIDE","0.70365291686335751","0.22862527546492467","0.67275779892044085","-2.3666988326591795e-16","-210.67150994536513","42.002088131180884","68.284792675908449","0.011800690","0.000118294","6"
"7","instanttomatosoup","0.0","-0.65239999396223536","0.98820000194739244","-0.36839999025184311","1.065200002345071","-0.98540000000000016","0.94720000000000004","SIDE","0.74063972805191969","0.20561904679254131","0.63966678890443052","-1.4990054983214845e-16","-172.66033302219208","26.522303907002904","17.27643527907296","0.017089329","0.000161206","7"
"8","instanttomatosoup","0.0","-0.92439999710266274","1.111200004529951","-0.72139999397992594","1.4092000089053069","-0.98540000000000028","1.423200009570275","SIDE","3.2202167677242851e-16","-0.67959605340497586","0.25038631900506481","0.68953309960543241","150.22758651661289","-27.287302573797703","58.546424554966897","0.026527888","0.000357632","8"
"9","instanttomatosoup","0.0","-0.8433999965149932","0.94719999999999793","-0.7653999960698189","0.94719999999999938","-0.65839999424722462","0.94720000000000115","SIDE","0.7036529168633574","0.22862527546492462","0.67275779892044085","-1.9722490272159828e-16","-234.25569948525248","50.016773117109061","68.527544242326769","0.000034515","0.000075632","9"
"10","instanttomatosoup","0.0","-0.98540000000000016","0.94719999999999915","-0.78639999380763714","0.94719999999999971","-0.65739999419972694","0.94720000000000126","SIDE","1.1771147326819763e-16","-0.65700674974162521","0.26068342494703173","0.70737987160494664","206.70942929663246","-53.366207267964995","66.292041966997317","0.012262986","0.000107250","10"
"11","instanttomatosoup","0.0","-0.64239999348726717","0.94719999999999949","-0.42639998974706889","0.94719999999999949","-0.98540000000000016","0.94720000000000115","SIDE","7.8418216165645946e-17","0.65399628051466363","-0.26680777140466155","0.70788592173531972","-206.36133846704368","98.446078678335823","105.9961567178765","0.012918685","0.000115493","11"
"12","instanttomatosoup","0.0","-0.67639999510217474","0.94719999999999949","-0.47839999221693658","0.94719999999999938","-0.98540000000000016","0.94720000000000037","SIDE","0.71021183133603205","0.24719192936716611","0.65916257834168468","-1.5632280055608675e-16","-209.71665277077034","62.469454126796421","29.961845044500265","0.009571943","0.000052509","12"
"13","instanttomatosoup","0.0","-0.68739999236502181","0.94719999999999438","-0.47239999193195109","0.94719999999999949","-0.98540000000000016","0.94720000000000004","SIDE","3.5154530765233527e-16","-0.65338635828678504","0.26108601026333528","0.71057748490189754","194.18082387832462","-63.751340654433342","29.764579902664526","0.012539896","0.000086421","13"
"14","instanttomatosoup","0.0","-0.30839998740199398","0.94719999999999616","-0.98540000000000016","0.94720000000000026","-0.26439998857173969","0.94719999999999993","SIDE","0.50073162053908338","-0.66691899116741182","-0.23185070110924319","-0.50073162053908404","-117.84122482465264","-227.52772773805489","11.067491752268804","0.000009657","0.000023803","14"
"15","instanttomatosoup","0.0","-0.98540000000000028","0.94719999999999904","-0.9383999977676164","0.94719999999999938","-0.50939999042974171","0.94719999999999949","SIDE","0.7031936008152726","0.23313530043171782","0.67168943081238353","-3.9470745443999346e-17","-225.12710965616913","48.371331238404977","88.703888879696677","0.000063023","0.000057444","15"
"16","instanttomatosoup","0.0","-0.98540000000000016","0.94719999999999971","-0.89339999563023842","0.94719999999999971","-0.52639999123718562","0.94719999999999949","SIDE","0.71571946495922034","-0.26646651377099689","-0.64555498953785373","-3.8779964741087973e-17","184.60288645128605","-116.86753291894982","46.648320784174174","0.001119804","0.000063209","16"
"17","instanttomatosoup","0.0","-0.81339999509006411","0.94719999999999915","-0.5813999938495451","0.94720000000000115","-0.89639999577273111","0.94719999999999938","SIDE","0.70974823573338264","-0.26392900105291467","-0.6531454082182323","-1.9553113497315766e-16","157.66481147579259","-80.984899236734137","85.202406878623009","0.012552047","0.000109824","17"
"18","instanttomatosoup","0.0","-0.86339999746494123","0.94719999999999915","-0.64439999358225475","0.94720000000000115","-0.83939999632499573","0.94719999999999949","SIDE","0.71021183133603205","0.24719192936716611","0.65916257834168468","-1.9540350069510843e-16","-180.88827913280704","52.159902812388701","50.232849109186354","0.007989503","0.000048194","18"
"19","instanttomatosoup","0.0","-0.98540000000000016","1.276200005847774","-0.77139999635480305","1.472200008638014","-0.96739999914505115","1.268200005467794","SIDE","0.71021183133603205","0.24719192936716608","0.65916257834168468","-1.5632280055608675e-16","-157.56529214834038","43.413571723934147","50.452099225503964","0.022620168","0.000402277","19"
"20","instanttomatosoup","0.0","-0.98540000000000016","0.94719999999999938","-0.89839999586771935","0.94719999999999938","-0.52739999128468018","0.94719999999999949","SIDE","1.5716429456223936e-16","0.65179945676555939","-0.2759411539683958","0.70640919282432324","-197.2390332130216","120.88560202922609","52.078413650256699","0.000551169","0.000067478","20"
"21","instanttomatosoup","0.0","-0.86739999765492959","0.94719999999999849","-0.63639999320227036","0.94720000000000093","-0.84139999642000018","0.94720000000000426","SIDE","2.7549340870981695e-16","-0.65765421590130635","0.2648153678175178","0.70524020962712464","167.47516708817045","-53.890423895833102","52.547163743349216","0.010104263","0.000053163","21"
"22","instanttomatosoup","0.0","-0.81739999528006102","0.9472000000000016","-0.57939999375455142","0.9471999999999986","-0.90039999596271558","0.94719999999999971","SIDE","1.9704842602412317e-16","0.65553400850657584","-0.27250773613270857","0.70428310886966949","-169.93060523060132","84.692681736481717","87.769456578309814","0.007933106","0.000047256","22"
"23","instanttomatosoup","0.0","-0.98540000000000016","1.235200007160012","-0.73739999473988882","1.4272000097602611","-0.96739999914504626","1.2652000053252981","SIDE","2.3613720746555733e-16","-0.65765421590130646","0.2648153678175178","0.70524020962712441","144.45192674490104","-44.619734660611961","52.416300455915668","0.022549947","0.000390099","23"
"24","instanttomatosoup","0.0","-0.9203999969126706","1.2182000063525591","-0.64139999343976994","1.4102000089528051","-0.9853999999999995","1.1842000047376371","SIDE","2.3645811122894786e-16","0.65553400850657584","-0.27250773613270851","0.70428310886966949","-146.92963143186685","75.131098023959609","87.570908804726969","0.021053210","0.000333645","24"
"25","instanttomatosoup","0.0","-0.92239999700766029","1.2452000076349821","-0.63839999329727237","1.406200008762815","-0.98539999999999961","1.1562000034077069","SIDE","0.70974823573338264","-0.26392900105291467","-0.6531454082182323","-1.5642490797852615e-16","134.56981380198837","-71.652460259639284","85.388861124492792","0.025042984","0.000309493","25"
"26","instanttomatosoup","0.0","1.0326000306572729","1.570796326794897","-0.96739999914504671","0.94719999999999949","-0.22639998676683701","1.570796326794897","TOP","0.33791943203014829","0.31235982961700481","0.88782982282533052","-2.5009815982349109e-16","-63.400882435289382","61.230667233844976","203.78116577217909","0.003681654","0.000028806","26"
"27","instanttomatosoup","0.0","-0.65839999424722173","0.94719999999999793","-0.47839999221693702","0.94719999999999938","-0.98540000000000016","0.94719999999999938","SIDE","0.71021183133603194","0.247191929367166","0.65916257834168468","-1.5632280055608675e-16","-211.80843691309838","71.13064449516861","29.917836588059895","0.010387497","0.000057611","27"
"28","instanttomatosoup","0.0","-0.87839999817740289","0.94719999999999938","-0.76339999597482266","0.94719999999999949","-0.69539999274499875","0.94720000000000448","SIDE","0.70539032748312946","0.25813111310495546","0.66014605530930803","-3.9347825642381987e-17","-225.33659823527239","71.859779187893551","67.477851855550767","0.000043626","0.000042118","28"
"29","instanttomatosoup","0.0","-0.66439999453220666","0.94719999999999693","-0.47539999207444139","0.94719999999999938","-0.98540000000000016","0.94719999999999938","SIDE","3.5154530765233527e-16","-0.65338635828678504","0.26108601026333528","0.71057748490189754","196.59124620526984","-73.079669732519577","29.708487771800861","0.010086139","0.000051031","29"
"30","instanttomatosoup","0.0","-0.83139999594502434","1.469200008495519","-0.40539998874962269","1.4782000089230041","-0.98540000000000016","1.2612000051353089","SIDE","3.9386919488104946e-16","-0.66107549320087311","0.25766438287496923","0.70469018588801391","147.67625734360311","-29.095838574283643","32.616820962617766","0.001685142","0.000243863","30"
"31","instanttomatosoup","0.0","-0.84039999637250307","0.94719999999999516","-0.75639999564233895","0.94719999999999827","-0.68639999231753068","0.94719999999999938","SIDE","2.35113965921e-16","-0.65602313303929327","0.26063636139415897","0.70830949170297242","215.43576842737889","-72.07872537496975","65.709797322037971","0.000274317","0.000069019","31"
"32","instanttomatosoup","0.0","-0.98539999999999994","0.94719999999999849","-0.79639999428260289","0.94719999999999938","-0.70239999307749501","0.94720000000000026","SIDE","2.7429962690783329e-16","-0.65602313303929316","0.26063636139415897","0.7083094917029723","192.28603796609934","-62.881394959607775","65.794607703377494","0.007987802","0.000085676","32"
"33","instanttomatosoup","0.0","-0.84339999651499176","0.94719999999999405","-0.64139999343976384","0.94719999999999915","-0.86439999751244334","0.94720000000000415","SIDE","0.70907094842285201","0.26149097014673589","0.65485942203990322","-1.5657432124310906e-16","-177.04066738057244","61.793316097771282","50.763310655977058","0.010865031","0.000093347","33"
"34","instanttomatosoup","0.0","-0.83739999623001116","0.94719999999999616","-0.63839999329727204","0.94719999999999915","-0.86839999770242793","0.94720000000000004","SIDE","2.754934087098169e-16","-0.65765421590130635","0.2648153678175178","0.70524020962712464","165.17044989353735","-60.952656135419126","52.549799990238895","0.010165714","0.000095601","34"
"35","instanttomatosoup","0.0","-0.98539999999999994","0.94720000000000026","-0.79939999442510168","0.94719999999999938","-0.71139999350495797","0.94719999999999949","SIDE","0.71067785244153925","-0.26366252564558962","-0.65224156768736441","-1.5622029317657459e-16","177.44005796793371","-89.057082383888314","64.545352330754412","0.007995082","0.000058983","35"
"36","instanttomatosoup","0.0","-0.98540000000000016","1.3252000081751469","-0.76439999602232411","1.4662000083530331","-0.98039999976251191","1.226200006732528","SIDE","0.70907094842285212","0.26149097014673595","0.65485942203990311","-1.5657432124310906e-16","-153.90715932956317","52.555908404510461","50.901890461059772","0.019984534","0.000326951","36"
"37","instanttomatosoup","0.0","-0.96439999900255347","1.2662000053727971","-0.73139999445490345","1.3922000080978569","-0.98540000000000016","1.2222000065425369","SIDE","2.3613720746555738e-16","-0.65765421590130646","0.26481536781751785","0.70524020962712453","142.06372479479271","-51.648350380005809","52.418462178394826","0.022199818","0.000321058","37"
"38","instanttomatosoup","0.0","-0.85239999694247159","0.94719999999999971","-0.75739999568983907","0.94719999999999938","-0.6963999927924982","0.94719999999999915","SIDE","1.5723876165345487e-16","0.6535525923344585","-0.27263090049368688","0.70607464276017629","-214.02311765007175","103.24769533802993","67.070751952846848","0.000015223","0.000057385","38"
"39","instanttomatosoup","0.0","0.0026000175908235672","0.94719999999999782","-0.98540000000000016","0.94720000000000004","-0.55739999270961083","0.94719999999999971","SIDE","0.70298767340605639","0.28029557031304986","0.6536380682778673","0.0","-166.85047228683487","115.5366337335619","88.480613790264556","0.005396329","0.000029846","39"
"40","instanttomatosoup","0.0","-0.87639999808240976","0.94719999999999949","-0.75839999573734151","0.94719999999999949","-0.70439999317247104","0.94719999999999949","SIDE","0.71067785244153925","-0.26366252564558967","-0.65224156768736441","-1.9527536647071824e-16","200.53330374320421","-98.392310017494822","64.293113174999746","0.001717550","0.000047912","40"
"41","instanttomatosoup","0.0","-0.98539999999999994","0.94719999999999949","-0.79439999418761742","0.94720000000000126","-0.70639999326747394","0.94720000000000448","SIDE","0.70539032748312958","0.25813111310495546","0.66014605530930792","-3.9347825642381987e-17","-202.13738504379137","62.788394641832248","67.357063968349337","0.007301093","0.000044109","41"
"42","instanttomatosoup","0.0","-0.071399985923992493","0.94719999999999938","-0.88339999841488959","0.94719999999999949","-0.55539999261460959","0.94719999999999949","SIDE","3.1378133986484471e-16","-0.65520243435469261","0.2644876128720785","0.70764120333182556","191.00648027819079","-121.59380655641149","86.126599354571695","0.004171801","0.000021964","42"
"43","instanttomatosoup","0.0","-0.79239999409262496","0.94719999999999915","-0.80139999452009603","0.94719999999999971","-0.73039999440740888","0.94719999999999949","SIDE","7.8695651284763999e-17","0.66014605530930837","-0.25813111310495529","0.70539032748312924","-173.60542967626151","59.172103360263456","67.221826140761777","0.007201788","0.000032226","43"
"44","instanttomatosoup","0.0","-0.91539999667517691","0.94719999999999849","-0.77939999673478233","0.94720000000000037","-0.72139999397993448","0.94719999999999993","SIDE","2.35113965921e-16","-0.65602313303929327","0.26063636139415902","0.70830949170297219","203.67289189219306","-75.414815034922654","65.742822642097295","0.005704195","0.000045285","44"
"45","instanttomatosoup","0.0","-0.94439999805260721","1.5707963267948959","-0.2853999863095551","0.94719999999999949","-0.38939998798966519","1.000200002517367","SIDE","4.4404721574500941e-16","0.012609513048459807","-0.040054828636301595","0.99911791640606518","-8.6239220713409068","49.246341025883062","-99.318464358590305","0.002234009","0.000117819","45"
"46","instanttomatosoup","0.0","-0.98539999999999961","0.94720000000000004","-0.93739999772011939","0.94719999999999949","-0.55039999237712711","0.94720000000000149","SIDE","1.9634571830697289e-16","-0.65524294341291256","0.26661813497165843","0.70680368930263593","202.64130890267339","-76.811252307191765","86.624996373447289","0.003860030","0.000085483","46"
"47","instanttomatosoup","0.0","-0.98540000000000016","0.94720000000000026","-0.93239999748263835","0.94719999999999949","-0.54739999223463509","0.94719999999999949","SIDE","0.69436110130379913","0.25218827062715854","0.67399090287203312","-1.9986413095082934e-16","-217.70697906801041","65.090806966038315","93.706958486623478","0.000289695","0.000062060","47"
"48","instanttomatosoup","0.0","-0.92439999710265353","0.94719999999999394","-0.78339999692477358","0.94719999999999938","-0.72739999426491819","0.94719999999999949","SIDE","0.70539032748312958","0.25813111310495546","0.66014605530930792","0.0","-212.25526347749656","74.285008360899241","67.42305847252527","0.005763315","0.000049268","48"
"49","instanttomatosoup","0.0","-0.98540000000000016","0.94719999999999949","-0.93439999757763148","0.94719999999999949","-0.54539999213963919","0.94719999999999938","SIDE","2.3561486196836742e-16","-0.65524294341291245","0.26661813497165837","0.70680368930263593","205.77438730072549","-70.438006419802818","86.625424918262226","0.000159076","0.000084733","49"
"50","instanttomatosoup","0.0","-0.98540000000000016","0.94720000000000004","-0.93239999748263702","0.94719999999999949","-0.54939999232962855","0.94719999999999949","SIDE","0.71324890414134956","0.2574253542170411","0.65192652020560926","-1.1674287385990176e-16","-218.43229485235463","77.501994806184683","82.815431382356593","0.001543387","0.000055008","50"
"51","instanttomatosoup","0.0","-0.59339999115989772","0.94719999999999427","-0.58639999082741023","0.94719999999999971","-0.97339999943003108","0.94719999999999949","SIDE","0.7068036893026356","-0.26661813497165854","-0.65524294341291289","3.9269143661394596e-17","170.12278339664812","-55.931380690810833","86.592435540026486","0.009293359","0.000086451","51"
"52","instanttomatosoup","0.0","-0.98540000000000028","0.94720000000000037","-0.8953999957252281","0.94720000000000126","-0.59439999120739251","0.94720000000000115","SIDE","7.8287160621554593e-17","0.65485942203990377","-0.261490970146736","0.70907094842285145","-206.84262963520354","96.882441830749613","50.536943240744208","0.000053884","0.000092135","52"
"53","instanttomatosoup","0.0","-0.98540000000000016","0.94719999999999971","-0.79239999409261841","0.94719999999999949","-0.71539999369494822","0.9472000000000016","SIDE","1.5723876165345487e-16","0.6535525923344585","-0.27263090049368688","0.70607464276017629","-191.03333423656309","93.657456652277773","66.998084558085452","0.006603848","0.000039446","53"
"54","instanttomatosoup","0.0","-0.72139999397993682","0.94719999999999949","-0.58739999087490335","0.94720000000000126","-0.96039999881256366","0.94720000000000004","SIDE","3.8914291286633928e-17","0.65192652020560959","-0.2574253542170411","0.71324890414134934","-181.5217154620741","62.927163625972952","83.507942453731502","0.009447162","0.000056835","54"
"55","instanttomatosoup","0.0","-0.58439999399203735","1.245200007634983","-0.61639999225232378","1.323200008080162","-0.98540000000000028","0.95920000056997146","SIDE","0.7068036893026356","-0.26661813497165843","-0.65524294341291289","0.0","147.04973997032312","-46.542967021820822","86.57108543867912","0.012442751","0.000197431","55"
"56","instanttomatosoup","0.0","-0.71839999383744635","0.9471999999999986","-0.58739999087490824","0.94719999999999949","-0.97239999938253407","0.94719999999999938","SIDE","0.70680368930263571","-0.26661813497165837","-0.655242943412913","3.9269143661394602e-17","167.54545878902593","-62.530762610029754","86.592521248989769","0.009807580","0.000095714","56"
"57","instanttomatosoup","0.0","-0.98539999999999994","0.94720000000000037","-0.8933999956302382","0.94719999999999949","-0.5933999911598884","0.94719999999999938","SIDE","0.70719806580032762","-0.26505920624681084","-0.65544985537574585","-3.9247244807178957e-17","194.83022763951135","-96.131573129895557","51.621196944241269","0.000743040","0.000076989","57"
"58","instanttomatosoup","0.0","-0.054399985116538548","0.94719999999999849","-0.9854000000000005","0.94720000000000004","-0.55239999247211735","0.94720000000000026","SIDE","2.7455867238173911e-16","-0.65520243435469261","0.2644876128720785","0.70764120333182556","167.90752500759018","-112.26937914432858","86.164266894139757","0.008394049","0.000040908","58"
"59","instanttomatosoup","0.0","-0.60539999172985037","0.94719999999999938","-0.58239999389704322","0.94719999999999938","-0.94739999819509724","0.94719999999999938","SIDE","7.9945652380331752e-17","0.67399090287203334","-0.25218827062715837","0.69436110130379891","-179.9024989465079","50.94544324796059","92.264012720538076","0.009271329","0.000074979","59"
"60","instanttomatosoup","0.0","-0.78739999385515425","0.94719999999999938","-0.79039999399764271","0.94719999999999938","-0.74039999488237795","0.94719999999999882","SIDE","0.70830949170297186","-0.26063636139415908","-0.65602313303929383","-3.9185660986833358e-17","160.27295511889639","-58.172127947165187","65.901820829745262","0.008816768","0.000064140","60"
"61","instanttomatosoup","0.0","-0.65039999386724667","1.470200008543028","-0.69439999269750152","1.52820001129788","-0.98540000000000016","1.0642000022975711","SIDE","7.9945652380331752e-17","0.67399090287203334","-0.25218827062715837","0.6943611013037988","-156.58708441896454","42.221476732091197","91.374094949708407","0.013614760","0.000229893","61"
"62","instanttomatosoup","0.0","-0.92139999696016539","1.3842000077178771","-0.98539999999999994","1.4762000088280089","-0.92339999705516174","1.520200010917891","SIDE","7.8695651284763999e-17","0.66014605530930826","-0.25813111310495529","0.70539032748312946","-150.49003540036625","50.13349378847537","67.101474661021115","0.014759181","0.000285171","62"
"63","instanttomatosoup","0.0","0.30960002239366258","0.94719999999999815","-0.98539999999999994","1.4542000077830639","-0.91639999672268335","1.5052000102054359","SIDE","2.7425271167373873e-16","-0.65506837087425296","0.26270026766671384","0.70843065916714043","121.00920429962493","-92.606211157263402","65.934866824766701","0.010780837","0.000164585","63"
"64","instanttomatosoup","0.0","-0.029399983929098528","0.94719999999999405","-0.92839999729264477","0.94719999999999949","-0.56039999285209952","0.94720000000000126","SIDE","0.70298767340605639","0.28029557031304986","0.6536380682778673","0.0","-189.66002770849678","125.31791431647923","88.768939343047521","0.005427334","0.000024210","64"
"65","instanttomatosoup","0.0","-0.98540000000000016","0.94720000000000026","-0.79539999423511354","0.94719999999999915","-0.72939999435991398","0.94720000000000149","SIDE","2.3511396592099995e-16","-0.65602313303929316","0.26063636139415897","0.70830949170297242","180.52316143091352","-66.217484619560707","65.827633023437059","0.007052502","0.000041287","65"
"66","instanttomatosoup","0.0","-0.93839999776762417","1.411200009000301","-0.98540000000000028","1.4752000087805091","-0.94239999795761853","1.525200011155383","SIDE","0.70830949170297186","-0.26063636139415908","-0.65602313303929383","0.0","137.12322465761687","-48.974797531803119","65.986631211085026","0.013334956","0.000272816","66"
"67","instanttomatosoup","0.0","-0.80939999490007719","1.2772000058952719","-0.62239999253731182","1.33020000841264","-0.98540000000000016","0.96320000075995982","SIDE","0.7068036893026356","-0.26661813497165843","-0.65524294341291289","0.0","144.47241536270093","-53.142348941039764","86.571171147642602","0.015090886","0.000247601","67"
"68","instanttomatosoup","0.0","-0.83839999627750605","0.94719999999999949","-0.98540000000000016","0.97420000128243056","-0.63839999329727026","1.3802000075278791","SIDE","1.1743074093233188e-16","0.65485942203990366","-0.26149097014673595","0.70907094842285168","-155.95026303679154","53.371737195442464","50.889651378556522","0.010802451","0.000156973","68"
"69","instanttomatosoup","0.0","-0.7843999969722717","1.2012000055450991","-0.60039999149237833","1.260200005087815","-0.98540000000000028","0.98020000156742049","SIDE","3.8914291286633928e-17","0.65192652020560959","-0.2574253542170411","0.71324890414134934","-158.35611911390814","53.779795539620537","83.942572096806771","0.012672494","0.000200507","69"
"70","instanttomatosoup","0.0","0.33360002027395957","0.94719999999999849","-0.98540000000000028","1.4882000093979759","-0.93139999743514124","1.506200010252938","SIDE","0.70396703366220847","0.27858104137848094","0.65331693602822838","3.9427379818111131e-17","-130.30347769472124","100.042634228902","67.644939914617012","0.009725368","0.000153165","70"
"71","instanttomatosoup","0.0","1.032600030657268","1.5707963267948959","-0.53239999152217299","0.94719999999999971","-0.98539999999999994","1.3732000071953989","TOP","0.096680871547657324","0.82708979896687729","0.54518628247462453","-0.096680871547657324","20.452401368108521","72.675048682881396","243.98361076421119","0.000536658","0.000017835","71"
"72","instanttomatosoup","0.0","-0.13239998556170349","0.94719999999999938","-0.98540000000000016","0.94719999999999993","-0.55439999256711869","0.94720000000000115","SIDE","3.137813398648448e-16","-0.65520243435469261","0.26448761287207867","0.70764120333182556","173.08437180115794","-110.39805266441341","86.158067098491102","0.005388019","0.000038749","72"
"73","instanttomatosoup","0.0","-0.31639998778198031","0.94719999999999938","-0.98539999999999928","0.94719999999999949","-0.26339998852424318","0.94720000000000004","SIDE","0.51031547588361259","0.25106121541001036","-0.64507712427601371","0.51031547588361315","95.909072519404589","229.48463732547629","3.1790622629331984","0.000009411","0.000024814","73"
"74","instanttomatosoup","0.0","-0.84139999641999641","0.94719999999999827","-0.98540000000000016","0.97120000113993799","-0.63839999329727515","1.331200008460145","SIDE","0.7052402096271243","-0.26481536781751791","-0.65765421590130668","-3.9356201244259576e-17","144.00242645436921","-52.429000728860139","52.429481690362259","0.010606530","0.000190560","74"
"75","instanttomatosoup","0.0","-0.98539999999999994","0.94719999999999949","-0.79739999433010333","0.94719999999999949","-0.73039999440741388","0.94720000000000271","SIDE","0.70539032748312958","0.2581311131049554","0.66014605530930792","-3.9347825642381987e-17","-189.05605028601551","65.213623814837931","67.302270585323839","0.007419505","0.000041829","75"
"76","instanttomatosoup","0.0","-0.81439999513756878","1.5707963267948959","1.0986000337921089","1.5707963267948959","-0.40239998860713189","0.98920000199489233","SIDE","0.99999024006841952","-0.0040064385891631074","-0.0018623151548418924","-1.5265546172692635e-16","-5.6540959262090595","-39.48261658799985","-102.61167911093278","0.000487548","0.000046728","76"
"77","instanttomatosoup","0.0","-0.14539998617917391","0.94719999999999782","-0.98540000000000028","0.94720000000000026","-0.56439999304208965","0.94719999999999949","SIDE","0.70342588354870872","0.28040040423242413","0.65312145858179527","-2.3674626934913161e-16","-179.77189683120605","114.61806103242245","88.384452250810227","0.006150403","0.000042078","77"
"78","instanttomatosoup","0.0","-0.40439998870211979","0.94719999999999915","-0.98539999999999961","0.94720000000000026","-0.24639998771678659","0.9472000000000016","SIDE","0.50073162053908382","-0.66691899116741171","-0.23185070110924322","-0.50073162053908404","-122.73444565622346","-225.49236429994991","11.066613165244339","0.000021992","0.000020877","78"
"79","instanttomatosoup","1.772505210849788e-16","-0.57039999332707481","0.94719999999999815","-0.47239999193195142","0.94720000000000093","-0.98540000000000016","0.94719999999999971","SIDE","0.70422929545683799","0.26740249781305553","0.65769065949251893","-3.9412696680878203e-17","-206.3811106070973","98.063499821975213","33.335393305325333","0.002487624","0.000078016","79"
"80","instanttomatosoup","0.0","-0.56739999318458201","0.94719999999999793","-0.47339999197944832","0.94719999999999949","-0.98540000000000028","0.94719999999999993","SIDE","2.7436815316440513e-16","-0.65469035575516732","0.26444050624472742","0.7081325841522933","193.69988371310558","-95.603436266393047","31.077923077896376","0.006548030","0.000060499","80"
"81","instanttomatosoup","0.0","1.03260003065728","1.570796326794897","-0.89439999567772455","0.94719999999999793","-0.27839998923670672","0.94719999999999971","SIDE","-0.49999745422912822","-0.28292806736483395","0.64804073963446251","0.4999974542291285","174.0001333930048","-39.59375829996192","126.44962164175921","0.000023925","0.000000039","81"
"82","instanttomatosoup","0.0","-0.59639999130239563","1.498200009872952","-0.73839999478739027","1.4012000085253291","-0.98540000000000016","1.1662000038826841","SIDE","3.1397795845743146e-16","-0.65544985537574529","0.26505920624681067","0.70719806580032818","134.20012766127951","-71.613196868020523","51.63808378315138","0.016384967","0.000284983","82"
"83","instanttomatosoup","0.0","-0.53639999171216401","0.94719999999999938","-0.63939999334477549","0.94720000000000115","-0.90139999601021592","0.94719999999999938","SIDE","3.1397795845743146e-16","-0.65544985537574529","0.26505920624681067","0.70719806580032818","157.29333524222923","-80.951923882599758","51.631651808334176","0.009072579","0.000051113","83"
"84","instanttomatosoup","0.0","-0.61639999225232933","1.5312000114403621","-0.75839999573733596","1.4582000079730519","-0.98540000000000028","1.187200004880129","SIDE","0.70907094842285201","0.26149097014673595","0.65485942203990322","-1.5657432124310906e-16","-146.29245975220422","72.704240933931175","50.899665173003278","0.012228565","0.000215804","84"
"85","instanttomatosoup","0.0","-0.53639999171216091","0.94719999999999815","-0.6423999934872604","0.94719999999999815","-0.90339999610521249","0.94720000000000448","SIDE","0.70907094842285201","0.26149097014673589","0.65485942203990311","-1.5657432124310904e-16","-169.4259678032135","81.941648627191981","50.761085367920785","0.013042800","0.000085230","85"
"86","instanttomatosoup","0.0","1.0326000306572789","1.570796326794897","-0.89139999553524019","0.94719999999999849","-0.28139998937919852","0.94719999999999971","SIDE","0.48808856289778052","0.65705310372249393","0.30301869319465535","0.48808856289778041","-185.81941406197933","38.38029229379169","134.21583645886167","0.000001659","0.000000005","86"
"87","instanttomatosoup","0.0","1.032600030657272","1.5707963267948959","-0.98540000000000083","0.94719999999999938","-0.21739998633934751","0.9472000000000016","SIDE","0.49716883174381316","-0.27338034112400794","0.65643696923002826","-0.49716883174381316","-188.63387419185523","122.88987586015983","13.904743840967638","0.000055185","0.000000096","87"
"88","instanttomatosoup","0.0","1.0326000306572749","1.5707963267948959","-0.98539999999999983","0.94720000000000037","-0.24339998757429099","0.94720000000000493","SIDE","0.50052417608508493","-0.65007787125152705","-0.27631478356717792","0.50052417608508548","171.16593486701871","-112.82663990684495","11.273696815228295","0.000010849","0.000000027","88"
"89","instanttomatosoup","0.0","-0.98540000000000016","1.2642000052778071","-0.68039999529216422","1.54020001186785","-0.64539999362975808","1.534200011582856","SIDE","1.1837313467456585e-16","0.6531214585817956","-0.28040040423242402","0.70342588354870839","-135.20790994306631","95.485693272259113","87.88082568773666","0.002468699","0.000259523","89"
"90","instanttomatosoup","0.0","1.0326000306572769","1.5707963267948959","-0.98539999999999905","0.94720000000000004","-0.22339998662434529","0.94720000000000026","SIDE","0.70639118071233131","0.044793651911549645","0.0040655100668929725","-0.70639118071233142","25.348321175205513","54.717876045713581","-194.81619618287337","0.000017793","0.000000228","90"
"91","instanttomatosoup","0.0","-0.80639999475759183","1.5707963267948959","-0.32739998830445038","0.94719999999999949","-0.3503999893968911","0.94719999999999949","TOP","1.6839163656674879e-16","0.3000776654474126","0.94775823220059108","0.10820225503953802","-34.095047566696721","-59.397740344686781","228.31705335122163","0.010012863","0.000083894","91"
"92","instanttomatosoup","0.0","-0.52639999123718817","0.94719999999999638","-0.80039999447260379","0.94719999999999827","-0.72939999435991498","0.94719999999999949","SIDE","2.3433043976486179e-16","-0.65224156768736408","0.26366252564558956","0.71067785244153947","153.34557879483103","-79.317115556231016","64.808527596115667","0.003415183","0.000091262","92"
"93","instanttomatosoup","0.0","-0.98539999999999994","1.570796326794897","-0.31039998749699382","0.94719999999999938","-0.42339998960456848","1.100200004007476","TOP","-5.5193839603937741e-17","0.91146006808590119","-0.40987985729768511","-0.035200097535002001","21.353785974943069","17.724383719762827","245.05029695228882","0.003256753","0.000079341","93"
"94","instanttomatosoup","0.0","-0.98540000000000028","1.570796326794897","-0.30339998716451111","0.94719999999999949","-0.37739999067932428","0.94719999999999949","SIDE","0.99999910203181586","-0.00057062972641688803","0.0012125664011106427","-5.5511201078550247e-17","-6.3192274957637125","-18.77326666530346","-111.46283720666833","0.005204281","0.000016367","94"
"95","instanttomatosoup","0.0","0.089600018463461398","0.94719999999998861","-0.78339999692477358","0.94720000000000071","-0.74939999530986168","0.94719999999999949","SIDE","0.70396703366220836","0.27858104137848094","0.65331693602822838","3.9427379818111125e-17","-153.2163725241858","109.81292755910886","67.865663215665577","0.006408000","0.000033665","95"
"96","instanttomatosoup","0.0","1.0326000306572769","1.570796326794897","-0.98539999999999872","1.181200004595155","-0.037399984309076463","1.0332000040847811","SIDE","-0.49999745422912811","-0.28292806736483389","0.64804073963446251","0.49999745422912856","150.80981848570963","-30.498847941077184","126.44936798179538","0.006669096","0.000027418","96"
"97","instanttomatosoup","0.0","-0.40439998870212063","0.94719999999999882","-0.98539999999999994","0.94719999999999949","-0.24339998757429671","0.94720000000000182","SIDE","0.50182684896173024","0.2406326457335583","-0.66214466480486667","0.50182684896173035","106.25333901372744","229.23403057923178","10.154120448364406","0.000057864","0.000020624","97"
"98","instanttomatosoup","0.0","1.032600030657284","1.570796326794897","-0.98540000000000016","1.18220000464264","-0.048399984831558142","1.119200004909932","SIDE","0.48808856289778052","0.65705310372249393","0.30301869319465535","0.48808856289778041","-162.47375889163467","29.771388987643867","133.04311802174038","0.007411498","0.000038598","98"
"99","instanttomatosoup","0.0","-0.56339999299459276","0.94719999999999827","-0.88439999846238704","0.94719999999999971","-0.22739998681433779","0.94719999999999949","SIDE","0.70709987987274281","-0.0041498355694996733","0.0015161242201095768","0.70709987987274314","-5.2525474448685827","-40.34647645988526","-210.4174720785916","0.007077958","0.000016657","99"
"100","instanttomatosoup","0.0","-0.98540000000000016","1.570796326794897","-0.26239998847674489","0.94720000000000026","-0.46739999169446522","1.1502000031227231","TOP","0.02076793626371334","0.43294935968557818","0.9011789748830108","-8.2772802679607827e-17","-31.846890789044902","-16.566908120776876","246.01857167363585","0.005737097","0.000094690","100"
"101","instanttomatosoup","0.0","1.0326000306572789","1.570796326794897","-0.75439999554734649","1.570796326794897","-0.22439998667184249","0.94719999999999949","SIDE","0.0","-0.29805400703695512","-0.63835995818307412","0.70969033576463381","62.590131399926669","135.71794715671399","10.909694588919139","0.000338276","0.000004434","101"
"102","instanttomatosoup","0.0","1.03260003065728","1.5707963267948959","-0.91439999662767046","0.94719999999999827","-0.27739998918920911","0.94719999999999949","SIDE","0.4971688317438131","-0.27338034112400811","0.65643696923002814","-0.4971688317438131","-197.65617694270611","118.86649262612858","13.981646516280977","0.000263537","0.000000435","102"
"103","instanttomatosoup","0.0","1.0326000306572789","1.5707963267948959","-0.74339999502486653","0.94719999999999915","-0.38439999101180661","0.94719999999999949","SIDE","0.50097608876363375","0.27809171281584599","-0.64862232172299772","-0.50097608876363431","161.31260085131771","-51.597887388048498","125.82770427745361","0.000145455","0.000000863","103"
"104","instanttomatosoup","0.0","1.0326000306572769","1.570796326794897","-0.77839999668728532","0.94720000000000115","-0.35639998968187742","0.94720000000000026","SIDE","0.47707963646472634","0.66787705306495149","0.31421375356697062","0.47707963646472634","-177.17420329814291","44.791797753118708","140.75386945646096","0.000083523","0.000000181","104"
"105","instanttomatosoup","0.0","-0.78039999678228189","0.94719999999999938","-0.96939999924004139","0.94719999999999949","-0.5873999908749038","0.94719999999999938","SIDE","1.1743074093233188e-16","0.65485942203990355","-0.26149097014673595","0.70907094842285168","-179.08377108780104","62.609144888703405","50.751071573473808","0.005667369","0.000056553","105"
"106","instanttomatosoup","0.0","-0.98540000000000028","1.5707963267948959","-0.33739998877942229","0.94719999999999849","-0.33039998844694363","0.94719999999999971","SIDE","0.70539837284702211","-0.64316255089007246","0.29791788922008128","3.9347376863950036e-17","-79.132787667881772","-152.93483936880725","87.040548078502965","0.007535774","0.000039495","106"
"107","instanttomatosoup","0.0","-0.96339999895505679","0.94719999999999938","-0.6753999950546794","0.94719999999999949","-0.48939998947977192","0.94719999999999938","SIDE","0.50245415813261318","0.27739823634922417","-0.64662961300951394","-0.5024541581326134","166.32936810041477","-60.987355717600387","30.029196982126251","0.007891394","0.000074981","107"
"108","instanttomatosoup","0.0","-0.5723999934220696","0.94719999999999949","-0.32339998811446219","0.94719999999999949","-0.84439999656249298","0.94719999999999949","SIDE","0.50386605309401888","-0.64361109926894822","-0.27928973124109996","0.50386605309401988","172.15374186354771","-39.269681480565197","83.897337361017449","0.007229716","0.000073041","108"
"109","instanttomatosoup","1.6653345369377351e-16","-0.55439999256712769","0.94719999999999915","-0.31939998792447211","0.94719999999999938","-0.81339999509007554","0.94720000000000149","SIDE","0.49723296362346542","-0.31010459950953834","0.6398077032479994","-0.49723296362346525","-183.76064837324969","34.013531433030145","88.220555893143484","0.004274080","0.000025260","109"
"110","instanttomatosoup","0.0","-0.44139999045952932","0.94720000000000271","-0.1963999853419173","0.94719999999999993","-0.98540000000000016","0.94720000000000004","SIDE","0.50075886916161494","0.27726808314008022","-0.64931003379263008","-0.50075886916161538","146.41453829988251","-102.67767401952256","51.175489158322215","0.011960770","0.000073372","110"
"111","instanttomatosoup","0.0","-0.59139999106489627","0.94719999999999938","-0.79439999418760665","0.94719999999999938","-0.73139999445490933","0.94719999999999827","SIDE","7.8695651284763999e-17","0.66014605530930826","-0.25813111310495529","0.70539032748312935","-176.16283356854035","52.631793945996151","67.221826140761536","0.009411342","0.000072666","111"
"112","instanttomatosoup","0.0","-0.98539999999999894","0.94720000000000026","-0.76439999602231867","0.94719999999999938","-0.45639999117199592","0.94720000000000237","SIDE","0.50219560201662472","0.64088941855992332","0.29130723953970472","0.50219560201662483","-204.94157314650275","60.678756074465745","30.006733667207172","0.007838975","0.000056147","112"
"113","instanttomatosoup","0.0","1.032600030657266","1.570796326794897","-0.98540000000000016","1.4902000094929719","-0.27439998904671559","1.4862000093029839","SIDE","0.47707963646472634","0.6678770530649516","0.31421375356697057","0.4770796364647264","-153.83176344247852","36.38589043585155","138.52242961676194","0.009981362","0.000055877","113"
"114","instanttomatosoup","0.0","-0.98539999999999994","0.94719999999999949","-0.7653999960698169","0.9471999999999986","-0.45139999093450889","0.94719999999999949","SIDE","0.50245415813261296","0.27739823634922417","-0.64662961300951405","-0.50245415813261352","196.22366320041411","-64.567636803645428","29.742930308297517","0.008612317","0.000048291","114"
"115","instanttomatosoup","0.0","-0.65039999386724567","1.470200008543026","-0.15939998684414189","1.230200006922515","-0.98540000000000016","1.3102000074626821","SIDE","0.50386605309401888","-0.64361109926894822","-0.27928973124109996","0.50386605309401988","148.98652523202969","-30.124265442822793","84.284040147266055","0.017885797","0.000260075","115"
"116","instanttomatosoup","0.0","-0.14439998613167621","0.94719999999999949","-0.67039999481718904","1.4652000083055361","-0.98539999999999961","1.0632000022500701","SIDE","1.1841223633199807e-16","0.67168943081238375","-0.23313530043171765","0.70319360081527238","-163.63004160731734","27.026440612538007","87.985346354120892","0.009680120","0.000159140","116"
"117","instanttomatosoup","0.0","1.032600030657274","1.570796326794897","-0.33639998873192761","0.94719999999999938","-0.32839998835194978","0.94719999999999949","SIDE","0.68550944701192063","0.67493258003717582","-0.27302529271437798","-3.6440078489000939e-16","60.783763129674369","158.6757500172975","133.97314513543046","0.000010376","0.000000005","117"
"118","instanttomatosoup","0.0","-0.49239998962226289","0.94719999999999971","-0.28339998947419032","0.94719999999999971","-0.95239999843258805","0.94719999999999938","SIDE","0.50075886916161483","0.27726808314008033","-0.64931003379263008","-0.50075886916161538","169.53063020333391","-111.95930474882631","51.099818054135994","0.008504236","0.000054715","118"
"119","instanttomatosoup","0.0","0.055600016848560863","0.94719999999999938","-0.79539999423509822","0.94719999999999938","-0.73139999445491333","0.94719999999999949","SIDE","2.7425271167373873e-16","-0.65506837087425296","0.26270026766671384","0.70843065916714043","144.12919749532446","-101.87795846030755","65.84150420215984","0.003730005","0.000029712","119"
"120","instanttomatosoup","0.0","-0.64939999381973956","1.567796329912043","-0.1943999852468927","1.4592000080205521","-0.98540000000000016","1.3972000083353351","SIDE","0.49723296362346536","-0.31010459950953834","0.6398077032479994","-0.4972329636234652","-160.22928188683048","25.846077928893433","87.945611281279952","0.022718007","0.000251278","120"
"121","instanttomatosoup","0.0","1.032600030657276","1.570796326794897","-0.98539999999999994","1.570796326794897","-0.40739998884461431","1.570796326794897","SIDE","0.50097608876363386","0.27809171281584594","-0.64862232172299761","-0.50097608876363431","138.18308931307246","-42.349951482711809","125.92505669379977","0.000020045","0.000000115","121"
"122","instanttomatosoup","0.0","0.19060002000107859","0.94719999999999405","-0.41039998898711089","1.308200007367694","-0.27839998923670572","0.94719999999999949","SIDE","0.70814144887543096","-0.63552614413376907","0.30763973817936674","0.0","-72.484343989346115","-133.82889754859028","11.372361435707262","0.011538910","0.000072309","122"
"123","instanttomatosoup","0.0","-0.49839998990726081","0.9471999999999946","-0.23239998705182799","0.94719999999999938","-0.95539999857507762","0.94719999999999949","SIDE","0.49950673053859451","0.65601167703212881","0.26577195467314074","0.4995067305385944","-159.68578074610144","104.98732578271076","51.997991224581817","0.013644980","0.000071720","123"
"124","instanttomatosoup","0.0","-0.47539999207444672","0.94719999999999782","-0.25439998809676401","0.94719999999999938","-0.98539999999999994","0.94719999999999971","SIDE","0.499355291879168","0.65674630044185323","0.2645238775620844","0.49935529187916816","-178.4582439213689","120.61460802012925","52.157501940679843","0.013439922","0.000083500","124"
"125","instanttomatosoup","0.0","-0.49539998976474559","0.94719999999999882","-0.23539998719430841","0.94719999999999849","-0.95039999833759559","0.94719999999999938","SIDE","0.50609008709987224","0.26805603188441662","-0.64489658957763762","-0.50609008709987224","148.85975999429576","-102.11379938326435","47.596317507897055","0.012044041","0.000069381","125"
"126","instanttomatosoup","0.0","1.0326000306572749","1.570796326794897","-0.34439998911190511","0.94719999999999938","-0.33139998849444069","0.94719999999999949","SIDE","2.4149796248645546e-16","0.28591682143825198","0.66537480797126491","0.68958533636950914","-77.090996827005938","-156.24733982498529","132.60020711398113","0.000428951","0.000000300","126"
"127","instanttomatosoup","0.0","1.032600030657274","1.570796326794897","-0.37139999039433919","0.94719999999999915","-0.30939998744949859","0.94719999999999938","SIDE","0.70814144887543096","-0.63552614413376896","0.30763973817936674","0.0","-88.535967325157117","-154.84470610855138","11.296480807614808","0.000040242","0.000000013","127"
"128","instanttomatosoup","0.0","-0.77439999649729585","0.94719999999999949","-0.97439999947752998","0.94719999999999938","-0.59139999106489149","0.94719999999999915","SIDE","0.7052402096271243","-0.26481536781751791","-0.65765421590130679","-3.9356201244259582e-17","167.02566679763885","-61.699689964081372","52.560344977795602","0.006887515","0.000065092","128"
"129","instanttomatosoup","0.0","-0.98539999999999961","1.0132000031348349","-0.78139999682977612","1.3872000078603679","-0.45439999107699869","1.304200007177698","SIDE","0.50245415813261318","0.27739823634922417","-0.64662961300951394","-0.5024541581326134","143.19885703770822","-51.74465762309444","30.274329419432604","0.020342604","0.000214740","129"
"130","instanttomatosoup","0.0","-0.98540000000000028","1.570796326794897","-0.29839998692702779","0.94719999999999938","-0.48039999231193309","1.308200007367686","SIDE","0.70941127497068479","0.63617480179513874","-0.30334347612134871","3.9124801923645576e-17","68.996618003029454","144.93358781902216","50.923176354925523","0.007973040","0.000174721","130"
"131","instanttomatosoup","0.0","-0.56639999313708467","0.94719999999999915","-0.79039999399763183","0.94719999999999949","-0.7373999947398876","0.94719999999999949","SIDE","0.70830949170297175","-0.26063636139415919","-0.65602313303929394","-3.9185660986833364e-17","162.92835011531136","-51.217658492078485","65.902161296973901","0.008210200","0.000067231","131"
"132","instanttomatosoup","0.0","-0.98539999999999994","1.570796326794897","-0.38739998789466651","0.9472000000000016","-0.29839998692702652","0.94719999999999949","SIDE","0.98516312972802467","-0.15557556877762566","0.072455850170994832","-3.063877196696291e-16","-42.626711677621152","-71.072055243540632","-96.930182290884176","0.009902130","0.000032262","132"
"133","instanttomatosoup","0.0","-0.98539999999999994","0.94719999999999915","-0.76239999592732244","0.94719999999999915","-0.43639999022205211","0.94719999999999949","SIDE","0.50055093556553409","-0.27378362038919207","0.65110678925620469","-0.50055093556553443","-196.91706176859333","94.593141752669609","106.01864727201666","0.008130372","0.000042704","133"
"134","instanttomatosoup","0.0","0.1026000190809435","0.94719999999999249","-0.45239999098200129","1.3252000081751449","-0.24939998785928141","0.9472000000000016","SIDE","3.0767094726358317e-16","-0.27861132105453151","-0.63366549687324114","0.72169506708348585","55.694588712431617","138.02198330769352","7.3478162955805821","0.011018488","0.000069719","134"
"135","instanttomatosoup","0.0","-0.9853999999999995","1.570796326794897","-0.3023999871170075","0.94719999999999938","-0.3543999895868829","0.94719999999999938","SIDE","-1.182237828110328e-16","-0.30966517219967288","-0.63878677036945319","0.70431452003171879","67.473766377075165","154.42820157685057","87.414986780532558","0.006133231","0.000040241","135"
"136","instanttomatosoup","0.0","-0.17139998741410811","1.0352000041797691","-0.33039998844694568","0.94719999999999815","-0.3493999893493957","0.94720000000000126","SIDE","2.5693337583552262e-16","0.24088299345310626","0.6084081087605373","0.75618447263845412","-75.102052398658969","-161.30699825136395","87.689863446037691","0.000002656","0.000019457","136"
"137","instanttomatosoup","0.0","1.032600030657272","1.5707963267948959","-0.26639998866673631","0.94719999999999938","-0.25039998790677681","0.94719999999999938","SIDE","2.4149796248645546e-16","0.28591682143825198","0.66537480797126491","0.68958533636950914","-67.268283981293322","-133.38829417458922","131.38100889226931","0.008267501","0.000020919","137"
"138","instanttomatosoup","0.0","1.0326000306572729","1.5707963267948959","-0.25239998800177182","0.94719999999999949","-0.23939998738430621","0.94719999999999971","SIDE","0.68550944701192063","0.67493258003717604","-0.27302529271437792","-3.6440078489000949e-16","51.459381313366663","135.62539811046469","132.4747190562102","0.007808277","0.000022356","138"
"139","instanttomatosoup","0.0","-0.70339999312498702","0.94719999999999316","-0.41539998922458488","0.94719999999999971","-0.66939999476969403","0.94719999999999993","SIDE","0.49098744332407546","-0.29825950158268655","0.65490757417503032","-0.49098744332407546","-171.94661664019105","47.968577845780572","91.960347476298892","0.004705606","0.000038860","139"
"140","instanttomatosoup","0.0","-0.98539999999999983","1.0812000031050291","-0.8013999945200948","1.4242000096177629","-0.467399991694465","1.414200009142802","SIDE","0.50219560201662494","0.64088941855992354","0.29130723953970467","0.50219560201662483","-155.80892363637489","50.130320469917109","30.444265720308973","0.019543388","0.000261485","140"
"141","instanttomatosoup","0.0","-0.72239999402742916","0.94719999999999938","-0.42239998955708352","0.94719999999999638","-0.67939999524466721","0.94719999999999949","SIDE","-0.49978568167356346","0.65185421983767344","0.27479923738613377","-0.49978568167356396","158.26670283605225","-51.107145467955696","86.581464793048298","0.011305803","0.000057736","141"
"142","instanttomatosoup","0.0","0.28060002101621412","0.94719999999999938","-0.74539999511987054","1.448200007498077","-0.98540000000000028","1.120200004957431","SIDE","0.70619502621829489","0.27734313495170199","0.65143639017152222","-7.8605978759893641e-17","-134.57031874195846","101.92972191393847","52.034570935421456","0.010118032","0.000168017","142"
"143","instanttomatosoup","0.0","-0.98539999999999994","0.94719999999999949","-0.76339999597482389","0.94719999999999971","-0.4373999902695429","0.94720000000000149","SIDE","-0.4995065137026044","0.65144697943981345","0.27677304514002504","-0.49950651370260502","183.9455837931271","-91.479600518879437","106.83185068250539","0.006772928","0.000036225","143"
"144","instanttomatosoup","0.0","-0.65339999400973614","1.570796326794897","-0.98539999999999994","1.43520001014023","-0.8973999958202209","1.472200008638016","SIDE","2.3433043976486179e-16","-0.65224156768736419","0.26366252564558956","0.71067785244153936","130.2523330195603","-69.981887922624182","65.060766751870531","0.013670081","0.000168197","144"
"145","instanttomatosoup","0.0","0.12260001677125761","0.94719999999999882","-0.65839999424721773","0.957200000474974","-0.4473999907445152","0.94719999999999949","SIDE","-0.48825158074961833","-0.27569282118130684","0.66874079891994764","0.48825158074961833","154.081964961144","-58.324660341170684","133.63244205367056","0.006692695","0.000032860","145"
"146","instanttomatosoup","0.0","-0.62739999277480918","0.94719999999999938","-0.98540000000000016","0.98520000180490341","-0.62539999267981061","1.374200007242895","SIDE","0.0","0.65916257834168479","-0.24719192936716608","0.71021183133603183","-159.34424318941765","44.080694455933582","50.435376014920536","0.010172889","0.000128154","146"
"147","instanttomatosoup","0.0","1.032600030657272","1.5707963267948959","-0.32539998820945948","0.94719999999999938","-0.35339998953938462","0.94719999999999938","SIDE","0.70814144887543096","-0.63552614413376896","0.30763973817936674","0.0","-83.337753044659124","-156.25001014103424","11.299409431028367","0.000017173","0.000000006","147"
"148","instanttomatosoup","0.0","-0.66839999472219425","1.5627963296745511","-0.98540000000000016","1.4772000088755111","-0.92639999719765109","1.5192000108703929","SIDE","7.8695651284763999e-17","0.66014605530930826","-0.25813111310495529","0.70539032748312935","-152.96362037705882","43.560409399934855","67.10103825356012","0.012209579","0.000264573","148"
"149","instanttomatosoup","0.0","-0.93939999781512018","0.94719999999999815","-0.67339999495968283","0.94719999999999938","-0.48039999231193131","0.94720000000000026","SIDE","0.50219560201662472","0.64088941855992332","0.29130723953970472","0.50219560201662483","-179.04764450969842","58.84505100445913","30.225807756157906","0.007980156","0.000054745","149"
"150","instanttomatosoup","0.0","-0.98540000000000016","1.5707963267948959","-0.29739998687952729","0.94719999999999882","-0.52239999104720292","1.4002000084778321","SIDE","3.9068508860222238e-16","0.30721638178824978","0.63316854389905597","0.71043345204015096","-82.549344572200681","-140.83479980102106","50.603255656170496","0.006730403","0.000069182","150"
"151","instanttomatosoup","0.0","-0.98540000000000028","0.94719999999999949","-0.86439999751243513","0.94719999999999949","-0.34039998892191059","0.94719999999999971","SIDE","-0.49829120907702312","-0.28525473171744131","0.64964719651971659","0.49829120907702334","212.24354078774334","-54.261934449346661","33.089688395543504","0.000058555","0.000045345","151"
"152","instanttomatosoup","0.0","-0.67539999505468218","1.570796326794897","-0.98540000000000061","1.477200008875508","-0.94339999800510699","1.529200011345369","SIDE","0.70830949170297186","-0.26063636139415908","-0.65602313303929383","-3.9185660986833358e-17","139.77861965403181","-42.020328076716638","65.986971678313452","0.014325340","0.000275295","152"
"153","instanttomatosoup","0.0","0.24260001921132091","0.94719999999999793","-0.98539999999999994","1.552796329199571","-0.38839998794218178","1.5707963267948959","SIDE","0.51005417352976345","-0.2752812925786905","0.63553889738232783","-0.51005417352976368","-139.76468009320581","69.667960699025343","6.3008086624932789","0.007796914","0.000045785","153"
"154","instanttomatosoup","0.0","0.243600019258813","0.94719999999999527","-0.98540000000000016","1.548796329009579","-0.39939998846462432","1.5707963267948959","SIDE","0.50359504024188961","-0.64531829319750622","-0.27631209049224759","0.50359504024189028","126.53007012853801","-68.070739090503182","9.755273221791775","0.009585112","0.000045750","154"
"155","instanttomatosoup","0.0","0.23760001897383221","0.94719999999999815","-0.22339998662434529","0.9471999999999986","-0.44339999055452539","1.2612000051353141","SIDE","0.68532087247354911","0.67481573770190206","-0.27378645310155691","-1.2150035142859378e-16","57.163946123848618","136.21726046558572","132.69032866645514","0.009775888","0.000056497","155"
"156","instanttomatosoup","0.0","0.39560002321879351","0.94719999999999849","-0.98540000000000028","1.570796326794897","-0.59439999120738529","1.570796326794897","SIDE","-0.48825158074961822","-0.27569282118130678","0.66874079891994764","0.4882515807496185","131.10890638219402","-48.76388865246301","132.47558240592289","0.002711900","0.000015191","156"
"157","instanttomatosoup","0.0","0.35660002136640861","0.94719999999999815","-0.98540000000000016","1.5707963267948959","-0.5643999930420901","1.570796326794897","SIDE","0.46965419187268848","0.68917466142713513","0.2896345389618053","0.46965419187268848","-142.56832686859451","49.572572379251582","141.66533242250367","0.008448295","0.000042015","157"
"158","instanttomatosoup","0.0","-0.50539999023973259","1.4052000087153329","0.006600017780835586","1.1032000041499721","-0.98540000000000016","1.0222000035623069","SIDE","0.50609008709987213","0.26805603188441668","-0.64489658957763774","-0.50609008709987247","125.84111293751427","-92.612364598698221","48.206829350518696","0.014925324","0.000214880","158"
"159","instanttomatosoup","0.0","-0.80039999447260757","0.94719999999999782","-0.53239999152217676","0.94719999999999938","-0.61339999210982554","0.94719999999999938","SIDE","0.50434313679222176","-0.2789544496565165","0.64300887688895414","-0.50434313679222209","-173.70995255899538","59.842543243066373","83.654505644737526","0.007621803","0.000066910","159"
"160","instanttomatosoup","0.0","-0.65439999405723426","1.570796326794897","-0.98539999999999994","1.4542000077830599","-0.91639999672268113","1.493200009635465","SIDE","0.70607464276017651","0.27263090049368699","0.65355259233445806","-1.965484520668185e-16","-141.64821449550396","73.056345396790078","66.84198530621282","0.012303042","0.000270819","160"
"161","instanttomatosoup","0.0","-0.38839998794216102","0.94719999999999938","-0.77939999673478111","0.94719999999999938","-0.2083999859118803","0.94720000000000115","TOP","-0.076510548278133542","0.88235322503490587","0.45797932079391929","0.076510548278133403","-40.862253342331066","-80.771123709583506","330.08693024043725","0.000008039","0.000009845","161"
"162","instanttomatosoup","0.0","-0.98540000000000016","1.5707963267948959","-0.3653999901093552","0.94719999999999949","-0.28039998933169991","0.94720000000000115","SIDE","0.70941127497068479","0.63617480179513874","-0.30334347612134871","3.9124801923645576e-17","65.426384477979639","151.62124132155211","50.89379713959255","0.007429311","0.000036555","162"
"163","instanttomatosoup","0.0","0.030600015661118508","0.94719999999999827","-0.76639999611731913","0.94719999999999815","-0.34639998920689641","0.94720000000000548","SIDE","0.50359504024188972","-0.64531829319750622","-0.27631209049224759","0.50359504024189017","149.65295150842903","-77.328774420716115","9.3957756334088778","0.002284961","0.000013367","163"
"164","instanttomatosoup","0.0","0.28460002120621181","0.94719999999999915","-0.2283999868618331","0.94719999999999949","-0.5603999928521004","1.464200008258038","SIDE","2.4149796248645546e-16","0.28591682143825198","0.66537480797126491","0.68958533636950914","-73.536731828729287","-133.52118516371726","131.5082636323028","0.010141890","0.000060008","164"
"165","instanttomatosoup","0.0","0.097600018843451153","0.94719999999999571","-0.66039999434221675","0.96120000066496236","-0.45839999126698761","0.94720000000000149","SIDE","0.46965419187268853","0.68917466142713513","0.2896345389618053","0.46965419187268836","-165.47067273698343","58.921080821309872","144.59723344972454","0.008757204","0.000055266","165"
"166","instanttomatosoup","0.0","-0.50739999033473793","0.94719999999999482","-0.34639998920690129","0.94719999999999949","-0.34239998901691432","0.94720000000000149","SIDE","-5.45863178721753e-17","0.072455850170995179","0.15557556877762593","0.98516312972802456","-40.984952589286117","-67.54690712421926","-86.107615603464183","0.007536254","0.000084442","166"
"167","instanttomatosoup","0.0","-0.98540000000000094","1.5707963267948959","-0.36539999010935881","0.94719999999999949","-0.28139998937919741","0.94720000000000026","SIDE","3.9068508860222238e-16","0.30721638178824967","0.63316854389905597","0.71043345204015107","-79.071845395060677","-147.52360829860311","50.560814445522148","0.005185643","0.000019912","167"
"168","instanttomatosoup","1.5367673659288259e-16","1.0326000306572769","1.5707963267948959","-0.2983999869270258","0.9471999999999986","-0.37239999044183519","0.94720000000000182","SIDE","0.68532087247354934","0.67481573770190173","-0.27378645310155691","-4.0500117142864588e-17","66.511750986634638","159.2572822158009","134.20163339974468","0.000092607","0.000000031","168"
"169","instanttomatosoup","0.0","-0.80539999471009915","0.94719999999999949","-0.52639999123719583","0.94719999999999616","-0.60739999182485027","0.94720000000000304","SIDE","-0.49978568167356352","0.65185421983767333","0.27479923738613382","-0.49978568167356385","159.57965476144187","-59.289479609985541","86.585150278456496","0.010936766","0.000063342","169"
"170","instanttomatosoup","0.0","0.018600015091149221","0.94719999999999949","-0.76839999621231037","0.94719999999999971","-0.35539998963438307","0.94719999999999938","SIDE","0.51005417352976379","-0.27528129257869044","0.63553889738232783","-0.51005417352976357","-162.90943987938533","78.822430281744175","5.2889385625569698","0.002842274","0.000013661","170"
"171","instanttomatosoup","0.0","0.13260001724622991","0.94719999999999938","-0.35239998949188672","0.94719999999999949","-0.32039998797196573","0.94719999999999949","SIDE","3.0767094726358317e-16","-0.27861132105453151","-0.63366549687324125","0.72169506708348585","65.712016479478052","160.80533008402531","6.3093796815221204","0.000015611","0.000006009","171"
"172","instanttomatosoup","0.0","-0.5413999919496445","1.485200009255484","0.0096000179233058994","1.140200005907372","-0.98539999999999994","1.012200003087337","SIDE","0.49950673053859435","0.65601167703212881","0.26577195467314069","0.49950673053859435","-136.74680302231201","95.276044316830081","51.94886609933021","0.014870245","0.000238850","172"
"173","instanttomatosoup","0.0","-0.086399983376831135","0.94719999999999549","-0.60239999158737323","1.2842000062277581","-0.98539999999999994","0.97220000118743966","SIDE","0.71257420590496434","-0.25761410986365124","-0.65258943561635163","-1.1685341141578173e-16","153.35769815096523","-31.849815626623784","84.211077357914391","0.008828766","0.000130194","173"
"174","instanttomatosoup","0.0","0.25560001982878322","0.94719999999999793","-0.74439999507237309","1.4082000088578099","-0.98540000000000016","1.1692000040251751","SIDE","2.7434978908080261e-16","-0.65518966978218129","0.26307338619228904","0.70817998424697026","125.25649349888535","-94.182243234033152","51.244750546417933","0.012526891","0.000190521","174"
"175","instanttomatosoup","0.0","1.032600030657272","1.570796326794897","-0.37339999048933348","0.94719999999999993","-0.30039998702202281","0.94719999999999938","SIDE","0.0","-0.29805400703695512","-0.63835995818307412","0.70969033576463381","73.090284439030427","158.20674816829384","10.72799368919708","0.001019707","0.000000399","175"
"176","instanttomatosoup","0.0","-0.98540000000000016","1.458200007973053","-0.62239999253730149","1.5707963267948959","-0.78239999687727713","1.570796326794897","SIDE","0.50434313679222198","-0.27895444965651656","0.64300887688895392","-0.50434313679222209","-150.54435621082942","50.695175156714008","84.089135287812795","0.004921741","0.000080700","176"
"177","instanttomatosoup","0.0","-0.50239999009725944","0.9471999999999936","-0.98539999999999994","0.94719999999999938","-0.30539998725951112","0.94719999999999971","SIDE","0.75157475088969616","-0.29823809009186092","-0.58837864971755238","1.1078968093102861e-16","185.43638069623287","-77.816666447640515","-13.478631250252567","0.000016093","0.000033655","177"
"178","instanttomatosoup","0.0","-0.52339999109469015","0.94719999999999782","-0.7943999941876152","0.94719999999999949","-0.73439999459740402","0.94720000000000149","SIDE","0.70607464276017651","0.27263090049368699","0.65355259233445817","-1.9654845206681852e-16","-164.55493566464426","82.611934484721587","66.914390153181017","0.011751999","0.000106381","178"
"179","instanttomatosoup","0.0","0.16960001900364291","0.9472000000000016","-0.39439998822712619","0.94719999999999993","-0.69439999269751873","0.94719999999999949","SIDE","0.50663351015412794","0.28235254596743303","-0.63790439139695743","-0.50663351015412794","148.84221376424244","-74.737634060401575","122.28917472264843","0.006656345","0.000019515","179"
"180","instanttomatosoup","0.0","-0.98539999999999961","1.429200009855256","-0.64839999377224189","1.5707963267948959","-0.81639999523257301","1.570796326794897","SIDE","-0.49978568167356346","0.65185421983767333","0.27479923738613377","-0.4997856816735638","136.5066113351169","-49.901065940995643","86.563800177109115","0.003518257","0.000117613","180"
"181","instanttomatosoup","0.0","-0.27839998923670523","0.94719999999999882","-0.47939999226443392","0.94719999999999949","-0.98540000000000016","1.570796326794897","SIDE","0.50389050460422602","0.65759377656413909","0.24445683415177757","-0.50389050460422669","68.202422254993962","161.84500542925852","29.639102377090012","0.003840631","0.000038190","181"
"182","instanttomatosoup","0.0","-0.98539999999999994","1.570796326794897","-0.54939999232962455","1.570796326794897","-0.93939999781512307","1.570796326794897","SIDE","0.50006454796942201","0.27604787531088798","-0.65089819961697515","-0.50006454796942212","125.30029630507514","-68.014169092417688","51.640562585235195","0.000032205","0.000041073","182"
"183","instanttomatosoup","0.0","-0.80139999452009802","0.94719999999999793","-0.52239999104720636","0.94719999999999949","-0.55439999256711892","0.94719999999999938","SIDE","0.49317005284956772","-0.28881911232977464","0.65585830657067246","-0.49317005284956766","-171.35371973828572","58.10636421042625","110.72412194808612","0.005150791","0.000025151","183"
"184","instanttomatosoup","0.0","-0.0053999827891513556","0.94719999999999915","-0.79639999428260333","0.94719999999999915","-0.7303999944074101","0.94720000000000037","SIDE","2.7376488934943582e-16","-0.65351369425723904","0.26316473552824982","0.70969301348724168","145.4360474420273","-99.155997752503168","65.260738043854786","0.008998636","0.000059424","184"
"185","instanttomatosoup","0.0","-0.70139999302998424","0.94719999999999827","-0.39739998836963247","0.94719999999999971","-0.70139999302998091","0.94719999999999938","SIDE","0.5000645479694219","0.27604787531088787","-0.65089819961697515","-0.50006454796942224","148.39350388602602","-77.352896106997576","51.63413061041777","0.005189437","0.000045475","185"
"186","instanttomatosoup","0.0","-0.69939999293500488","0.94719999999999938","-0.39239998813215798","0.94719999999999949","-0.65839999424721574","0.94719999999999938","SIDE","0.50072535223323955","0.27594831494586192","-0.64992366531796275","-0.50072535223323988","148.09016984815227","-77.180901524425579","31.220746908275476","0.005515456","0.000043233","186"
"187","instanttomatosoup","0.0","-0.70839999336246584","0.94719999999999405","-0.40639998879710398","0.94719999999999971","-0.66439999453220555","0.94720000000000026","SIDE","0.49796531032775493","0.65413964476004538","0.27597540574037982","0.49796531032775454","-161.93579363706064","79.993015465324774","32.945690198686648","0.011639037","0.000065474","187"
"188","instanttomatosoup","0.0","-0.98540000000000028","1.5707963267948959","-0.35739998972937448","0.98920000199489577","-0.34739998925439908","0.94719999999999949","SIDE","0.7085048568058484","-0.61869670777866603","0.33946318160643629","0.0","-95.72649932212714","-152.25521318843246","85.934978767309374","0.004983823","0.000077731","188"
"189","instanttomatosoup","0.0","-0.98540000000000028","0.94719999999999938","-0.88039999827239734","0.94719999999999938","-0.35039998939688838","0.94720000000000004","SIDE","0.52371137412167301","0.59770734646226664","0.30691810180602674","0.52371137412167279","-216.62550618974706","40.654782184110076","12.771254440394731","0.007627452","0.000073422","189"
"190","instanttomatosoup","0.0","-0.70039999298247901","0.94719999999999061","-0.39839998841714042","0.94719999999999938","-0.69839999288749943","0.94719999999999971","SIDE","0.50138887597217507","0.64795757625812533","0.27815349983851262","0.50138887597217496","-160.97494667112787","78.567083582880443","50.811710671209383","0.004831395","0.000042747","190"
"191","instanttomatosoup","0.0","0.25560001982878883","0.94719999999999815","-0.36239998996686018","0.94719999999999949","-0.32339998811446041","0.94719999999999949","SIDE","0.99898798810412281","0.034548644758049071","-0.028799145283484519","-2.7805399053690576e-16","19.611583049491106","47.835847929104226","-95.519580842390781","0.009399768","0.000072667","191"
"192","instanttomatosoup","0.0","-0.63739999324977858","0.94720000000000126","-0.96739999914504748","0.94719999999999949","-0.58239999389704322","0.94719999999999993","SIDE","7.8161400278043385e-17","0.65916257834168479","-0.24719192936716605","0.71021183133603205","-182.6672301738854","52.827025544388114","50.216125898602911","0.007800206","0.000057733","192"
"193","instanttomatosoup","0.0","-0.25939998833424632","0.94719999999999793","-0.58139999384954433","0.94720000000000026","-0.93839999776762395","0.94719999999999949","SIDE","1.1841223633199807e-16","0.67168943081238375","-0.23313530043171765","0.70319360081527238","-187.1614080937365","35.193894116674741","88.260290965984424","0.011071378","0.000058785","193"
"194","instanttomatosoup","0.0","0.061600017133540692","0.94719999999999394","-0.63639999320227314","0.94719999999999915","-0.91539999667518857","0.94720000000000448","SIDE","0.70619502621829511","0.27734313495170193","0.65143639017152211","-1.1790896813984046e-16","-157.48956826884086","111.68738453522998","52.098768237358598","0.009064546","0.000050698","194"
"195","instanttomatosoup","0.0","-0.98540000000000016","1.433200010045248","-0.65839999424721773","1.5707963267948959","-0.74439999507237287","1.570796326794897","SIDE","-0.49786032891809662","0.65296311899479398","0.27912246597456064","-0.49786032891809678","136.50366754393872","-49.123197845885585","107.59908693193967","0.004097834","0.000057814","195"
"196","instanttomatosoup","0.0","-0.80439999466259682","0.94719999999999949","-0.5273999912846804","0.94719999999999793","-0.55639999266211537","0.94720000000000326","SIDE","-0.49786032891809651","0.65296311899479398","0.27912246597456064","-0.49786032891809667","159.62256062110745","-58.395717692180384","107.8118275874558","0.008625977","0.000044637","196"
"197","instanttomatosoup","0.0","1.03260003065727","1.5707963267948959","-0.48239999240692688","0.94719999999999938","-0.87339999793991319","0.94719999999999938","TOP","0.096680871547657379","0.82708979896687729","0.54518628247462442","-0.096680871547657379","21.805323567489545","79.260928835648514","267.87562164935383","0.000563545","0.000003245","197"
"198","instanttomatosoup","0.0","-0.72239999402742539","0.9472000000000016","-0.4223999895570793","0.94719999999999949","-0.60839999187235694","0.94720000000000037","SIDE","-0.49786032891809651","0.65296311899479398","0.27912246597456064","-0.49786032891809678","157.62537359799066","-50.21268579153714","107.76997976699309","0.015415997","0.000094077","198"
"199","instanttomatosoup","0.0","0.39260002307629199","1.2052000057350789","-0.87039999779742361","1.5707963267948959","-0.98539999999999994","1.570796326794897","SIDE","0.51037554509104133","-0.28689097004388803","0.62986282415564232","-0.51037554509104133","-138.65793930031856","43.758492974000376","6.559185199862589","0.005745716","0.000049836","199"
"200","instanttomatosoup","0.0","-0.98540000000000016","1.570796326794897","-0.41239998908210601","0.94720000000000115","-0.26739998871423248","0.94719999999999938","SIDE","0.7383576960584588","-0.61456500224696564","0.2777368731091206","-3.7590961350840167e-17","-88.090573055201659","-159.79095203577768","94.387886223044504","0.008099538","0.000044804","200"
"201","instanttomatosoup","0.0","-0.35739998972937442","0.94719999999999827","-0.91039999643768776","0.94719999999999949","-0.2633999885242409","0.94720000000000304","SIDE","0.49488187488008861","0.64091221329785064","0.31530206893705431","0.49488187488008861","-185.74519289999665","33.758503214345694","109.75972148911151","0.005500899","0.000016154","201"
"202","instanttomatosoup","1.6653345369377351e-16","-0.69539999274500708","0.94719999999999427","-0.38739998789465657","0.94719999999999949","-0.64539999362976319","1.0142000031823311","SIDE","0.49317005284956772","-0.28881911232977464","0.65585830657067246","-0.49317005284956766","-169.06030936317197","48.275920479164782","110.56946273071031","0.013299131","0.000106834","202"
"203","instanttomatosoup","0.0","-0.33939998887442252","0.94719999999999971","-0.92339999705515141","0.94720000000000115","-0.2703999888567265","0.94720000000000115","SIDE","-0.49900980805226181","-0.29349196713818676","0.64485726184997472","0.49900980805226214","173.49982610868705","-36.669044817438049","107.09922707374477","0.008519929","0.000042288","203"
"204","instanttomatosoup","0.0","0.41260002402626239","0.94719999999999849","-0.56739999318458278","1.570796326794897","-0.9853999999999995","1.570796326794897","SIDE","0.50663351015412805","0.28235254596743298","-0.63790439139695743","-0.50663351015412794","125.61448558364819","-65.763334292123062","122.95452217885774","0.000736771","0.000028539","204"
"205","instanttomatosoup","0.0","0.14860001800618891","0.94719999999999938","-0.36939999029934212","0.94719999999999949","-0.70439999317247082","0.94720000000000093","SIDE","0.47993447045367971","0.6765413549551601","0.28568794720136176","0.47993447045367971","-155.19003308044498","77.701523950167058","138.32432440365872","0.000755758","0.000021208","205"
"206","instanttomatosoup","0.0","-0.026399983786607649","0.94719999999999849","-0.79039999399762795","0.94719999999999938","-0.75139999540485847","0.94719999999999971","SIDE","0.70435015087320663","0.27940944094957681","0.65254979064676444","-3.9405934081535153e-17","-155.96071360456824","104.14589650011509","67.695341556416764","0.007481910","0.000051034","206"
"207","instanttomatosoup","0.0","0.3896000229338083","1.2272000067800299","-0.87439999798741452","1.5707963267948959","-0.98539999999999872","1.570796326794897","SIDE","0.50904886967247076","-0.63408925774836988","-0.28225752386514152","0.50904886967247109","125.41639873838528","-42.896298729475717","7.1935583141177473","0.003026464","0.000040230","207"
"208","instanttomatosoup","0.0","-0.19639998534191769","0.94719999999999938","-0.86739999765493081","0.94719999999999949","-0.51639999076221244","0.94719999999999938","SIDE","0.49879197287808574","-0.24412484143530586","0.66544436084391045","0.49879197287808597","-117.21631519843669","-235.15178437189732","87.477856515926007","0.000225339","0.000021226","208"
"209","instanttomatosoup","0.0","0.1136000196034089","0.94719999999999427","-0.51839999085721089","1.104200004197462","-0.6233999925848116","1.1602000035977","SIDE","0.50904886967247076","-0.63408925774836977","-0.28225752386514141","0.50904886967247109","148.65569965599113","-51.819038133523122","6.2837702132529936","0.014919595","0.000099220","209"
"210","instanttomatosoup","0.0","1.0326000306572769","1.570796326794897","-0.98540000000000016","1.1812000045951501","-0.37539999058432971","0.94719999999999949","SIDE","0.7069837177784124","0.010591955211401284","0.015357606494093156","0.70698371777841273","-32.631091719821065","-19.581685106389561","-136.91833281634598","0.006701982","0.000022590","210"
"211","instanttomatosoup","0.0","-0.47739999216944179","0.94719999999999938","-0.25839998828675459","0.94719999999999938","-0.98540000000000028","0.94720000000000004","SIDE","0.49777986323432605","0.65895137919831248","0.26497829226084385","0.49777986323432605","-179.79018039763434","121.14427175444305","68.121652632931301","0.008419701","0.000051950","211"
"212","instanttomatosoup","0.0","-0.51239999057222285","0.94719999999999815","-0.70439999317247659","1.570796326794897","-0.25339998804926922","0.94719999999999949","TOP","-0.10820225503953809","0.94775823220059108","-0.30007766544741254","-1.6107026106384667e-16","-34.269731228111581","-59.94945710736625","230.94406593304234","0.001635858","0.000099594","212"
"213","instanttomatosoup","0.0","0.1216000167237602","0.94719999999999882","-0.51339999061972541","1.1072000043399659","-0.6183999923473199","1.139200005859871","SIDE","0.51037554509104144","-0.28689097004388797","0.62986282415564221","-0.51037554509104144","-161.96815520262396","52.479207323200214","5.514639448094492","0.015773296","0.000102651","213"
"214","instanttomatosoup","0.0","-0.98540000000000028","1.570796326794897","-0.41639998927209532","0.94719999999999949","-0.25839998828675609","0.94720000000000026","SIDE","0.0","-0.26209491925802414","-0.61875661089401213","0.74057174519021851","71.552564782509577","162.93213950103848","93.562127421398955","0.008179128","0.000041044","214"
"215","instanttomatosoup","0.0","-0.98540000000000028","1.4562000078780559","-0.67139999486468704","1.5707963267948959","-0.76739999616481502","1.570796326794897","SIDE","0.49317005284956772","-0.28881911232977464","0.65585830657067246","-0.49317005284956766","-148.14324869830884","49.08830956233183","110.04823403848069","0.003178760","0.000051776","215"
"216","instanttomatosoup","0.0","-0.98540000000000016","0.94720000000000026","-0.77539999654479297","0.94719999999999915","-0.39139998808466647","0.94719999999999938","SIDE","0.53144360292269432","0.20516035720858622","-0.62693270903274478","-0.53144360292269444","192.41446245473745","-81.353725069941873","-14.502194659890355","0.001521132","0.000055911","216"
"217","instanttomatosoup","0.0","-0.46839999174196439","0.9472000000000016","-0.23439998714680579","0.94719999999999915","-0.98539999999999994","0.94720000000000026","SIDE","0.50093612309754054","0.27744614649935417","-0.64896042787266317","-0.50093612309754076","153.21569834138347","-105.5218929113455","65.804811304280079","0.008154694","0.000036512","217"
"218","instanttomatosoup","0.0","0.42060002114660772","0.9471999999999986","-0.62339999258480794","1.570796326794897","-0.98540000000000016","1.570796326794897","SIDE","0.47993447045367976","0.6765413549551601","0.28568794720136176","0.47993447045367976","-132.18280781307541","68.356087910589608","136.36511264208951","0.003225301","0.000041223","218"
"219","instanttomatosoup","0.0","-0.98539999999999994","1.570796326794897","-0.39839998841714092","1.013200003134836","-0.30239998711701271","0.94719999999999949","SIDE","-1.182237828110328e-16","-0.30966517219967288","-0.63878677036945319","0.70431452003171879","75.799794694568746","155.94834770466463","87.454397351716608","0.005776856","0.000073705","219"
"220","instanttomatosoup","0.0","-0.24839998781178049","0.94719999999999605","-0.5833999939445409","0.94720000000000126","-0.9663999990975507","0.94719999999999915","SIDE","0.71257420590496412","-0.25761410986365124","-0.65258943561635163","-3.8951137138593904e-17","176.52491478248456","-40.995231664366031","83.824374571665587","0.010201575","0.000070589","220"
"221","instanttomatosoup","0.0","0.29960002191869489","0.94719999999999094","-0.53739999175965858","1.570796326794897","-0.98540000000000016","1.5707963267948959","SIDE","0.50740480019586809","-0.28406988318727117","0.63591276048083234","-0.50740480019586831","-147.76323029478692","39.131718787590479","7.8316623813648869","0.003422426","0.000018578","221"
"222","instanttomatosoup","0.0","-0.98540000000000016","0.94720000000000026","-0.86239999741744333","0.94719999999999938","-0.31439998768698141","0.94720000000000426","SIDE","0.50098474092346035","0.63551528507059807","0.30683692927244421","0.50098474092346057","-224.18524031486626","48.436592181612355","10.871448460737168","0.007211974","0.000094411","222"
"223","instanttomatosoup","0.0","-0.2753999890942111","0.94719999999999949","-0.96939999924004272","0.94720000000000026","-0.57139999337457215","0.94719999999999915","SIDE","0.6895330996054323","-0.25038631900506475","-0.67959605340497597","0.0","179.85272978762956","-38.202213772091646","60.098102849048594","0.009496934","0.000058306","223"
"224","instanttomatosoup","0.0","-0.98540000000000016","1.5707963267948959","-0.34939998934939609","0.94719999999999815","-0.28739998640455311","0.94719999999999938","SIDE","0.71260878556231921","0.63784610381069107","-0.29213193353845723","0.0","63.206203437476738","150.93617164331874","29.826573128855522","0.006856172","0.000033906","224"
"225","instanttomatosoup","0.0","-0.48539998928978761","0.94720000000000337","-0.23739998728929959","0.94720000000000149","-0.94939999829009469","0.94719999999999971","SIDE","0.50182874239754394","0.27601839574637654","-0.64818953386875577","-0.50182874239754471","149.42467667463032","-100.76218682909621","65.22922615310047","0.008670616","0.000061899","225"
"226","instanttomatosoup","0.0","-0.98540000000000016","1.570796326794897","-0.34339998906440788","0.94719999999999815","-0.26539998861923819","0.94719999999999938","SIDE","0.75618447263845423","-0.60840810876053708","0.24088299345310613","1.4681907190601287e-16","-75.131196925136223","-161.38060978359576","87.678372970263595","0.002264760","0.000035522","226"
"227","instanttomatosoup","0.0","-0.59139999106489693","0.94719999999999427","-0.96839999919254349","0.94719999999999949","-0.59039999101740936","0.94719999999999882","SIDE","0.70524020962712419","-0.26481536781751797","-0.65765421590130679","0.0","169.97970990870681","-54.898919564527311","52.561399476551472","0.009317423","0.000094479","227"
"228","instanttomatosoup","0.0","-0.98540000000000028","0.94720000000000026","-0.7723999964023015","0.94719999999999849","-0.40439998870213051","0.94719999999999971","SIDE","0.5074048001958682","0.63591276048083245","0.28406988318727083","0.5074048001958682","-207.42073248483078","61.947439678802574","5.9249806021860305","0.009049950","0.000037273","228"
"229","instanttomatosoup","0.0","-0.49439998971727023","0.94719999999999938","-0.28939998649952059","0.94719999999999949","-0.9373999977201285","0.94719999999999949","SIDE","0.50093612309754065","0.27744614649935428","-0.64896042787266306","-0.50093612309754065","176.3356915370824","-114.79364021438987","65.711448681673218","0.007243544","0.000057069","229"
"230","instanttomatosoup","0.0","-0.98540000000000016","1.570796326794897","-0.29739998687952401","0.94719999999999949","-0.3173999878294772","0.94719999999999971","SIDE","2.7752022130137593e-16","0.048731250420937927","0.060091538211804039","0.99700264406256778","-17.965856607110172","6.350083409766393","-119.25009453708736","0.004892253","0.000041942","230"
"231","instanttomatosoup","0.0","-0.54739999223463398","0.94719999999999938","-0.31739998782947532","0.94719999999999671","-0.81539999518506778","0.94720000000000426","SIDE","0.49755774911577388","-0.31404911908088917","0.63737408434467013","-0.49755774911577388","-183.69786150832113","32.835553288915293","68.00715348041895","0.003379038","0.000032813","231"
"232","instanttomatosoup","0.0","1.0326000306572769","1.5707963267948959","-0.98540000000000016","1.184200004737638","-0.37039999034684168","0.9472000000000016","SIDE","0.70707316876795556","0.0039866731887896485","0.0088980027967203983","-0.70707316876795545","12.983003809214971","23.603702732368419","-137.79417622189149","0.006807253","0.000028006","232"
"233","instanttomatosoup","0.0","-0.49939998995475732","0.94719999999999094","-0.23239998705182269","0.94719999999999949","-0.96039999881256277","0.94719999999999949","SIDE","0.49805076801221215","0.65899469245117726","0.26385007160520085","0.4980507680122121","-159.08615389535342","105.48415074045958","67.72179943983069","0.006680419","0.000057021","233"
"234","instanttomatosoup","0.0","0.023600015328642601","0.94719999999999827","-0.6423999934872614","0.94719999999999938","-0.90539999620020795","0.94719999999999971","SIDE","2.3515696206925933e-16","-0.65518966978218118","0.26307338619228909","0.70817998424697015","148.37258540233697","-103.46387396333766","51.169079442231926","0.006847012","0.000041103","234"
"235","instanttomatosoup","0.0","-0.13239998556170271","0.94719999999999827","-0.93539999762512782","0.94719999999999938","-0.53239999152217465","0.94719999999999827","SIDE","0.49802557320257662","0.67065680022018292","0.23272411390080583","-0.49802557320257695","105.37874427845949","216.96470786360095","87.988883487144065","0.004199441","0.000022596","235"
"236","instanttomatosoup","0.0","-0.57539999356456117","0.94719999999999949","-0.32539998820945498","0.94719999999999949","-0.8593999972749482","0.94719999999999938","SIDE","0.50019310408672679","-0.64890494555061673","-0.28024291050465566","0.50019310408672724","172.6151231563837","-39.838461168964386","66.320379669976063","0.003445331","0.000042074","236"
"237","instanttomatosoup","0.0","-0.52339999109469526","0.94719999999999938","-0.98540000000000016","0.94719999999999949","-0.24739998776428271","0.9472000000000016","SIDE","0.50072535223324011","-0.64992366531796253","-0.27594831494586147","0.50072535223323977","174.56821724737654","-114.39895928607805","31.108990670923887","0.005711941","0.000021940","237"
"238","instanttomatosoup","0.0","-0.52039999095220535","0.94719999999999949","-0.98540000000000028","0.94720000000000026","-0.26039998838174933","0.94719999999999949","SIDE","0.50072535223324022","-0.64992366531796253","-0.27594831494586136","0.50072535223323977","167.44813027985666","-108.26288592111462","31.134831941529896","0.012322806","0.000041548","238"
"239","instanttomatosoup","0.0","0.29760002182367762","0.94719999999999793","0.0086000178757915293","1.006200002802349","-0.98540000000000016","1.009200002944846","SIDE","0.48757284717004645","0.65879570288838751","0.30088811751344502","0.48757284717004634","-139.34295430986944","90.048949383501892","133.33979823046585","0.012397882","0.000069999","239"
"240","instanttomatosoup","0.0","-0.98540000000000016","1.570796326794897","-0.32739998830445027","0.94719999999999938","-0.30239998711701138","0.94720000000000393","SIDE","2.7297260091710233e-16","0.27647759956359608","0.64573059685653478","0.71175285965203905","-73.012480726635687","-147.42866258872354","30.150728538994944","0.007859030","0.000030251","240"
"241","instanttomatosoup","0.0","-0.31639998778197292","0.94719999999999793","-0.76439999602232189","0.9471999999999986","-0.37539999058432871","0.94720000000000004","SIDE","0.4931700528495675","0.65585830657067268","0.28881911232977442","0.49317005284956772","-175.86225402791399","50.918706512858684","110.76753506421745","0.007655745","0.000027363","241"
"242","instanttomatosoup","0.0","-0.85639999713245696","0.94719999999999727","-0.73339999454989779","0.94719999999999938","-0.45439999107699658","0.94720000000000004","SIDE","0.50219560201662494","0.64088941855992343","0.29130723953970478","0.50219560201662483","-227.32826994872337","69.575319443683227","49.796285242178499","0.000185899","0.000050318","242"
"243","instanttomatosoup","0.0","0.05560001684854772","0.94719999999999949","-0.39739998836964219","0.94719999999999938","-0.68339999543465757","0.94719999999999938","SIDE","0.50740480019586798","-0.284069883187271","0.63591276048083223","-0.50740480019586842","-171.0193861197817","48.025922212590885","7.0883847224383318","0.005604844","0.000021531","243"
"244","instanttomatosoup","0.0","-0.98540000000000016","1.570796326794897","-0.31639998778197947","0.94719999999999738","-0.46939999178946051","1.3042000071777049","SIDE","3.1441840840267167e-16","0.32071488164576589","0.6311997155381005","0.70620739432235013","-84.888937854085668","-141.42661564579527","31.967660045753828","0.007750829","0.000116552","244"
"245","instanttomatosoup","0.0","-0.98540000000000028","1.5707963267948959","-0.30539998725950618","0.94719999999999938","-0.35639998968187608","0.94719999999999938","SIDE","-3.9068010540023638e-17","-0.30830441082611548","-0.63262929501291665","0.71044251375929224","68.184058236451676","155.16118759183982","65.277232013104765","0.007660307","0.000056543","245"
"246","instanttomatosoup","0.0","-0.49339998966977489","0.94719999999999782","-0.22139998652935769","0.94719999999999971","-0.86839999770242582","0.94719999999999949","SIDE","0.4995067305385944","0.65601167703212893","0.2657719546731408","0.49950673053859423","-158.62356495747233","104.51950007069777","31.995624698930364","0.014649706","0.000075023","246"
"247","instanttomatosoup","0.0","-0.53939999185465692","0.94719999999999938","-0.29339998668953859","0.94719999999999938","-0.7553999955948415","0.94719999999999793","SIDE","0.49488187488008883","-0.31530206893705476","0.64091221329785042","-0.49488187488008861","-180.25592040281822","31.889295816544649","109.64158870770801","0.004595338","0.000029273","247"
"248","instanttomatosoup","0.0","-0.1133999846592474","0.94719999999999938","-0.98539999999999994","1.471200008590523","-0.87939999822489934","1.4752000087805059","SIDE","0.0","0.67275779892044107","-0.22862527546492453","0.70365291686335729","-160.39770477869956","24.917392014180404","67.767325457739091","0.012593787","0.000226242","248"
"249","instanttomatosoup","0.0","-0.98539999999999994","1.2662000053728011","-0.62639999272730851","1.539200011820353","-0.37939999077431869","1.5262000112028731","SIDE","1.9741153839262893e-16","0.65363806827786752","-0.2802955703130498","0.70298767340605628","-133.04049849703668","101.03811177530402","88.053236789604441","0.001929702","0.000145927","249"
"250","instanttomatosoup","0.0","-0.50939999042972672","0.94719999999999971","-0.98539999999999994","0.94719999999999993","-0.26439998857174091","0.94719999999999938","SIDE","0.49950673053859468","-0.26577195467314124","0.65601167703212859","-0.4995067305385944","-177.58436632167673","112.54660925942102","32.036230333284465","0.008947843","0.000023972","250"
"251","instanttomatosoup","0.0","-0.98539999999999961","1.0152000032298221","-0.76439999602231867","1.330200008412656","-0.44939999083951898","1.213200006115065","SIDE","-0.49868013459276173","-0.27777901339355887","0.65228449808591249","0.49868013459276223","144.66102846053414","-52.694197740133184","52.433225160979006","0.017292443","0.000245598","251"
"252","instanttomatosoup","0.0","-0.29639998683202012","0.94719999999999971","-0.74539999511986932","0.94719999999999938","-0.38439999101180627","0.94719999999999949","SIDE","-0.49786032891809651","-0.27912246597456075","0.65296311899479409","0.49786032891809667","161.24495132143778","-51.664425118494343","107.80328721536381","0.005779828","0.000020998","252"
"253","instanttomatosoup","0.0","-0.55139999242462279","0.94719999999999915","-0.29339998668954093","0.94719999999999815","-0.76539999606982001","0.94720000000000126","SIDE","-0.49900980805226181","0.64485726184997472","0.2934919671381867","-0.49900980805226225","168.16182743307144","-34.670228790432901","107.07667305087476","0.014137790","0.000075419","253"
"254","instanttomatosoup","0.0","-0.98539999999999994","0.94720000000000026","-0.76339999597482211","0.94720000000000126","-0.45639999117199392","0.94719999999999949","SIDE","-0.49868013459276184","-0.27777901339355887","0.65228449808591249","0.49868013459276206","196.87107817252121","-65.727174604510054","52.714249066887128","0.013640173","0.000072401","254"
"255","instanttomatosoup","0.0","-0.51239999057221552","0.94719999999999882","-0.98539999999999983","0.94720000000000004","-0.22439998667184549","0.94720000000000004","SIDE","0.49950673053859457","-0.26577195467314124","0.65601167703212837","-0.49950673053859451","-189.84131919570865","125.14828062125602","32.06817842893723","0.006850303","0.000020266","255"
"256","instanttomatosoup","0.0","0.25560001982878677","0.94719999999999815","-0.18939998500944291","1.4662000083530331","-0.98540000000000016","1.3992000084303271","SIDE","0.50098474092346035","-0.3068369292724446","0.63551528507059785","-0.50098474092346068","-160.06406372957736","26.072084971747596","11.139206900341735","0.009616178","0.000071113","256"
"257","instanttomatosoup","0.0","-0.30339998716451422","0.94719999999999815","-0.27039998885672722","0.94719999999999938","-0.98540000000000016","0.94720000000000037","SIDE","0.70710318092285407","-0.25817364645899593","-0.65829435650235291","3.9252511322894311e-17","211.78796546675161","-54.413606445233107","126.45003497207277","0.000116990","0.000042229","257"
"258","instanttomatosoup","0.0","-0.98540000000000016","1.570796326794897","-0.28739998640454512","0.94719999999999949","-0.47239999193195209","1.285200006275252","SIDE","0.71260878556231921","0.63784610381069107","-0.29213193353845729","3.8949247017389779e-17","66.632802644307702","144.8577926143858","29.890625639188553","0.011876255","0.000150792","258"
"259","instanttomatosoup","0.0","-0.98540000000000016","0.94720000000000004","-0.76239999592732821","0.9471999999999986","-0.45539999112449769","0.94719999999999849","SIDE","0.49800336215688695","-0.27084047456816723","0.65622461085863204","-0.49800336215688695","-195.77553810599738","95.436508993311989","87.992553823044631","0.005281670","0.000027140","259"
"260","instanttomatosoup","0.0","-0.95039999833758937","0.94719999999999938","-0.66639999462719923","0.94719999999999949","-0.41039998898710528","0.94720000000000026","SIDE","0.50904886967247032","0.28225752386514152","-0.63408925774836988","-0.5090488696724712","163.86246886588407","-57.657683595297549","5.6884451762073676","0.000340249","0.000024257","260"
"261","instanttomatosoup","0.0","-0.98540000000000016","1.570796326794897","-0.30239998711701138","0.94719999999999938","-0.49939998995476531","1.3422000089825989","SIDE","3.9311857674870542e-16","0.31094262183734606","0.63626115110469028","0.70603571688679567","-83.194918393552442","-141.41701789161206","66.794203978192911","0.007240369","0.000101729","261"
"262","instanttomatosoup","0.0","-0.96439999900255335","0.94719999999999938","-0.68039999529216422","0.94720000000000004","-0.50039999000226165","0.94719999999999938","SIDE","-0.49868013459276173","-0.27777901339355887","0.65228449808591249","0.49868013459276223","167.76775355927899","-61.998503495547027","52.56456297282309","0.006748371","0.000046019","262"
"263","instanttomatosoup","0.0","-0.98539999999999994","0.94719999999999938","-0.76439999602232067","0.94719999999999949","-0.45239999098200462","0.94720000000000337","SIDE","0.50186779042226315","-0.64846953364827509","-0.27521756085566007","0.50186779042226348","183.98624888733778","-91.621107644382406","84.989904421067735","0.007391462","0.000038482","263"
"264","instanttomatosoup","0.0","-0.47839999221693802","0.94719999999999938","-0.22639998676682929","0.94719999999999938","-0.87539999803490676","0.94719999999999949","SIDE","0.50072535223323966","0.27594831494586181","-0.64992366531796286","-0.50072535223323988","147.98588389320025","-100.40175547692564","31.195776690820413","0.014775061","0.000085365","264"
"265","instanttomatosoup","0.0","0.22260001826137371","0.9471999999999986","-0.98540000000000016","1.446200010662708","-0.90739999629521106","1.488200009397979","SIDE","2.3465561944237355e-16","-0.65351369425723915","0.26316473552824982","0.70969301348724168","122.32982522894329","-89.851306953828455","65.443287162273961","0.011696053","0.000171839","265"
"266","instanttomatosoup","0.0","-0.2473999877642882","0.94719999999999938","-0.98540000000000028","1.1502000031227231","-0.043399984594040403","1.14720000623985","SIDE","-0.49900980805226181","-0.29349196713818676","0.64485726184997472","0.49900980805226214","150.17183686087486","-27.933868655008489","107.00066204310873","0.009279159","0.000061709","266"
"267","instanttomatosoup","0.0","-0.98539999999999994","1.570796326794897","-0.66739999467469646","1.5707963267948959","-0.26839998876172999","0.94719999999999938","SIDE","0.70620739432235013","-0.63119971553810061","0.32071488164576573","3.9302301050333965e-17","-81.536867723444232","-134.8293985099144","31.948847525582163","0.005240540","0.000020277","267"
"268","instanttomatosoup","0.0","-0.28039998933170168","0.94719999999999993","-0.96739999914504748","0.94719999999999938","-0.57539999356456262","0.94719999999999949","SIDE","0.0","0.67150159525516406","-0.23111769452526318","0.70403850665080581","-190.62831248260977","35.866022349497321","53.12504277021435","0.009434754","0.000052836","268"
"269","instanttomatosoup","0.0","-0.98539999999999961","1.0202000034673131","-0.78639999380763781","1.3662000068629121","-0.45039999088700422","1.290200006512741","SIDE","0.50138887597217519","0.64795757625812533","0.27815349983851267","0.50138887597217496","-156.69320994950135","53.668402254291415","50.885200802447535","0.020178598","0.000248614","269"
"270","instanttomatosoup","0.0","-0.6463999936772532","1.570796326794897","-0.1973999853894077","1.4882000093979759","-0.98540000000000028","1.404200008667815","SIDE","0.49755774911577394","-0.31404911908088917","0.63737408434467013","-0.49755774911577388","-160.11367196843463","24.820868302987066","67.764401914000644","0.008997856","0.000115887","270"
"271","instanttomatosoup","0.0","-0.96439999900255458","0.94719999999999915","-0.68239999538716001","0.94719999999999949","-0.49239998962226111","0.94719999999999949","SIDE","0.50138887597217507","0.64795757625812533","0.27815349983851284","0.50138887597217507","-179.82671800051088","62.905809947552349","50.746620997364815","0.008402486","0.000070303","271"
"272","instanttomatosoup","0.0","-0.31139998754448711","0.94719999999999815","0.060600017086046627","1.4092000089053061","-0.98540000000000028","1.570796326794897","SIDE","0.50073162053908415","-0.2318507011092428","0.66691899116741149","0.50073162053908404","-83.76910131561732","-157.14109496981337","11.296510091206317","0.002747997","0.000062384","272"
"273","instanttomatosoup","0.0","-0.55439999256711869","1.535200011630353","0.01460001816078707","1.18620000483263","-0.98540000000000016","1.230200006922517","SIDE","0.4995067305385944","0.65601167703212893","0.2657719546731408","0.49950673053859423","-135.68458723368201","94.808218604817995","31.946499573678746","0.016304005","0.000171099","273"
"274","instanttomatosoup","4.4408920985006252e-16","-0.79339999414012119","0.94719999999999949","-0.71039999345746219","0.94719999999999649","-0.4543999910769978","0.94720000000000459","SIDE","0.50186779042226315","-0.64846953364827509","-0.27521756085566007","0.50186779042226348","207.08124656114092","-100.95354662147732","84.803450175197966","0.000558077","0.000042139","274"
"275","instanttomatosoup","0.0","-0.28239998942669348","0.94719999999999915","-0.65339999400973159","0.94720000000000115","-0.43239999003205531","0.94719999999999938","SIDE","0.49317005284956755","0.65585830657067257","0.28881911232977442","0.49317005284956772","-167.25391759526013","56.513452127406431","110.60473588756749","0.008311228","0.000036858","275"
"276","instanttomatosoup","0.0","-0.44839999079201859","0.94719999999999915","-0.20239998562689751","0.94719999999999949","-0.90539999620021006","0.94719999999999938","SIDE","0.50072535223323955","0.27594831494586203","-0.64992366531796286","-0.50072535223323988","147.31736314091839","-103.39187846967856","31.194324934937786","0.007681187","0.000054978","276"
