ipa320/cob_manipulation/cob_grasp_generation/files/database/hotpot/hotpot.csv
id,object,sdh_knuckle_joint,sdh_finger_12_joint,sdh_finger_13_joint,sdh_finger_22_joint,sdh_finger_23_joint,sdh_thumb_2_joint,sdh_thumb_3_joint,direction,qw,qx,qy,qz,pos-x,pos-y,pos-z,eps_l1,vol_l1,
0,hotpot,0,-0.1123999846,0.47,-0.6473999937,0.981000008,-0.3823999909,0.8420000079,SIDE,0.4740175037,0.5894638029,0.4507185789,0.4740175037,-163.9401298983,17.3896414923,131.131063578,0.01366634,0.000098224,0
1,hotpot,0,-0.1123999846,0.9472,-0.6473999937,0.9812000016,-0.4163999893,0.9472,SIDE,0.4740175037,0.5894638029,0.4507185789,0.4740175037,-163.9401298983,17.3896414923,131.131063578,0.011964324,0.000060834,1
2,hotpot,0,0.0066000178,0.47,-0.4953999898,0.47,-0.3343999886,0.47,SIDE,0.4740175037,0.5894638029,0.4507185789,0.4740175037,-213.2465955035,23.9664079674,136.1925448101,0.004370998,0.000016313,2
3,hotpot,0,-0.1733999875,0.9472,-0.6643999945,0.9472,-0.5073999903,0.9472,SIDE,0.4740175037,0.5894638029,0.4507185789,0.4740175037,-213.2465955035,23.9664079674,136.1925448101,0.006628737,0.000018773,3
4,hotpot,0,-0.6853999923,0.9472,-0.6023999916,0.9472,-0.4923999896,0.9472,SIDE,0.5048916447,-0.4295487461,0.5528623056,-0.5048916447,-172.0682654803,16.9785278454,62.7862293542,0.00787462,0.000025776,4
5,hotpot,0,-0.6503999939,0.6810000035,-0.6193999924,0.8880000068,-0.3643999901,0.7530000069,SIDE,0.5048916447,0.5528623056,0.4295487461,0.5048916447,-170.2826256182,16.7543919229,62.8216214746,0.024640559,0.000230644,5
6,hotpot,0,-0.7453999951,0.9472,-0.6413999934,0.9472,-0.4263999897,0.9472,SIDE,0.5048916447,0.5528623056,0.4295487461,0.5048916447,-170.2826256182,16.7543919229,62.8216214746,0.007281577,0.000029254,6
7,hotpot,0,1.0326000307,1.5707963268,-0.4413999905,0.9472,-0.2643999886,0.9472,SIDE,0.7088136056,0.7033514658,-0.0536655196,-1.9578895915161871e-16,10.3981463321,175.1097818562,115.2257138837,0.000435493,0.0000001,7
8,hotpot,0,-0.0393999844,0.9472,-0.4263999897,0.9472,-0.2683999888,0.9472,SIDE,2.8129115140273947e-16,0.0720840966,0.7153723898,0.695015271,-12.590760227,-179.0144305353,120.2804478821,0.000123367,0.00000397,8
9,hotpot,3.3306690738754701e-16,-0.5343999916,0.47,-0.4593999913,0.47,-0.3683999903,0.47,SIDE,0.5048916447,-0.4295487461,0.5528623056,-0.5048916447,-221.6693786466,23.2045264312,61.8031147808,0.00906396,0.000029321,9
10,hotpot,0,-0.6383999933,0.8190000068,-0.5033999901,0.6540000055,-0.4093999889,0.6900000039,SIDE,0.5048916447,-0.4295487461,0.5528623056,-0.5048916447,-172.0682654803,16.9785278454,62.7862293542,0.020635922,0.00017956,10
11,hotpot,0,-0.5593999928,0.47,-0.4923999896,0.47,-0.3373999888,0.47,SIDE,0.5048916447,0.5528623056,0.4295487461,0.5048916447,-219.8837387846,22.9803905087,61.8385069012,0.010840118,0.000081152,11
12,hotpot,0,-0.7053999932,0.9472,-0.6333999931,0.9472,-0.542399992,0.9472,SIDE,0.5048916447,-0.4295487461,0.5528623056,-0.5048916447,-221.6693786466,23.2045264312,61.8031147808,0.012072565,0.000046481,12
13,hotpot,0,-0.7333999945,0.9472,-0.6623999944,0.9472,-0.5113999905,0.9472,SIDE,0.5048916447,0.5528623056,0.4295487461,0.5048916447,-219.8837387846,22.9803905087,61.8385069012,0.010481655,0.000082662,13
14,hotpot,0,1.0326000307,1.5707963268,-0.43139999,0.9220000084,-0.0833999865,0.47,SIDE,0.7088136056,0.7033514658,-0.0536655196,-1.9578895915161871e-16,10.3981463321,175.1097818562,115.2257138837,0.005869705,0.000016663,14
15,hotpot,0,-0.6593999943,0.8670000091,-0.5543999926,0.9840000081,-0.452399991,0.9870000083,SIDE,0.4740175037,-0.4507185789,0.5894638029,-0.4740175037,-163.4470652115,17.3238738234,131.0804487625,0.012050903,0.000165564,15
16,hotpot,0,-0.6893999925,0.9472,-0.5543999926,0.9842000018,-0.452399991,0.9862000019,SIDE,0.4740175037,-0.4507185789,0.5894638029,-0.4740175037,-163.4470652115,17.3238738234,131.0804487625,0.016527479,0.000137196,16
17,hotpot,0,-0.0393999844,0.47,-0.3873999879,0.8480000082,-0.0873999834,0.47,SIDE,2.9099084627869602e-16,0.0720840966,0.7153723898,0.695015271,-12.590760227,-179.0144305353,120.2804478821,0.008286398,0.000048896,17
18,hotpot,0,-0.7093999934,0.9472,-0.6043999917,0.9472,-0.5353999917,0.9472,SIDE,0.4740175037,-0.4507185789,0.5894638029,-0.4740175037,-212.7535308166,23.9006402986,136.1419299947,0.011035999,0.000059002,18
19,hotpot,0,-0.5363999917,0.47,-0.43239999,0.47,-0.3603999899,0.47,SIDE,0.4740175037,-0.4507185789,0.5894638029,-0.4740175037,-212.7535308166,23.9006402986,136.1419299947,0.007360594,0.000036141,19
20,hotpot,0,-0.4473999907,0.9472,-0.3913999881,0.9472,-0.3103999875,0.9472,SIDE,-1.1711888032574855e-16,-0.0539154851,-0.7011635775,0.7109590411,10.4054662734,173.857245722,64.4417512832,0.008246577,0.000011469,20
21,hotpot,0,-0.6493999938,0.9472,-0.1793999878,0.9472,-0.521399991,0.9472,TOP,0.0179143395,0.6818977212,0.731008653,-0.0179143395,0.13418568,7.6401626733,329.9028700741,0.004167731,0.00001487,21
22,hotpot,0,-0.3043999872,0.5670000046,-0.2123999861,0.47,-0.1323999856,0.47,SIDE,-9.7599066938123793e-17,-0.0539154851,-0.7011635775,0.7109590411,10.4054662734,173.857245722,64.4417512832,0.008988802,0.000070788,22
23,hotpot,0,-0.4903999895,0.9472,-0.4333999901,0.9472,-0.2773999892,0.9472,SIDE,0.7109590411,0.7011635775,-0.0539154851,-8.7839160244311422e-17,11.0494388749,182.2320221422,64.3499769454,0.006117228,0.000005536,23
24,hotpot,0,-0.2683999888,0.4970000013,1.0986000338,1.5707963268,-0.1403999859,0.47,SIDE,0,-0.0536655196,-0.7033514658,0.7088136056,10.2992453148,173.8135645452,115.2319973757,0.000002472,0.000039991,24
25,hotpot,0,-0.4463999907,0.9472,-0.4813999924,0.9472,-0.2683999888,0.9472,SIDE,0.5932451103,-0.8049488834,-0.0108413149,1.3743392393873133e-16,2.3941079965,-191.6677130379,109.7997923967,0.007785867,0.000005679,25
26,hotpot,0,-0.4693999918,0.47,-0.1533999866,0.47,-0.3583999898,0.47,TOP,0.0179143395,0.731008653,-0.6818977212,0.0179143395,0.1396403777,7.4832326995,326.8068493331,0.00480988,0.000031864,26
27,hotpot,0,-0.6363999932,0.9472,-0.3343999886,0.9472,-0.5343999916,0.9472,TOP,0.0179143395,0.731008653,-0.6818977212,0.0179143395,0.1396403777,7.4832326995,326.8068493331,0.011993083,0.000041029,27
28,hotpot,0,-0.4713999919,0.8990000073,-0.341399989,0.7080000048,-0.0963999839,0.47,SIDE,0.7109590411,0.7011635775,-0.0539154851,-8.7839160244311422e-17,11.0494388749,182.2320221422,64.3499769454,0.006139416,0.000086031,28
29,hotpot,0,-0.2653999886,0.47,-0.3023999871,0.47,-0.0893999835,0.47,SIDE,0.5932451103,-0.8049488834,-0.0108413149,1.3743392393873133e-16,2.3941079965,-191.6677130379,109.7997923967,0.00805708,0.000009143,29
30,hotpot,0,-0.4033999887,0.9472,-0.4513999909,0.9472,-0.3163999878,0.9472,SIDE,0.5932451103,-0.8049488834,-0.0108413149,1.3743392393873133e-16,3.0372636991,-239.4209119551,124.6058163029,0.008530119,0.000011632,30
31,hotpot,0,-0.2233999866,0.47,-0.2703999889,0.47,-0.1353999857,0.47,SIDE,0.5932451103,-0.8049488834,-0.0108413149,1.3743392393873128e-16,3.0372636991,-239.4209119551,124.6058163029,0.008035922,0.000016026,31
32,hotpot,0,1.0326000307,1.5707963268,-0.2893999865,0.47,-0.0753999861,0.47,SIDE,0.7088136056,0.7033514658,-0.0536655196,-1.9578895915161871e-16,14.2020313741,224.9642907082,114.9840411316,0.001026821,0.000000465,32
33,hotpot,0,-0.4133999891,0.9472,-0.4953999898,0.9472,-0.300399987,0.9472,TOP,0.0253347019,0.9990756783,0.0347266729,-5.5453988336144165e-17,0.1547727645,7.0478785953,318.2178888932,0.007362713,0.000009298,33
34,hotpot,0,1.0326000307,1.5707963268,-0.2763999891,0.47,-0.1043999842,0.47,SIDE,2.8129115140273947e-16,0.0720840966,0.7153723898,0.695015271,-17.6007150186,-228.733904072,121.9758251913,0.000494951,0.00000026,34
35,hotpot,0,-0.2363999872,0.47,-0.321399988,0.47,-0.1303999855,0.47,TOP,0.0253347019,0.9990756783,0.0347266729,-5.5671029386383472e-17,0.1547727645,7.0478785953,318.2178888932,0.005292043,0.000006673,35
36,hotpot,0,-0.411399989,0.9472,-0.4923999896,0.9472,-0.299399987,0.9472,TOP,1.6647048553355215e-16,-0.0347266729,0.9990756783,-0.0253347019,0.2575322261,4.0915205546,259.892856439,0.00727844,0.000004852,36
37,hotpot,0,1.0326000307,1.5707963268,-0.4663999916,0.9472,-0.253399988,0.9472,SIDE,0.7088136056,0.7033514658,-0.0536655196,-1.9578895915161871e-16,14.2020313741,224.9642907082,114.9840411316,0.000726594,0.000000227,37
38,hotpot,0,-0.231399987,0.47,-0.4613999914,0.8690000092,-0.1183999849,0.47,TOP,1.6657900605867181e-16,-0.0347266729,0.9990756783,-0.0253347019,0.2575322261,4.0915205546,259.892856439,0.009565531,0.00004961,38
39,hotpot,0,-0.4783999922,0.47,-0.0323999841,0.47,-0.3493999893,0.47,TOP,0.0179143395,0.6818977212,0.731008653,-0.0179143395,0.13418568,7.6401626733,329.9028700741,0.00006242,0.000015025,39
40,hotpot,0,-0.390399988,0.9590000102,-0.3063999873,0.6320000044,-0.1453999862,0.47,SIDE,3.8899064754870099e-16,-0.0108413149,0.8049488834,0.5932451103,2.3285061149,-186.7968867557,108.2895779605,0.011472546,0.000105301,40
41,hotpot,3.2515223152840278e-16,-0.631399993,0.8510000083,-0.0963999839,0.47,-0.4033999887,0.691000004,TOP,0.0179143395,0.6818977212,0.731008653,-0.0179143395,0.2221646707,5.1090342223,279.9670547863,0.021107126,0.000179118,41
42,hotpot,0,-0.3963999883,0.9472,-0.4843999925,0.9472,-0.3173999878,0.9472,TOP,0.0253347019,0.9990756783,0.0347266729,-5.5671029386383472e-17,0.2427517553,4.5167501443,268.2820736053,0.00702897,0.000008577,42
43,hotpot,0,-0.2413999875,0.5260000027,-0.4693999918,0.9100000079,-0.1373999858,0.47,TOP,0.0253347019,0.9990756783,0.0347266729,-5.5671029386383472e-17,0.2427517553,4.5167501443,268.2820736053,0.005774696,0.000081056,43
44,hotpot,0,-0.3953999883,0.9472,-0.4793999923,0.9472,-0.3163999878,0.9472,TOP,1.6647048553355215e-16,-0.0347266729,0.9990756783,-0.0253347019,0.1695532353,6.6226490055,309.8286717269,0.009264734,0.000018815,44
45,hotpot,0,-0.2153999862,0.47,-0.3033999872,0.47,-0.1373999858,0.47,TOP,1.6647048553355215e-16,-0.0347266729,0.9990756783,-0.0253347019,0.1695532353,6.6226490055,309.8286717269,0.006862481,0.000010932,45
46,hotpot,0,-0.390399988,0.9592000006,-0.4243999897,0.9472,-0.3253999882,0.9472,SIDE,3.9006818396850345e-16,-0.0108413149,0.8049488834,0.5932451103,2.3285061149,-186.7968867557,108.2895779605,0.005110925,0.000047558,46
47,hotpot,0,-0.5063999903,0.9472,-0.452399991,0.9472,-0.2623999885,0.9472,SIDE,0.7109590411,0.7011635775,-0.0539154851,-8.7839160244311422e-17,14.8826090314,232.0818806104,63.8037011384,0.008090476,0.000008174,47
48,hotpot,0,-0.4363999902,0.9472,-0.384399991,0.9472,-0.3353999887,0.9472,SIDE,-9.7599066938123793e-17,-0.0539154851,-0.7011635775,0.7109590411,14.2386364299,223.7071041902,63.8954754761,0.007683428,0.000006375,48
49,hotpot,0,-0.6683999947,0.9472,-0.2693999888,0.9472,-0.50139999,0.9472,TOP,0.0179143395,0.6818977212,0.731008653,-0.0179143395,0.2221646707,5.1090342223,279.9670547863,0.004591272,0.000015763,49
50,hotpot,0,-0.4393999904,0.9472,-0.4773999922,0.9472,-0.2903999865,0.9472,SIDE,3.9006818396850345e-16,-0.0108413149,0.8049488834,0.5932451103,2.9716618175,-234.550085673,123.0956018668,0.006635375,0.000009349,50
51,hotpot,0,-0.2563999882,0.47,-0.2043999857,0.47,-0.1543999866,0.47,SIDE,-1.0735897363193618e-16,-0.0539154851,-0.7011635775,0.7109590411,14.2386364299,223.7071041902,63.8954754761,0.0084296,0.000015592,51
52,hotpot,0,-0.3313999885,0.47,-0.2763999891,0.47,-0.0853999833,0.47,SIDE,0.7109590411,0.7011635775,-0.0539154851,-8.7839160244311422e-17,14.8826090314,232.0818806104,63.8037011384,0.004835837,0.000006744,52
53,hotpot,0,-0.2613999884,0.47,1.0986000338,1.5707963268,-0.1263999853,0.47,SIDE,0.695015271,-0.7153723898,0.0720840966,5.9902803810583283e-17,-17.430376545,-227.0434418663,121.9181823592,0.00022632,0.000001819,53
54,hotpot,0,-0.6223999925,0.9572000005,-0.272399989,0.9472,-0.5523999925,0.9472,TOP,0.0179143395,0.731008653,-0.6818977212,0.0179143395,0.2276193685,4.9521042486,276.8710340452,0.010708451,0.00005529,54
55,hotpot,0,-0.6223999925,0.9570000101,-0.0973999839,0.47,-0.4563999912,0.6960000042,TOP,0.0179143395,0.731008653,-0.6818977212,0.0179143395,0.2276193685,4.9521042486,276.8710340452,0.019245632,0.000100759,55
56,hotpot,0,-0.2663999887,0.47,-0.3033999872,0.47,-0.1173999848,0.47,SIDE,3.8899064754870099e-16,-0.0108413149,0.8049488834,0.5932451103,2.9716618175,-234.550085673,123.0956018668,0.002376223,0.000011532,56
57,hotpot,0,-0.4403999904,0.9472,1.0986000338,1.5707963268,-0.3073999874,0.9472,SIDE,0.695015271,-0.7153723898,0.0720840966,5.9902803810583283e-17,-17.430376545,-227.0434418663,121.9181823592,0.000325529,0.000002144,57
