ipa320/cob_manipulation/cob_grasp_generation/files/database/hotpot/sdh_hotpot_orig.csv
"id","object","sdh_knuckle_joint","sdh_finger_12_joint","sdh_finger_13_joint","sdh_finger_22_joint","sdh_finger_23_joint","sdh_thumb_2_joint","sdh_thumb_3_joint","direction","qw","qx","qy","qz","pos-x","pos-y","pos-z","eps_l1","vol_l1"
"0","hotpot","1.6653345369377351e-16","-0.51639999076221532","0.94719999999998949","1.098600033792112","1.570796326794897","-0.90439999615271327","0.94719999999999938","SIDE","0.49641523282247418","-0.50214861449013526","0.50496594163295283","0.49641523282247429","-0.10693019556251571","-261.61973101586898","33.510422374172009","0.000001726","0.000000007","0"
"1","hotpot","0.0","1.032600030657274","1.570796326794897","-0.92739999724514754","0.94719999999999938","-0.53339999156967388","0.94719999999999949","SIDE","-0.48211480771165782","0.56924086618994119","0.45945126034175571","0.48211480771165804","-21.057774635024899","-251.81384418162668","64.78388762309784","0.000011359","0.000000042","1"
"2","hotpot","0.0","1.032600030657274","1.5707963267948959","-0.49939998995475332","0.94719999999999993","-0.86239999741744233","0.94719999999999938","SIDE","0.5001368439497651","-0.43898515673652799","0.55409232697533595","0.50013684394976499","-37.741186657262119","-261.61088379293852","30.368349911032656","0.000000201","0.000005870","2"
"3","hotpot","0.0","-0.92339999705515863","0.9471999999999936","1.0986000337921169","1.570796326794897","-0.52239999104719781","0.94719999999999949","SIDE","-0.48901633094284919","0.55255219015914592","0.46520117507667391","0.48901633094284963","-30.457983012205368","-251.49615947833271","59.336918715926167","0.002139462","0.000007567","3"
"4","hotpot","0.0","-0.73039999440741676","0.94719999999999727","-0.66639999462720245","0.94719999999999938","-0.79739999433010311","0.94720000000000037","SIDE","1.1578856997403315e-16","-0.69166916991304728","0.066705485598410302","0.71912734448279492","178.75733492648595","-1.6606397138574382","45.030458710774717","0.011376419","0.000072795","4"
"5","hotpot","0.0","-0.71039999345745486","0.94719999999999882","-0.6073999918248506","0.94719999999999938","-0.87239999789241973","0.94719999999999938","SIDE","1.7623563789002881e-16","0.70871074525952504","-0.10197528614542563","0.69809033840130408","-177.70995489486975","41.146888528660774","90.056845140775835","0.009692901","0.000076035","5"
"6","hotpot","0.0","-0.93039999738764934","1.5072000103004259","-0.86939999774992582","1.570796326794897","-0.98540000000000016","1.458200007973053","SIDE","1.1578856997403313e-16","-0.69166916991304717","0.066705485598410302","0.71912734448279492","153.97695593389292","0.7292126692139822","45.884579645153607","0.011325925","0.000333003","6"
"7","hotpot","0.0","-0.79739999433011377","1.2972000068452161","-0.6783999951971712","1.3902000080028529","-0.98540000000000028","1.237200007254988","SIDE","1.7623563789002881e-16","0.70871074525952504","-0.10197528614542563","0.69809033840130408","-153.06180263784421","37.600304261131875","89.425631747535704","0.024561076","0.000449746","7"
"8","hotpot","0.0","-0.72739999426492075","0.94719999999999938","-0.60439999168235869","0.94719999999999938","-0.86939999774992438","0.9471999999999986","SIDE","1.1704614159766387e-16","0.71140086901035149","-0.12018120241050162","0.69243431613293294","-175.80995916115481","48.924345543371437","92.640183920960979","0.010514716","0.000068740","8"
"9","hotpot","0.0","-0.92439999710265741","1.471200008590515","-0.80239999456759914","1.489200009445476","-0.98540000000000028","1.3552000063404439","SIDE","0.69549656755429257","0.098865470086349411","0.71169526016744156","7.9815133274434818e-17","-155.1763888299341","-2.2144301427053206","54.927815997636074","0.029612505","0.000440495","9"
"10","hotpot","0.0","-0.90839999634270008","0.94719999999999815","-0.8013999945201068","0.9472000000000016","-0.67539999505467641","0.94720000000000026","SIDE","0.69549656755429257","0.098865470086349411","0.71169526016744156","3.9907566637217409e-17","-183.29057040608677","1.7613074551692252","71.239176938902247","0.010398785","0.000054337","10"
"11","hotpot","0.0","-0.71039999345746152","1.135200005669895","-0.62139999248981581","1.2312000069700211","-0.98540000000000028","1.1792000045001441","SIDE","0.7299253105717074","-0.10137018514839709","-0.67596828812435894","-3.8025226983689078e-17","159.73686440906437","-42.279353125075744","76.412372581193665","0.023532977","0.000321409","11"
"12","hotpot","0.0","-0.74039999488238095","0.94719999999999882","-0.64739999372474866","0.94719999999999949","-0.82539999566004252","0.94719999999999949","SIDE","0.69549656755429257","0.098865470086349438","0.71169526016744156","5.986134995582611e-17","-179.83637266958394","1.2112227049125841","55.739111009232346","0.011377629","0.000130455","12"
"13","hotpot","0.0","-0.87539999803490987","0.94719999999999938","-0.80239999456759226","0.94719999999999949","-0.67639999510217585","0.94719999999999938","SIDE","0.73063499413645505","-0.073880527672251922","-0.67875928942010955","-1.4245609557974388e-16","177.57739345624901","-38.417184378843004","54.92246668966682","0.011143825","0.000086535","13"
"14","hotpot","0.0","-0.50139999004975255","0.94719999999999427","1.098600033792114","1.570796326794897","-0.98539999999999994","0.94719999999999949","SIDE","0.49641523282247418","-0.50214861449013526","0.50496594163295283","0.49641523282247429","-0.037253731625211534","-236.71237113426631","33.154516601975018","0.000414504","0.000002468","14"
"15","hotpot","0.0","-0.68839999241252203","0.94719999999999915","-0.59839999139737632","0.94719999999999882","-0.88439999846238759","0.94719999999999938","SIDE","0.72992531057170718","-0.10137018514839709","-0.67596828812435905","-3.8025226983689078e-17","184.31836939607791","-45.965667639435551","74.778727003155907","0.010748737","0.000058263","15"
"16","hotpot","0.0","-0.98540000000000016","1.2622000051828099","-0.93339999753013814","1.3392000088401119","-0.8543999970374635","1.5232000110603949","SIDE","0.73063499413645494","-0.073880527672251922","-0.67875928942010966","-1.4245609557974388e-16","152.87039553607221","-35.727915779514817","56.607752473467485","0.024060418","0.000427978","16"
"17","hotpot","0.0","-0.81439999513756189","1.28120000608526","-0.69139999255500151","1.4422000104727259","-0.9854000000000005","1.2372000072549929","SIDE","1.1704614159766387e-16","0.71140086901035149","-0.12018120241050166","0.69243431613293294","-151.26870815703813","44.77844527418047","91.617144278096518","0.026608777","0.000466120","17"
"18","hotpot","0.0","-0.49539998976476418","0.9471999999999976","1.09860003379212","1.570796326794897","-0.98540000000000016","0.94719999999999949","SIDE","0.50279797593593567","-0.55327286756681671","-0.43390958136902724","-0.50279797593593556","-37.288561477947795","-248.30045143738033","103.5896574897217","0.001026581","0.000002788","18"
"19","hotpot","0.0","-0.98540000000000028","0.94719999999999938","-0.93939999781511507","0.94719999999999949","-0.51239999057222985","0.94719999999999949","SIDE","0.69257663023260041","0.089375347037872102","0.71578604247185207","-6.0113728367445638e-17","-220.62258686401572","4.2332022335929507","94.136581717060324","0.000440937","0.000077831","19"
"20","hotpot","0.0","-0.94039999786261586","0.94719999999999815","-0.86739999765492859","0.94719999999999915","-0.62739999277480529","0.9472000000000016","SIDE","2.6859575384676128e-16","-0.59402282292234654","0.07596962214391903","0.80085298423535678","194.66560954788335","-4.62931779968212","14.341923563771843","0.009716059","0.000055628","20"
"21","hotpot","0.0","-0.54139999194965605","0.94719999999999827","-0.46639999164696672","0.94719999999999949","-0.98540000000000016","0.94719999999999949","SIDE","1.9361107709981252e-16","0.71678687065306834","-0.097375781381991183","0.69045965795231523","-212.19831524187785","43.437655592820128","115.21706926417924","0.010758362","0.000083582","21"
"22","hotpot","0.0","-0.9323999974826408","1.5152000106804051","-0.87139999784492128","1.570796326794897","-0.98539999999999994","1.462200008163042","SIDE","1.0613952247619707e-16","-0.69166916991304739","0.066705485598410316","0.71912734448279481","154.25722470392768","4.6764354082928632","45.888008472884017","0.023534423","0.000428919","22"
"23","hotpot","0.0","-0.98540000000000016","0.94719999999999938","-0.91339999658018745","0.94719999999999949","-0.53839999180715647","0.94719999999999938","SIDE","9.7971953276532438e-17","0.70825309405863668","-0.12761660851430948","0.69432813279289896","-211.61832902404646","65.445113906997292","57.716794939151065","0.005172576","0.000053847","23"
"24","hotpot","0.0","-0.98539999999999994","0.94720000000000026","-0.92739999724514788","0.94719999999999938","-0.54839999228213421","0.94719999999999938","SIDE","0.71771749776228722","-0.095444382154102669","-0.68976225130189817","-3.8672006328626177e-17","209.82645982067737","-47.753898160033081","44.574728651828721","0.012725567","0.000146691","24"
"25","hotpot","0.0","-0.75339999549985137","0.94719999999999815","-0.70239999307747603","0.94719999999999949","-0.28639998635704872","1.570796326794897","TOP","-1.4320777849321142e-16","0.96906662150843381","-0.10077246435515605","-0.22528824537915543","63.140450950698856","13.105276866839027","216.26344142885679","0.016241172","0.000252039","25"
"26","hotpot","0.0","-0.98540000000000061","0.94720000000000026","-0.92039999691266539","0.94719999999999971","-0.5463999921871362","0.94719999999999915","SIDE","1.5604042295200326e-16","0.71149706186495798","-0.098955192110641091","0.69568656801168616","-212.78600364624984","45.076302856437522","56.893482670000679","0.007896307","0.000101639","26"
"27","hotpot","0.0","-0.93139999743514024","0.94719999999999782","-0.89339999563023031","0.94719999999999949","-0.61139999201484452","0.94719999999999971","SIDE","1.13847840099801e-16","-0.56693944601391111","0.039552906967406987","0.82280935343727546","191.03143708261962","-2.8071518415033738","1.1387436378102995","0.015861896","0.000141317","27"
"28","hotpot","0.0","-0.52439999114219171","0.94719999999999849","-0.46839999174196068","0.94719999999999949","-0.98540000000000028","0.94719999999999949","SIDE","0.70481806243260181","-0.084865934198884191","-0.70429345594099024","9.8449433602175287e-18","215.86477933690907","-44.79886650875865","107.14281298765479","0.011889465","0.000112369","28"
"29","hotpot","0.0","-0.92939999734014611","0.94719999999999882","-0.81439999513756378","0.94719999999999938","-0.66539999457970511","0.94719999999999938","SIDE","1.3636235272707241e-16","0.71239981352576676","-0.10980538411210719","0.69313006233206009","-177.03768337526782","42.611400934979841","72.302107232729455","0.010561599","0.000054207","29"
"30","hotpot","0.0","-0.92939999734014489","0.94719999999999849","-0.81339999509007122","0.94719999999999938","-0.66339999448470477","0.94719999999999882","SIDE","1.3636235272707241e-16","0.71239981352576676","-0.10980538411210719","0.69313006233206009","-175.90598943854084","51.265528303590997","72.309935519894168","0.009389267","0.000043844","30"
"31","hotpot","0.0","-0.98539999999999994","1.15220000321772","-0.92439999710265464","1.275200005800279","-0.76539999606982101","1.3392000088401119","SIDE","0.69549656755429257","0.098865470086349452","0.71169526016744156","5.986134995582611e-17","-158.63058656643736","-1.6643453924486808","70.427881927305975","0.030872461","0.000568022","31"
"32","hotpot","0.0","-0.56939999327957869","0.94719999999999815","-0.493399989669769","0.94720000000000448","-0.98539999999999994","0.94719999999999971","SIDE","0.70106196497385853","0.092351457984426039","0.70709499324711889","-7.9181518902295228e-17","-210.24229619378343","3.7859017009118521","33.740588314802075","0.010921589","0.000071519","32"
"33","hotpot","0.0","-0.98540000000000016","0.97620000137741814","-0.9723999993825343","1.128200005337415","-0.55639999266211038","0.94719999999999949","SIDE","1.05414666759075e-16","-0.56693944601391111","0.039552906967406987","0.82280935343727546","167.79125008620289","-1.1857847614080987","9.9576425012256475","0.029241377","0.000328386","33"
"34","hotpot","0.0","-0.64339999353476662","0.9471999999999986","-0.58139999384954666","0.94719999999999915","-0.90239999605770582","0.94719999999999949","SIDE","1.6352481224892627e-16","-0.68933402079096251","0.0667089518449238","0.72136573492502165","183.58714086530136","1.7570908277697592","34.450094653013188","0.019451478","0.000141084","34"
"35","hotpot","0.0","-0.72739999426491209","0.94719999999999427","-0.66539999457969967","0.94719999999999938","-0.79639999428262054","0.9472000000000016","SIDE","1.1578856997403315e-16","-0.69166916991304728","0.066705485598410302","0.71912734448279492","179.03760369652198","2.2865830252216681","45.033887538505127","0.011773582","0.000109968","35"
"36","hotpot","0.0","-0.98539999999999994","0.94719999999999938","-0.94839999824259036","0.94719999999999849","-0.49639998981226457","0.94719999999999938","SIDE","2.1332441973252596e-16","-0.69441736826834077","0.075474417351407308","0.71560333353942474","224.84557761756028","-4.515539667135994","80.918962100454905","0.000490063","0.000066246","36"
"37","hotpot","0.0","-0.5623999929470983","0.94719999999999849","-0.50939999042973361","0.94720000000000126","-0.98540000000000028","0.94719999999999949","SIDE","1.6352481224892627e-16","-0.68933402079096251","0.066708951844923786","0.72136573492502165","204.62286847664228","-0.32079784145983381","22.925334684014157","0.011342870","0.000088388","37"
"38","hotpot","0.0","1.0326000306572769","1.570796326794897","-0.98540000000000016","0.94719999999999949","-0.52039999095220901","0.94719999999999971","SIDE","1.0621959695889643e-16","0.71858522465036201","-0.04691428727327028","0.69385468548092233","-198.60751423551366","-29.415743592194499","57.076166892282615","0.000048592","0.000000238","38"
"39","hotpot","0.0","-0.55539999261461515","0.94719999999999849","-0.51139999052472718","0.94719999999999849","-0.8793999982249","0.94720000000000004","SIDE","1.6352481224892627e-16","-0.68933402079096251","0.066708951844923814","0.72136573492502165","229.39645845282365","-2.7182135657712867","21.910574842052615","0.011737367","0.000141850","39"
"40","hotpot","0.0","1.0326000306572689","1.570796326794897","-0.92239999700766817","0.94719999999999938","-0.52939999137967908","0.94719999999999938","SIDE","1.0621959695889643e-16","0.71858522465036201","-0.04691428727327028","0.69385468548092233","-223.44745361705631","-27.794017995813824","58.001108842512629","0.000329131","0.000001090","40"
"41","hotpot","0.0","-0.98540000000000016","0.96020000061746413","-0.91639999672268424","1.03520000417978","-0.57639999361205863","0.94719999999999993","SIDE","2.6859575384676128e-16","-0.59402282292234654","0.07596962214391903","0.80085298423535678","170.96499251689875","-1.5982441591714307","21.384752891281341","0.025573218","0.000249149","41"
"42","hotpot","0.0","1.032600030657272","1.570796326794897","-0.46739999169446372","0.94719999999999949","-0.98540000000000016","0.94720000000000037","SIDE","-0.49415193361605203","-0.4788394931724273","0.5313571988647624","-0.49415193361605214","10.68373120991026","241.56505249212074","110.42497966062764","0.000401521","0.000001882","42"
"43","hotpot","0.0","-0.9854000000000005","0.94719999999999949","1.098600033792114","1.570796326794897","-0.48039999231193359","0.94719999999999938","SIDE","1.6697699775700445e-16","-0.69178622049176985","0.0098435103453514156","0.72203526952759978","221.38203248216053","34.718058149057967","77.381705283396769","0.002171090","0.000007828","43"
"44","hotpot","0.0","-0.75039999535735602","0.94719999999999815","-0.66239999443720921","0.94719999999999971","-0.8103999949475903","0.94719999999999949","SIDE","3.2871205379332241e-16","-0.68976225130189794","0.095444382154102697","0.71771749776228744","176.85299717746173","-24.324911451588214","45.659927910204786","0.010193400","0.000068233","44"
"45","hotpot","0.0","-0.57039999332707447","0.94719999999999882","-0.51139999052471741","0.94719999999999815","-0.98540000000000028","0.94719999999999949","SIDE","1.6277105162780717e-16","-0.68498589951430022","0.074800983190145776","0.7247062372992058","201.94294531202257","-22.558556444492766","21.142389660611677","0.009274929","0.000085811","45"
"46","hotpot","0.0","-0.73639999469239614","0.94719999999999938","-0.64639999367724676","0.94719999999999971","-0.83139999594502811","0.94720000000000326","SIDE","0.69549656755429257","0.098865470086349438","0.71169526016744156","5.986134995582611e-17","-177.36377782178582","19.736880420449857","55.742367914339276","0.010745048","0.000073131","46"
"47","hotpot","0.0","-0.75039999535735802","1.3952000082403391","-0.67139999486468638","1.457200007925554","-0.98540000000000028","1.1802000045476471","SIDE","1.6352481224892627e-16","-0.6893340207909624","0.066708951844923814","0.72136573492502165","158.81355088912048","4.1545065520809921","35.46485449497473","0.029924876","0.000437175","47"
"48","hotpot","0.0","-0.96039999881256399","1.5152000106804031","-0.83839999627750272","1.5372000117253499","-0.98540000000000016","1.420200009427782","SIDE","3.2871205379332241e-16","-0.68976225130189794","0.095444382154102711","0.71771749776228744","152.18938512336754","-20.912136673397224","46.413126926725802","0.026465473","0.000303375","48"
"49","hotpot","0.0","1.0326000306572709","1.570796326794897","-0.71939999388494036","1.395200008240344","-0.98539999999999994","1.2972000068452181","SIDE","1.4030373423181009e-16","0.71711535090306466","-0.040863285312942699","0.69575553566795822","-159.22600954887804","-33.062049610980885","90.285316716669001","0.008969614","0.000095155","49"
"50","hotpot","0.0","-0.91639999672267114","1.471200008590515","-0.80339999461509204","1.4952000097304541","-0.98540000000000016","1.3712000071004029","SIDE","0.69549656755429257","0.098865470086349438","0.71169526016744156","5.986134995582611e-17","-152.70379398213635","16.31122757283195","54.931072902743132","0.026929281","0.000310423","50"
"51","hotpot","0.0","-0.56339999299459254","0.94719999999999849","-0.50839999038223538","0.94719999999999949","-0.98540000000000016","0.94719999999999993","SIDE","1.6352481224892627e-16","-0.68933402079096251","0.066708951844923814","0.72136573492502165","204.16384051456632","4.2716594859531485","22.961998028645308","0.010344509","0.000083138","51"
"52","hotpot","0.0","-0.98539999999999994","0.94719999999999938","-0.94339999800510577","0.94719999999999938","-0.47739999216943951","0.94719999999999971","SIDE","1.0864828297083388e-16","-0.63844875674758639","0.070942287156144812","0.76638787627448568","232.23442702284456","-22.689102051258118","48.053763518782411","0.008476746","0.000121203","52"
"53","hotpot","0.0","1.032600030657278","1.570796326794897","-0.98539999999999983","1.3992000084303311","-0.82739999575502943","1.528200011297882","SIDE","0.71677490961949419","-0.029332700552046467","-0.69668739160278315","-8.7126438575140905e-17","158.13297135856416","31.831005784500174","62.116869139011278","0.008881621","0.000123977","53"
"54","hotpot","0.0","-0.55939999280460284","0.94719999999999882","-0.50739999033473682","0.94719999999999938","-0.88039999827239757","0.94720000000000326","SIDE","1.7234581937061935e-16","-0.68498589951430022","0.074800983190145776","0.7247062372992058","226.67426856433218","-25.259235825159987","19.886968985061483","0.000918162","0.000094165","54"
"55","hotpot","0.0","1.0326000306572769","1.5707963267948959","-0.98539999999999994","0.94720000000000026","-0.51339999061973463","0.94720000000000126","SIDE","0.69600409143825182","0.1114483914163792","0.70933599989843688","-1.9939233085737783e-16","-199.50106057964047","67.232644833522286","91.818576628912496","0.000155876","0.000000916","55"
"56","hotpot","0.0","1.032600030657274","1.5707963267948959","-0.81739999528006324","0.94719999999999971","-0.65739999419972439","0.94720000000000026","SIDE","0.7167749096194943","-0.029332700552046478","-0.69668739160278337","-8.712643857514093e-17","183.01148721843319","30.783543085027397","61.43103351480039","0.000144295","0.000000730","56"
"57","hotpot","0.0","-0.55539999261461459","0.94719999999999793","-0.50439999019224013","0.94719999999999949","-0.89039999548774962","0.94719999999999949","SIDE","1.6352481224892627e-16","-0.68933402079096251","0.0667089518449238","0.72136573492502165","228.93743049074851","1.8742437616419148","21.947238186683755","0.006049400","0.000071531","57"
"58","hotpot","0.0","-0.98539999999999994","0.94719999999999971","-0.90339999610521282","0.94719999999999938","-0.54239999199714739","0.94719999999999949","SIDE","0.72033928325925045","-0.097586323723101304","-0.6867228162918132","-7.706250723977152e-17","207.69550563963762","-68.553400986560106","43.074181801981773","0.012342947","0.000111548","58"
"59","hotpot","0.0","-0.98539999999999994","1.1452000061448691","-0.93939999781511918","1.2612000051353149","-0.69439999269750696","1.1972000053550991","SIDE","0.71402461143423024","0.087195854122065916","0.69466951659772724","-3.8872015293530987e-17","-159.05293378627363","15.344825866758331","63.044198610283793","0.022324302","0.000266293","59"
"60","hotpot","0.0","-0.50139999004975888","0.94719999999999949","1.098600033792106","1.5707963267948959","-0.9854000000000005","0.94720000000000026","SIDE","0.50020075591270752","0.43630277333692319","-0.55609198658784986","0.50020075591270752","43.432868647086472","233.03984793339214","105.7017112081468","0.000524322","0.000001718","60"
"61","hotpot","1.110223024625157e-16","1.0326000306572769","1.5707963267948959","-0.95039999833758571","0.94719999999999827","-0.53839999180715614","0.94719999999999949","SIDE","0.50272395908225787","0.457673515259723","-0.53392152546898497","0.50272395908225875","14.782946658188136","230.61735619586932","48.448114566086225","0.000472029","0.000001328","61"
"62","hotpot","0.0","-0.9853999999999995","1.570796326794897","-0.76539999606982312","1.570796326794897","-0.73739999473988804","0.94719999999999949","TOP","-5.0956384100954095e-17","0.95321240280942798","-0.11497238464856034","0.27958445217590383","-66.723903095853174","4.0142177510127128","214.62080601142287","0.010057770","0.000129130","62"
"63","hotpot","0.0","-0.70339999312497969","0.9471999999999986","-0.52439999114219182","0.94719999999999971","-0.88939999544025594","0.94719999999999915","SIDE","0.77561478602726674","-0.12347278345045162","-0.61901225791003134","-7.1570517003148436e-17","186.73523677142902","-75.25564509083749","49.490482715353949","0.008958460","0.000111472","63"
"64","hotpot","0.0","-0.55539999261461825","0.9471999999999986","-0.49639998981227113","0.94719999999999938","-0.98539999999999994","0.94720000000000026","SIDE","7.289144775875536e-17","0.76155918064599148","-0.084197770117584433","0.64260279324091996","-196.13868881998553","17.526532031374302","138.01434580874931","0.010779326","0.000108752","64"
"65","hotpot","0.0","-0.98539999999999983","0.94719999999999849","1.0986000337921149","1.5707963267948959","-0.51539999071471576","0.94720000000000026","SIDE","-0.48901633094284919","0.55255219015914592","0.46520117507667386","0.48901633094284963","-28.329868260339214","-226.70084429767968","58.254526598912499","0.000316607","0.000001066","65"
"66","hotpot","0.0","-0.56739999318458301","0.94719999999999815","-0.49339998966976939","0.94719999999999949","-0.98540000000000016","0.94719999999999971","SIDE","0.70106196497385842","0.092351457984426039","0.707094993247119","-7.918151890229524e-17","-208.02279991541772","22.323704936029188","33.74399316352148","0.011235889","0.000071154","66"
"67","hotpot","0.0","1.032600030657276","1.570796326794897","-0.46839999174196162","0.94719999999999971","-0.98539999999999994","0.94720000000000004","SIDE","0.71527241545693199","-0.044929602937466576","-0.69739995875128058","-5.8206303673610926e-17","224.06649058592069","24.622566641484241","101.18666474429213","0.000097062","0.000000385","67"
"68","hotpot","0.0","-0.91339999658019344","0.94719999999999882","-0.86439999751243846","0.94719999999999938","-0.2243999866718373","1.5707963267948959","TOP","0.27958445217590422","0.11497238464856044","0.95321240280942787","-5.8235867543947555e-17","-65.977694191296322","3.9242132389547275","213.43967574580051","0.000014331","0.000060006","68"
"69","hotpot","0.0","-0.91439999662768456","0.94719999999999904","-0.7713999963548045","0.94720000000000115","-0.66439999453220899","0.94720000000000326","SIDE","0.71578127482103893","-0.10842232628986195","-0.68985633705682758","-2.3265969584830303e-16","176.38062893716011","-66.472497869047857","61.79965798257637","0.010993696","0.000060319","69"
"70","hotpot","0.0","-0.98540000000000016","0.94720000000000004","-0.94339999800510244","0.94720000000000126","-0.47839999221693968","0.94719999999999949","SIDE","9.9594259389931046e-17","-0.63844875674758639","0.070942287156144812","0.76638787627448568","231.77980017681961","-25.978115790800697","48.069486586624848","0.000037184","0.000047465","70"
"71","hotpot","0.0","0.18260001962110081","0.94719999999999849","-0.79839999437761089","0.94719999999999949","-0.67639999510217452","0.94720000000000004","SIDE","0.69243431613293316","0.12018120241050163","0.71140086901035138","-1.4029419454140892e-16","-169.38993964463211","64.270449856537851","72.451264518418327","0.005854547","0.000054007","71"
"72","hotpot","0.0","-0.98540000000000016","0.94719999999999938","1.0986000337921149","1.570796326794897","-0.4883999894322904","0.94720000000000149","SIDE","0.50260451071419376","-0.45143738817280793","0.53942719265829131","0.50260451071419376","-12.921748114246126","-200.76611951899989","84.272233172936339","0.000439645","0.000005557","72"
"73","hotpot","0.0","-0.96139999886006167","0.94719999999999849","1.0986000337921209","1.570796326794897","-0.52839999133218485","0.94719999999999993","SIDE","0.50293026694658782","0.43348475893288763","-0.55336539189848399","0.50293026694658893","42.720763681432402","225.59744018976113","48.31802504693605","0.000007098","0.000000068","73"
"74","hotpot","0.0","1.032600030657274","1.570796326794897","-0.98540000000000028","0.94720000000000126","-0.53239999152217199","0.94720000000000115","SIDE","0.7167749096194943","-0.029332700552046481","-0.69668739160278337","-8.2286080876521994e-17","195.86098490773014","30.224700065091724","45.695336284813273","0.000052853","0.000000398","74"
"75","hotpot","0.0","-0.59839999139738209","0.94719999999999793","-0.53339999156967244","0.94719999999999938","-0.98539999999999994","1.1212000050049149","SIDE","0.76638787627448535","-0.070942287156144923","-0.63844875674758661","-1.2675633013263955e-16","168.46445821793705","-18.942727087846524","59.372625591014248","0.014721656","0.000161481","75"
"76","hotpot","0.0","1.0326000306572749","1.570796326794897","-0.92239999700765862","0.94719999999999949","-0.53939999185465803","0.94719999999999938","SIDE","0.7167749096194943","-0.029332700552046481","-0.69668739160278337","-8.2286080876521994e-17","220.7395007675994","29.177237365618943","45.009500660602384","0.003081851","0.000011312","76"
"77","hotpot","0.0","1.032600030657272","1.570796326794897","-0.98540000000000028","0.94719999999999949","-0.50239999009725234","0.94719999999999949","SIDE","0.50020075591270752","0.55609198658784953","0.43630277333692341","-0.50020075591270774","43.420884915335101","232.92438873829209","85.701791526637635","0.000331388","0.000001318","77"
"78","hotpot","0.0","1.0326000306572789","1.5707963267948959","-0.98539999999999994","0.94720000000000026","-0.51939999090471189","0.94719999999999938","SIDE","-0.48211480771165777","0.56924086618994119","0.4594512603417556","0.48211480771165804","-18.42074251446131","-227.10572942998047","63.033679916969312","0.000526709","0.000003162","78"
"79","hotpot","0.0","-0.98540000000000016","0.94719999999999949","-0.91239999653268833","0.94719999999999971","-0.52439999114219182","0.94719999999999949","SIDE","1.7517561814423575e-16","0.71299928376727706","-0.14362720298164433","0.68629676373345916","-210.68132329990053","77.655367698258075","62.286241696236658","0.006690638","0.000086245","79"
"80","hotpot","0.0","-0.93739999772012639","0.94719999999999882","-0.77439999649729874","0.94719999999999938","-0.64639999367725387","0.94720000000000037","SIDE","1.1704614159766387e-16","0.71140086901035149","-0.12018120241050165","0.69243431613293294","-173.72480528720092","65.002764628568912","72.631970033312015","0.011022915","0.000080574","80"
"81","hotpot","0.0","-0.92939999734014567","0.94719999999999782","-0.87239999789241773","0.94719999999999949","-0.62839999282230041","0.94719999999999938","SIDE","1.6523131497385546e-16","-0.59963366214815195","0.061532069569876516","0.7979055555848974","191.65650742617069","-20.143700269537938","16.633002791205829","0.010876301","0.000074635","81"
"82","hotpot","0.0","-0.65639999415223516","0.94719999999999938","-0.47739999216944118","0.94719999999999949","-0.98540000000000016","1.135200005669881","SIDE","0.77561478602726674","-0.1234727834504516","-0.61901225791003134","-8.9463146253935544e-17","162.81590448386626","-70.484517382004725","54.551113437225261","0.011775053","0.000142181","82"
"83","hotpot","0.0","1.032600030657276","1.570796326794897","-0.98539999999999994","0.94719999999999938","-0.49039998952729191","0.94719999999999949","SIDE","1.9681892175865816e-16","-0.61901225791003123","0.12347278345045154","0.77561478602726686","209.38706592622901","-79.773947208844518","44.698018563377602","0.000014396","0.000000053","83"
"84","hotpot","0.0","-0.54639999218713597","0.94719999999999815","-0.47939999226443542","0.94719999999999949","-0.98539999999999994","0.94719999999999949","SIDE","0.67356713574764859","-0.11259624031672173","-0.73049941841677579","-8.2413687196364387e-17","208.434816575936","-32.711440499297453","123.54398096734315","0.009602370","0.000063249","84"
"85","hotpot","0.0","-0.98540000000000028","0.98720000189989576","-0.93939999781511685","1.0832000032000231","-0.57139999337457315","0.94719999999999949","SIDE","1.6523131497385546e-16","-0.59963366214815195","0.061532069569876502","0.7979055555848974","167.82007709444554","-17.697698682144253","23.441068983253878","0.020487815","0.000220536","85"
"86","hotpot","0.0","1.0326000306572689","1.5707963267948959","-0.84239999646749519","0.94719999999999938","-0.6403999933922675","0.94719999999999915","SIDE","1.9193870041330807e-16","0.71399438626534484","-0.019688839155672877","0.69987453589502435","-181.27831408532489","-36.558680025650105","69.113751121277389","0.000223833","0.000001268","86"
"87","hotpot","0.0","-0.71939999388494158","0.94719999999999938","1.098600033792108","1.5707963267948959","-0.84339999651499342","0.94719999999999993","SIDE","1.9564476933077532e-17","0.70933599989843699","-0.11144839141637909","0.69600409143825159","-172.65361280913362","63.014467738200295","90.971428402118562","0.000194979","0.000000643","87"
"88","hotpot","0.0","1.032600030657272","1.570796326794897","-0.98539999999999994","0.94719999999999949","-0.52939999137967864","0.94719999999999971","SIDE","0.48499756539306738","-0.43420568817323474","0.58396930012082171","0.48499756539306743","-40.190433586168439","-232.94435331797857","96.896566691071826","0.000031526","0.000000137","88"
"89","hotpot","0.0","0.15660001838616799","0.94719999999999793","-0.8123999950425711","0.94719999999999949","-0.6603999943422193","0.94719999999999938","SIDE","2.1327138786094425e-16","-0.68985633705682714","0.10842232628986201","0.71578127482103926","173.51666851783867","-66.022379149560209","61.871246420673316","0.006726670","0.000047644","89"
"90","hotpot","0.0","-0.98540000000000016","0.94720000000000004","-0.93039999738764245","0.94719999999999938","-0.50339999014474657","0.94719999999999938","SIDE","0.72609803686833208","0.1085062862389955","0.67897571878718577","-1.3378980485016384e-16","-226.30870384491175","31.055034824329063","74.277367337760865","0.003289700","0.000116675","90"
"91","hotpot","0.0","-0.68339999543465679","0.9471999999999986","-0.60539999172985814","0.94719999999999949","-0.88739999534525094","0.94719999999999938","SIDE","1.9112829264309128e-16","0.67897571878718621","-0.1085062862389955","0.72609803686833174","-186.68112752340753","24.722199907965873","76.465179061562367","0.008732712","0.000037121","91"
"92","hotpot","0.0","-0.64339999353475863","0.94719999999999793","-0.59539999125488663","0.94719999999999971","-0.89839999586772101","0.94719999999999915","SIDE","0.76638787627448535","-0.070942287156144923","-0.63844875674758661","-1.3581035371354239e-16","193.20790662440899","-18.352605836721601","55.020829813830552","0.009835125","0.000055222","92"
"93","hotpot","0.0","-0.83939999632499962","1.394200008192847","1.098600033792108","1.570796326794897","-0.9854000000000005","1.418200009332794","SIDE","0.69385468548092255","0.046914287273270551","0.7185852246503619","-2.1001050368500865e-16","-158.1217032790718","-32.058941504628656","55.568634028873959","0.008600128","0.000085954","93"
"94","hotpot","0.0","-0.98539999999999961","1.2912000065602369","1.098600033792126","1.5707963267948959","-0.78939999395014426","1.4832000091604951","SIDE","0.69987453589502457","0.01968883915567296","0.71399438626534439","-1.6606758344452623e-16","-158.38176285112058","-37.190066662774413","68.647503573672196","0.009483048","0.000160234","94"
"95","hotpot","0.0","-0.59439999120738851","0.94719999999999938","-0.53339999156966855","0.9471999999999986","-0.98540000000000016","1.1212000050049269","SIDE","0.76638787627448546","-0.070942287156144923","-0.63844875674758661","-1.4486437729444523e-16","168.8310111743389","-15.643926872721453","59.372625591014248","0.013996902","0.000120707","95"
"96","hotpot","0.0","0.38860002288633289","0.94719999999999915","-0.84239999646749064","1.542200011962841","-0.98540000000000028","1.4062000087628179","SIDE","1.7339064128948582e-16","-0.68672281629181264","0.097586323723101234","0.7203392832592509","147.74108591083433","-60.033615021273079","45.363490223182559","0.011868469","0.000190976","96"
"97","hotpot","0.0","-0.64739999372475632","0.94719999999999915","-0.59439999120739229","0.94719999999999849","-0.89739999582022267","0.94719999999999949","SIDE","0.76638787627448535","-0.070942287156144923","-0.63844875674758661","-1.2675633013263955e-16","192.84135366800692","-21.651406051846678","55.020829813830559","0.009992570","0.000033346","97"
"98","hotpot","0.0","0.39760002331379851","0.94719999999999793","-0.98540000000000016","1.431200009950252","-0.84739999670498412","1.550796329104579","SIDE","0.69243431613293349","0.12018120241050165","0.71140086901035116","-1.4029419454140892e-16","-144.84868864051631","60.124549587346898","71.428224875553994","0.014065439","0.000215402","98"
"99","hotpot","0.0","-0.5113999905247324","0.94719999999999571","-0.51239999057223018","0.94719999999999949","-0.98540000000000028","0.94720000000000026","SIDE","0.79865927105417978","-0.0067294962320090966","-0.60174586217079185","-1.1186029167968551e-16","182.43441218940626","-4.2701640665962044","45.911800070204059","0.010615789","0.000044638","99"
"100","hotpot","0.0","1.032600030657272","1.570796326794897","-0.63139999296479232","0.94719999999999938","-0.84539999660998932","0.94719999999999949","SIDE","1.4030373423181009e-16","0.71711535090306466","-0.040863285312942699","0.69575553566795822","-184.0830496485224","-31.645624317131027","91.078662083812887","0.000753974","0.000002352","100"
"101","hotpot","0.0","-0.98540000000000028","1.2502000046128421","1.098600033792108","1.570796326794897","-0.75339999549985326","1.4892000094454749","SIDE","0.0","-0.69668739160278303","0.029332700552046505","0.71677490961949453","160.43006449578564","31.734291037044407","62.053544288182117","0.009149189","0.000106192","101"
"102","hotpot","0.0","1.0326000306572729","1.570796326794897","-0.98539999999999994","1.3372000087451099","-0.83439999608752391","1.567796329912031","SIDE","1.9436830421600817e-16","0.71399438626534484","-0.019688839155672877","0.69987453589502435","-156.47288393566876","-37.242705185789639","68.608632649233201","0.006989134","0.000122748","102"
"103","hotpot","0.0","-0.78339999692477358","0.94719999999999938","-0.71139999350495586","0.94720000000000115","-0.98540000000000016","1.5707963267948959","SIDE","0.79790555558489729","-0.061532069569876585","-0.59963366214815206","-9.5660234984863699e-17","154.3277582217261","-16.31316950050547","27.294691303850648","0.009081732","0.000054090","103"
"104","hotpot","0.0","-0.98540000000000028","0.94720000000000037","1.098600033792124","1.570796326794897","-0.49639998981228189","0.94719999999999938","SIDE","0.69575553566795845","0.04086328531294274","0.71711535090306444","0.0","-218.30014839215787","-29.695836090199414","92.170746123447657","0.000282369","0.000001913","104"
"105","hotpot","0.0","-0.88239999836739225","1.481200009065492","1.098600033792114","1.5707963267948959","-0.98539999999999994","1.501200010015445","SIDE","0.0","-0.69668739160278303","0.029332700552046505","0.71677490961949453","156.3110355479773","31.889875630777073","46.785624964386898","0.008632788","0.000109663","105"
"106","hotpot","0.0","-0.70539999321997693","0.94719999999999915","1.0986000337921069","1.570796326794897","-0.78439999697227092","0.94719999999999949","SIDE","0.0","-0.69668739160278281","0.029332700552046509","0.71677490961949464","181.18955140784655","30.842412931304295","46.099789340176002","0.000226856","0.000000810","106"
"107","hotpot","0.0","-0.89939999591521835","0.94719999999999849","-0.81539999518506423","0.94719999999999938","-0.66339999448471054","0.94719999999999915","SIDE","0.71402461143423024","0.087195854122065902","0.69466951659772724","-3.8872015293530987e-17","-183.67492636207007","18.435411564758478","62.556180536057809","0.009855748","0.000048866","107"
"108","hotpot","0.0","-0.70239999307748535","0.94719999999999782","1.098600033792114","1.5707963267948959","-0.80439999466259304","0.94720000000000149","SIDE","0.69385468548092255","0.046914287273270551","0.71858522465036179","-2.100105036850086e-16","-182.96164266061533","-30.437215908248216","56.493575979103873","0.000219626","0.000001328","108"
"109","hotpot","0.0","-0.82639999570754208","1.357200006435437","1.0986000337921029","1.5707963267948959","-0.98540000000000016","1.305200007225197","SIDE","1.9564476933077535e-17","0.70933599989843699","-0.11144839141637908","0.69600409143825159","-148.05744103890984","59.150003254253562","90.195317261904108","0.009319845","0.000114391","109"
"110","hotpot","0.0","0.2146000211410195","0.94719999999999727","-0.66139999438971264","0.94719999999999949","-0.81439999513757144","0.94720000000000126","SIDE","1.7339064128948587e-16","-0.68672281629181275","0.097586323723101248","0.7203392832592509","172.38571575927409","-63.53572499835569","44.422456035801204","0.005755457","0.000037126","110"
"111","hotpot","0.0","-0.77139999635480405","1.187200004880133","1.098600033792112","1.5707963267948959","-0.98540000000000028","1.272200005657786","SIDE","0.5002007559127073","0.43630277333692324","-0.55609198658784986","0.50020075591270741","37.093474874241601","180.5049062301083","85.744199687856664","0.016668204","0.000146428","111"
"112","hotpot","0.0","-0.8703999977974245","0.94719999999999949","-0.98539999999999994","0.94720000000000004","-0.53539999166466301","0.94719999999999971","SIDE","0.71912734448279458","-0.066705485598410302","-0.69166916991304761","7.7192379982688786e-17","191.96000959553371","1.0403291829386005","44.588482833266468","0.006451887","0.000066103","112"
"113","hotpot","0.0","-0.97339999943003264","0.94719999999999793","-0.98539999999999961","1.570796326794897","-0.52239999104719081","0.94719999999999949","SIDE","-0.41948764042418163","0.56151884674102481","0.57685078124011802","0.41948764042418174","2.3489584749611399","-188.3154391266153","108.76040972082674","0.000851652","0.000054033","113"
"114","hotpot","0.0","1.0326000306572769","1.570796326794897","-0.98539999999999994","0.94720000000000004","-0.20539998576939439","0.94719999999999971","SIDE","-0.49468100402293458","-0.47228163295129078","0.53621960771178867","0.4946810040229348","222.58519715212839","24.92798654261674","130.07516723028385","0.000141071","0.000000203","114"
"115","hotpot","0.0","-0.82439999561254818","0.9471999999999976","1.0986000337921089","1.570796326794897","-0.65639999415222527","0.94720000000000149","SIDE","0.50293026694658816","0.43348475893288752","-0.55336539189848399","0.50293026694658882","40.16439990383325","204.73562614339212","63.93702955131031","0.000742559","0.000002749","115"
"116","hotpot","0.0","-0.7503999953573629","0.94719999999999915","-0.7253999941699254","0.94719999999999882","-0.98539999999999994","1.570796326794897","SIDE","0.82280935343727524","-0.039552906967406987","-0.56693944601391144","-1.9396298683669805e-16","155.5693936526574","-0.33311883053246893","14.595441492566559","0.009418648","0.000099761","116"
"117","hotpot","0.0","-0.61839999234732379","0.94719999999999793","-0.83339999604001425","1.570796326794897","-0.98539999999999994","1.570796326794897","SIDE","0.70519838641609611","-0.01169322515847993","-0.072482688123865366","-0.70519838641609633","10.669951362509931","-35.073865092013946","-116.04368065447701","0.003512372","0.000130336","117"
"118","hotpot","0.0","-0.74639999516736755","0.94719999999999938","-0.82939999585002622","0.94720000000000115","-0.65739999419972939","0.94719999999999938","SIDE","1.7549658858335611e-16","0.711695260167442","-0.098865470086349383","0.69549656755429246","-178.93473228377198","1.1562142254024639","71.095873124798587","0.004929268","0.000055235","118"
"119","hotpot","0.0","-0.66839999472219569","0.94719999999999938","-0.77639999659229098","0.94719999999999971","-0.71739999378994501","0.94720000000000126","SIDE","0.80085298423535667","-0.075969622143919058","-0.59402282292234676","-8.6643791563471392e-17","180.67929615119516","-2.8406071593989326","18.498069289646811","0.008610313","0.000076350","119"
"120","hotpot","0.0","-0.6593999942947194","0.98220000166240939","-0.57339999346956616","1.058200002012587","-0.98540000000000028","1.1662000038826781","SIDE","1.9112829264309121e-16","0.67897571878718599","-0.1085062862389955","0.72609803686833174","-162.11972122734409","20.797071352922","77.821197714118711","0.020810036","0.000262033","120"
"121","hotpot","0.0","-0.98540000000000016","0.94719999999999949","-0.93439999757762859","0.94719999999999882","-0.55039999237712944","0.94719999999999938","SIDE","0.71771749776228722","-0.095444382154102669","-0.68976225130189817","-7.7344012657252354e-17","208.72460268867931","-28.735076969542391","44.686604867606405","0.007585224","0.000040136","121"
"122","hotpot","0.0","-0.97739999962002078","0.94719999999999938","-0.98540000000000028","0.94719999999999971","-0.53639999171216379","0.94719999999999949","SIDE","0.71912734448279481","-0.066705485598410275","-0.69166916991304739","9.649047497836097e-17","192.47557801662884","-2.9836451428833093","44.557623383691428","0.006579547","0.000075927","122"
"123","hotpot","0.0","-0.83439999608751869","0.94719999999999782","-0.98539999999999983","0.94719999999999949","-0.51639999076221244","0.94719999999999949","SIDE","0.69809033840130397","0.10197528614542554","0.70871074525952504","3.9759289147579274e-17","-202.63516460472877","44.733338161883694","90.695153685528936","0.013615334","0.000090265","123"
"124","hotpot","0.0","-0.55539999261461537","0.94719999999999949","-0.63439999310729134","0.94719999999999949","-0.79339999414011619","0.94719999999999949","SIDE","0.50272395908225853","0.53392152546898441","0.45767351525972294","-0.50272395908225864","12.736033799004787","203.99753183061353","48.739825846438102","0.009720408","0.000088536","124"
"125","hotpot","0.0","-0.9854000000000005","1.570796326794897","-0.42439998965207332","1.0922000036274999","-0.32839998835194839","0.94719999999999949","SIDE","2.7755571397437758e-16","-0.00077054625206746108","0.01519942504317176","0.99988418516187683","0.64960656456189192","14.298386317745935","-105.52440923396527","0.007255315","0.000078170","125"
"126","hotpot","0.0","-0.69839999288748722","0.94719999999999938","-0.64839999377224478","0.94719999999999949","-0.83739999623001082","0.94720000000000026","SIDE","0.69568656801168627","0.098955192110641021","0.71149706186495765","-1.1969000218714585e-16","-174.78151869641633","39.790629435076497","55.66345174399423","0.013007198","0.000100924","126"
"127","hotpot","0.0","-0.98540000000000016","1.229200006875026","-0.93239999748263613","1.3102000074626921","-0.86139999736994521","1.570796326794897","SIDE","6.8026026763679234e-17","0.69466951659772747","-0.087195854122065874","0.71402461143423002","-152.81311368951722","14.561595237078116","63.16787442481521","0.017506215","0.000237004","127"
"128","hotpot","0.0","-0.98539999999999994","1.094200003722497","-0.94239999795761187","1.325200008175146","-0.78439999697227114","1.407200008810318","SIDE","1.1688201662320491e-16","0.71239981352576676","-0.10980538411210719","0.69313006233206009","-152.43727844843258","38.819629992570952","71.327094127156187","0.020218086","0.000283024","128"
"129","hotpot","0.0","-0.88239999836739214","0.94719999999999949","-0.80639999475758462","0.94719999999999915","-0.66839999472219924","0.94720000000000182","SIDE","5.8308022940296493e-17","0.69466951659772747","-0.087195854122065874","0.71402461143423002","-177.52438826901277","17.663387732532733","62.678086744357138","0.009214579","0.000071188","129"
"130","hotpot","0.0","-0.47539999207444389","0.94719999999999605","-0.62039999244231669","0.9471999999999986","-0.98539999999999994","0.94720000000000026","SIDE","0.59823886035725871","0.13173269884788893","-0.79041556286089121","-1.1598868551874796e-16","184.99243091684505","24.931336680004964","155.2473576800943","0.003195191","0.000039186","130"
"131","hotpot","0.0","1.032600030657276","1.5707963267948959","-0.81839999532755392","0.94719999999999938","-0.67039999481719326","0.9472000000000006","SIDE","0.50089832580179583","-0.45628162712329329","0.53852466161507972","0.50089832580179583","-26.501632866918971","-211.21442698933282","65.268559186885469","0.001015368","0.000003157","131"
"132","hotpot","0.0","-0.98539999999999994","0.94719999999999904","-0.93039999738764179","0.94719999999999971","-0.54139999194964794","0.94719999999999949","SIDE","1.9499620953706226e-16","0.711695260167442","-0.098865470086349369","0.69549656755429223","-212.49757359886331","24.617507607148053","56.89824349956762","0.006806686","0.000042689","132"
"133","hotpot","0.0","-0.7963999942826171","0.94719999999999815","-0.76139999587983087","0.94719999999999971","-0.71639999374244323","0.94719999999999915","SIDE","0.82280935343727524","-0.039552906967406987","-0.56693944601391144","-1.9396298683669805e-16","178.80958064907546","-1.9544859106277452","5.7765426291519031","0.009151297","0.000078668","133"
"134","hotpot","0.0","-0.83939999632499529","0.94719999999999405","1.098600033792108","1.5707963267948959","-0.65339999400973836","0.94720000000000204","SIDE","0.50089832580179527","-0.53852466161507984","-0.45628162712329379","-0.50089832580179572","-26.534589187604542","-211.61306445782665","65.26712057433015","0.001733558","0.000007425","134"
"135","hotpot","0.0","-0.70739999331496728","0.9471999999999986","-0.98540000000000028","0.94720000000000004","-0.52339999109469781","0.94719999999999971","SIDE","1.9499620953706226e-16","0.711695260167442","-0.098865470086349383","0.69549656755429223","-187.15220116370932","2.2275043406395243","55.97979629116756","0.002290594","0.000057499","135"
"136","hotpot","0.0","-0.54639999218713609","0.9471999999999986","1.098600033792114","1.570796326794897","-0.98540000000000016","0.94719999999999915","SIDE","9.8178752063497983e-17","0.7067612653519405","-0.11317649143052508","0.69834060141567034","-206.52857955164762","69.027218289940521","110.76371586210185","0.000720420","0.000002811","136"
"137","hotpot","0.0","1.0326000306572769","1.570796326794897","-0.67039999481719026","1.256200004897825","-0.98540000000000016","1.249200004565342","SIDE","0.72203526952759911","-0.0098435103453514694","-0.6917862204917703","-8.2887862195923116e-17","164.32982087881737","35.529861013162325","79.818581089417194","0.006714055","0.000135850","137"
"138","hotpot","0.0","1.032600030657274","1.5707963267948959","-0.65739999419972794","0.94719999999999915","-0.82739999575502765","0.94719999999999882","SIDE","0.48901633094284969","-0.46520117507667363","0.55255219015914581","0.48901633094284969","-27.057783572259851","-211.87939693457821","57.607524628110141","0.000475363","0.000001888","138"
"139","hotpot","0.0","-0.81739999528006502","1.570796326794897","-0.9854000000000005","1.406200008762819","-0.82639999570753753","1.515200010680404","SIDE","1.9499620953706226e-16","0.711695260167442","-0.098865470086349369","0.69549656755429223","-154.27474844412259","-2.2694386222152199","70.284578113202329","0.011291137","0.000187183","139"
"140","hotpot","3.3306690738754701e-16","-0.75939999578483652","0.94719999999999949","-0.78939999395012561","0.94719999999999827","-0.65239999396224402","0.94719999999999949","SIDE","0.50272395908225853","0.53392152546898453","0.45767351525972283","-0.50272395908225864","11.954067063283837","193.99658914983766","64.221055850468659","0.001431600","0.000069876","140"
"141","hotpot","0.0","-0.53239999152217854","0.94719999999999782","1.0986000337921049","1.5707963267948959","-0.98540000000000016","0.94719999999999949","SIDE","3.3373086348971292e-16","-0.68856840594905577","0.008881238335334829","0.72511700706465798","200.45493253457576","35.229151487977362","21.225951173404216","0.000693725","0.000003995","141"
"142","hotpot","0.0","1.032600030657274","1.5707963267948959","-0.77439999649729596","1.2392000073499989","-0.98539999999999983","1.2842000062277501","SIDE","0.48901633094284969","-0.46520117507667352","0.55255219015914581","0.4890163309428498","-24.929668820393477","-187.08408175392611","56.525132511096473","0.017467508","0.000123503","142"
"143","hotpot","0.0","-0.70339999312498702","0.94719999999999938","-0.70739999331496439","0.94719999999999938","-0.98540000000000016","1.570796326794897","SIDE","0.80085298423535667","-0.075969622143919058","-0.59402282292234676","-8.6643791563471392e-17","156.97867912021059","0.19046648111175618","25.540898617156124","0.002755456","0.000045832","143"
"144","hotpot","0.0","-0.98539999999999994","1.570796326794897","-0.9393999978151174","1.570796326794897","-0.57339999346956871","0.94719999999999938","TOP","-0.22528824537915509","0.10077246435515604","0.96906662150843392","-3.5801944623302856e-18","65.410971540403224","12.869167243295102","220.93559090563025","0.008498895","0.000081168","144"
"145","hotpot","0.0","-0.98540000000000028","1.3062000072726989","1.0986000337921169","1.570796326794897","-0.78639999380763814","1.2472000077299821","SIDE","0.50293026694658782","0.43348475893288763","-0.55336539189848399","0.50293026694658893","37.160672454650424","180.00912267945915","64.229856905179119","0.016462319","0.000169681","145"
"146","hotpot","0.0","-0.54139999194964694","0.9471999999999946","1.0986000337921169","1.570796326794897","-0.88339999841489125","0.94719999999999949","SIDE","0.70158429956598312","0.053350765715792642","0.71058649466482782","-1.6813545633703104e-16","-232.51222481054202","-25.190432200432824","33.765548187118299","0.000518848","0.000001799","146"
"147","hotpot","0.0","-0.71839999383744235","0.94719999999999782","-0.52939999137968008","0.94719999999999915","-0.98539999999999994","1.2862000063227419","SIDE","-0.41948764042418174","0.57685078124011802","-0.5615188467410247","-0.41948764042418185","2.3116554418822228","-185.54575341658915","107.90166028068025","0.009751642","0.000218082","147"
"148","hotpot","0.0","1.0326000306572769","1.570796326794897","-0.98540000000000028","0.94720000000000037","-0.2463999877167872","0.94719999999999971","SIDE","0.5087534008968686","-0.54767517562700863","-0.42707359571116682","0.50875340089686905","200.41749099587747","-64.272903708406773","3.7787910368970929","0.000033965","0.000000094","148"
"149","hotpot","0.0","-0.98539999999999994","1.2782000059427721","1.0986000337921049","1.570796326794897","-0.78039999678228111","1.2362000072074939","SIDE","0.5008983258017955","-0.53852466161507972","-0.45628162712329362","-0.50089832580179572","-24.48964961669774","-186.87761108114813","65.356386477824827","0.015442507","0.000124104","149"
"150","hotpot","0.0","-0.55539999261461537","0.94719999999999938","-0.65039999386724545","0.94719999999999827","-0.98539999999999983","1.3692000070054089","SIDE","0.50272395908225853","0.53392152546898441","0.45767351525972294","-0.50272395908225864","10.826348427058951","179.16233234178296","49.011980453519385","0.017189174","0.000235752","150"
"151","hotpot","0.0","-0.84639999665748689","0.94719999999999915","1.098600033792114","1.570796326794897","-0.64639999367725387","0.94719999999999938","SIDE","0.69987453589502457","0.01968883915567296","0.71399438626534439","-1.6606758344452623e-16","-183.27714016892617","-36.503561153544915","69.154453659837415","0.000300715","0.000000959","151"
"152","hotpot","0.0","-0.830399995897525","0.94719999999999827","-0.79839999437760867","0.94719999999999849","-0.67739999514967397","0.94719999999999938","SIDE","0.69313006233206043","0.1098053841121073","0.71239981352576631","-2.8030674164630825e-16","-172.59361155357621","41.926416177632269","72.125970771515611","0.006465019","0.000037775","152"
"153","hotpot","0.0","-0.85039999684747425","1.4652000083055341","-0.80439999466258882","1.499200009920445","-0.98540000000000028","1.371200007100406","SIDE","0.69568656801168627","0.098955192110641021","0.71149706186495765","-1.1969000218714585e-16","-150.12166745129679","36.36093105939478","54.865325425424075","0.014763090","0.000250754","153"
"154","hotpot","0.0","-0.5643999930420901","0.94719999999999793","-0.55239999247211735","0.94719999999999971","-0.93439999757763637","0.94719999999999971","SIDE","0.79865927105417989","-0.0067294962320090966","-0.60174586217079173","-1.1077426943036817e-16","206.37740158737068","-4.5379253709372245","39.043782701787585","0.015972179","0.000081158","154"
"155","hotpot","0.0","-0.74339999502487719","1.439200010330226","-0.715399993694948","1.4432000105202241","-0.98539999999999994","1.266200005372796","SIDE","1.938817884725685e-17","0.71578604247185229","-0.089375347037871977","0.69257663023260008","-156.47425952795646","-3.7765642013049767","91.504894809786961","0.014740104","0.000359223","155"
"156","hotpot","0.0","1.0326000306572749","1.570796326794897","-0.83939999632500484","1.3182000078426661","-0.98540000000000016","1.331200008460131","SIDE","0.5029302669465886","0.55336539189848333","0.4334847589328874","-0.50293026694658916","36.78565868641779","176.74001330902985","48.896626507963425","0.018282864","0.000146157","156"
"157","hotpot","0.0","-0.82139999547004616","0.94719999999999882","-0.9263999971976471","0.94719999999999949","-0.54539999213964419","0.94719999999999949","SIDE","0.71912734448279458","-0.066705485598410302","-0.6916691699130475","9.6490474978360983e-17","216.74038858812719","-1.3495232001328175","43.734361898887578","0.008235121","0.000046205","157"
"158","hotpot","0.0","-0.92239999700765818","1.240200007397501","-0.98539999999999994","1.426200009712759","-0.84139999641999996","1.5402000118678469","SIDE","0.69313006233206043","0.1098053841121073","0.71239981352576631","-2.6028483152871479e-16","-147.9932066267412","38.134645235223381","71.150957665942457","0.018177363","0.000358189","158"
"159","hotpot","0.0","-0.7253999941699244","0.94719999999999616","-0.65839999424722107","0.94719999999999949","-0.81339999509007721","0.94720000000000415","SIDE","3.2871205379332241e-16","-0.68976225130189794","0.095444382154102697","0.71771749776228744","174.88551660819462","-42.919019576139974","45.641785821159637","0.008549936","0.000061296","159"
"160","hotpot","4.4408920985006252e-16","1.032600030657276","1.5707963267948959","-0.98540000000000016","1.31320000760519","-0.7693999962598097","1.201200005545088","SIDE","0.50089832580179594","-0.45628162712329307","0.53852466161507972","0.50089832580179594","-24.449278124320511","-186.38928018784043","65.358148778184912","0.018073048","0.000128626","160"
"161","hotpot","0.0","-0.67339999495968417","1.418200009332784","-0.68639999231752036","1.4052000087153169","-0.98539999999999994","1.2392000073499789","SIDE","0.71560333353942451","-0.075474417351407252","-0.694417368268341","-5.8179387199779831e-17","160.63262084500215","2.4635995656639529","82.480990391162734","0.020470362","0.000344852","161"
"162","hotpot","0.0","-0.95639999862257952","0.94719999999999827","-0.9853999999999995","0.94720000000000026","-0.50039999000225321","0.94720000000000337","SIDE","3.4222704285320161e-16","-0.67596828812435861","0.10137018514839707","0.7299253105717074","210.26167675311842","-49.856202027434627","73.05457832446865","0.007389788","0.000047741","162"
"163","hotpot","0.0","1.032600030657276","1.570796326794897","-0.62439999263230839","0.94719999999999949","-0.86339999746494123","0.94719999999999938","SIDE","0.72203526952759911","-0.0098435103453514694","-0.6917862204917703","-8.2887862195923116e-17","189.12470552916983","35.177051581089415","78.759515142286517","0.000671447","0.000002381","163"
"164","hotpot","0.0","-0.55739999270960805","0.94719999999999815","-0.50439999019223569","0.94719999999999971","-0.98540000000000028","0.94719999999999949","SIDE","1.736230036524149e-16","-0.68844506681476469","0.092426463562554212","0.71937524200637737","204.13061401405773","-46.275447267220962","23.825292083569668","0.008208400","0.000031296","164"
"165","hotpot","0.0","-0.60739999182486104","0.94719999999999616","-0.60739999182485827","0.94719999999999938","-0.87239999789241951","0.94719999999999938","SIDE","0.71560333353942429","-0.075474417351407252","-0.69441736826834122","-4.84828226664832e-17","185.30009616693087","-0.21744415894131597","81.880935569676026","0.008405554","0.000050990","165"
"166","hotpot","0.0","-0.65339999400973436","0.94719999999999815","1.0986000337921009","1.570796326794897","-0.82839999580253154","0.94719999999999993","SIDE","-0.4849975653930671","0.58396930012082182","0.43420568817323496","0.48499756539306738","-36.255069854441487","-206.18959714340315","95.295291740713608","0.000084129","0.000000346","166"
"167","hotpot","0.0","1.032600030657276","1.5707963267948959","-0.81939999537504804","0.94719999999999949","-0.66739999467469913","0.94719999999999949","SIDE","0.5029302669465886","0.55336539189848333","0.4334847589328874","-0.50293026694658916","39.971466775830862","203.14741225294841","63.955838214314944","0.000298979","0.000001005","167"
"168","hotpot","0.0","1.032600030657276","1.570796326794897","-0.38539998779967483","0.94719999999999949","-0.30639998730700579","0.94719999999999949","SIDE","0.67076260979990276","-0.73929819402237307","0.059293352154193686","3.1034350167388687e-17","-9.7043040366004973","-177.47924498040987","23.315584360424246","0.000288399","0.000000125","168"
"169","hotpot","0.0","-0.92339999705515985","1.516200010727903","-0.83739999623000705","1.5372000117253619","-0.98540000000000016","1.4132000090952961","SIDE","3.2871205379332241e-16","-0.68976225130189794","0.095444382154102697","0.71771749776228744","150.22190455410049","-39.506244797948753","46.394984837680639","0.023208335","0.000332654","169"
"170","hotpot","0.0","-0.98540000000000016","1.183200004690143","-0.94939999829009425","1.2522000047078341","-0.68939999246002603","1.2392000073500029","SIDE","1.7094731469569255e-16","-0.67875928942010921","0.073880527672251908","0.73063499413645527","158.22638867298161","-36.310896528849312","56.242415530430605","0.018225476","0.000250675","170"
"171","hotpot","0.0","-0.86239999741744899","0.94719999999999849","1.098600033792106","1.570796326794897","-0.63039999291729132","0.94719999999999949","SIDE","-4.8403576986189373e-18","-0.69668739160278281","0.029332700552046509","0.71677490961949453","185.30858035565441","30.686828337571637","61.367708663971236","0.000283796","0.000001193","171"
"172","hotpot","0.0","-0.82139999547005327","0.94719999999999815","-0.98540000000000016","0.94719999999999949","-0.47239999193195198","0.94719999999999949","SIDE","0.7213657349250211","-0.066708951844923758","-0.68933402079096318","-1.6352481224892642e-16","217.39100868669286","-1.5142123759818724","33.065442384160662","0.007369699","0.000047858","172"
"173","hotpot","0.0","-0.53039999142718108","0.94719999999999815","1.098600033792112","1.570796326794897","-0.9143999966276859","0.94719999999999971","SIDE","3.3373086348971292e-16","-0.68856840594905577","0.008881238335334829","0.72511700706465798","225.32969293952698","34.908313828593045","19.940860517992039","0.000150678","0.000000967","173"
"174","hotpot","0.0","-0.92439999710265486","0.94719999999999793","-0.92339999705515585","0.94719999999999949","-0.54439999209214607","0.9471999999999986","SIDE","0.71912734448279458","-0.066705485598410302","-0.69166916991304761","7.7192379982688786e-17","217.2559570092223","-5.3734975259545088","43.703502449312538","0.007895296","0.000049580","174"
"175","hotpot","0.0","-0.6343999931072869","0.94719999999999815","-0.6233999925848116","0.94719999999999949","-0.86139999736994544","0.9472000000000016","SIDE","2.9082268270885268e-17","0.71578604247185229","-0.089375347037872005","0.69257663023260008","-181.17186118774308","-0.69274223723892148","92.518114602543776","0.008561803","0.000045499","175"
"176","hotpot","0.0","1.0326000306572769","1.570796326794897","-0.67439999500717873","0.94720000000000126","-0.8123999950425761","0.94719999999999915","SIDE","0.50293026694658882","0.55336539189848322","0.4334847589328874","-0.50293026694658916","39.778533647827345","201.37717974720036","48.604857141322569","0.001002038","0.000002801","176"
"177","hotpot","0.0","1.032600030657272","1.5707963267948959","-0.98540000000000016","1.3172000077951631","-0.78539999376014202","1.2232000065900359","SIDE","0.50293026694658882","0.55336539189848322","0.43348475893288729","-0.50293026694658904","36.97859181442108","178.51024581477836","64.247607580955801","0.017503822","0.000132842","177"
"178","hotpot","0.0","-0.48139999235943032","0.94719999999999815","-0.47139999188445492","0.94719999999999938","-0.98540000000000016","0.94719999999999949","SIDE","0.71163428315391686","-0.051364305090859472","-0.70066993313723969","-2.925193769398448e-17","221.02705779892628","2.9718243935530078","103.29529301900264","0.006997365","0.000062604","178"
"179","hotpot","0.0","1.032600030657272","1.570796326794897","-0.98539999999999994","0.94719999999999949","-0.25239998800176788","0.94719999999999971","SIDE","0.49934983126364463","-0.41978902477790758","0.57015494973730818","-0.49934983126364479","-193.47542050354272","61.555915994021831","10.960011951730836","0.000135240","0.000000448","179"
"180","hotpot","0.0","-0.88239999836739225","0.94719999999999949","-0.83039999589751967","0.94719999999999938","-0.6473999937247531","0.94720000000000126","SIDE","1.7094731469569258e-16","-0.67875928942010921","0.073880527672251908","0.73063499413645527","182.93338659315728","-39.00016512817772","54.557129746629961","0.008103883","0.000048465","180"
"181","hotpot","0.0","1.0326000306572789","1.570796326794897","-0.98539999999999961","0.94719999999999971","-0.23939998738431481","0.94719999999999949","SIDE","0.49934983126364463","-0.41978902477790758","0.57015494973730818","-0.49934983126364474","-202.6395055280496","66.415724687880257","10.985456006481114","0.000121063","0.000000470","181"
"182","hotpot","0.0","-0.98539999999999994","1.144200006097372","-0.86539999755993613","1.275200005800277","-0.77939999673478344","1.4022000085728239","SIDE","0.71578127482103893","-0.10842232628986195","-0.68985633705682758","-2.3265969584830303e-16","151.78019804277272","-62.606133523274458","62.414577941788714","0.012378108","0.000142885","182"
"183","hotpot","0.0","-0.85739999717995297","1.465200008305533","1.098600033792108","1.570796326794897","-0.98540000000000016","1.3272000082701341","SIDE","-0.4849975653930671","0.58396930012082182","0.4342056881732349","0.48499756539306738","-32.636394793181111","-181.5878638503502","93.822875434596426","0.014459545","0.000145957","183"
"184","hotpot","0.0","-0.54139999194965549","0.94719999999999815","-0.49139998957477621","0.94719999999999849","-0.98540000000000016","0.94719999999999938","SIDE","0.69302592186080825","0.10016350929532171","0.71392040385089361","-2.2027410674058363e-16","-207.72675541747529","44.514594124818018","38.14660598027254","0.007594551","0.000038631","184"
"185","hotpot","0.0","-0.98539999999999994","1.0942000037224959","-0.93739999772012683","1.321200007985162","-0.77639999659229042","1.4012000085253311","SIDE","1.3636235272707241e-16","0.71239981352576676","-0.10980538411210719","0.69313006233206009","-151.3055845117056","47.473757361182109","71.3349224143209","0.020188693","0.000234815","185"
"186","hotpot","0.0","-0.98540000000000016","1.065200002345069","-0.78039999678228078","1.099200003959975","-0.75239999545235425","1.406200008762811","SIDE","1.1704614159766387e-16","0.71140086901035149","-0.12018120241050162","0.69243431613293294","-149.18355428308507","60.856864359377944","71.608930390447568","0.014939062","0.000226043","186"
"187","hotpot","0.0","-0.98540000000000016","0.94719999999999938","-0.98339999990500582","0.94720000000000026","-0.39239998813215438","0.94719999999999971","SIDE","0.72470623729920547","-0.074800983190145831","-0.68498589951430033","-8.6172909685309687e-17","220.80666014804723","-24.618488506383798","20.184822716811901","0.001885751","0.000046126","187"
"188","hotpot","0.0","1.032600030657268","1.570796326794897","-0.98539999999999994","1.570796326794897","-0.45439999107698309","1.570796326794897","SIDE","-0.47248764787118369","-0.5000404166656266","0.55088149988829616","0.47248764787118386","146.20115082421938","-1.4245278814034921","139.40338902386208","0.000352499","0.000001121","188"
"189","hotpot","0.0","1.0326000306572769","1.570796326794897","-0.6793999952446641","1.570796326794897","-0.98539999999999994","1.570796326794897","SIDE","-0.49535298104524361","-0.444505515111423","0.55827027090353742","0.49535298104524406","141.97645052639669","-35.058246311819786","128.16804017170847","0.000108206","0.000000308","189"
"190","hotpot","0.0","1.032600030657276","1.570796326794897","-0.64639999367724976","0.98320000170990207","-0.41639998927210298","0.94720000000000304","SIDE","0.4764146649182317","0.58585827295310289","0.45036453913924623","0.47641466491823153","-163.81890377324538","17.112884656373168","139.82033947052327","0.006841106","0.000022430","190"
"191","hotpot","2.8796409701214998e-16","-0.98539999999999994","0.94720000000000004","1.098600033792114","1.5707963267948959","-0.2283999868618336","0.94719999999999949","TOP","0.047652961822265562","0.7688274601689935","-0.63589521695734286","-0.047652961822265992","46.991805110038527","40.049341016009564","324.99473277025118","0.000052125","0.000000210","191"
"192","hotpot","0.0","1.032600030657276","1.5707963267948959","-0.4133999891295943","0.94719999999999949","-0.64839999377225011","1.0202000034673151","SIDE","-0.49535298104524361","-0.444505515111423","0.55827027090353742","0.49535298104524406","166.72343823703551","-37.865788189829658","128.62891743596649","0.006564874","0.000029779","192"
"193","hotpot","0.0","1.03260003065727","1.570796326794897","-0.98540000000000028","1.288200006417745","-0.10739998437426709","1.149200003075235","SIDE","0.47832349636728705","0.57860412509962444","0.45566493398510055","0.47832349636728722","-153.77561657843242","-4.6479356263883842","137.6285875148838","0.009775588","0.000055833","193"
"194","hotpot","0.0","1.0326000306572789","1.570796326794897","-0.86139999736994488","0.9472000000000016","-0.28439998952169071","0.94719999999999949","SIDE","-0.49107712466486364","-0.46247796712934458","0.55118113645306166","0.49107712466486392","184.39656728498562","3.3229441575670657","131.62839172543616","0.000005566","0.000000017","194"
"195","hotpot","0.0","1.032600030657276","1.570796326794897","-0.98540000000000016","1.256200004897825","-0.070399985876494778","1.207200005830072","SIDE","-0.49107712466486353","-0.46247796712934458","0.55118113645306166","0.49107712466486392","159.59692864974045","5.4931082070534263","130.7472495350942","0.009604286","0.000050147","195"
"196","hotpot","0.0","1.032600030657276","1.570796326794897","-0.58739999087490091","1.184200004737632","-0.55739999270960439","1.1542000033127151","SIDE","0.47641466491823187","0.585858272953103","0.45036453913924629","0.47641466491823159","-157.10887061571222","24.653199192849694","139.29527670900012","0.010988302","0.000067831","196"
"197","hotpot","0.0","1.0326000306572729","1.570796326794897","-0.85139999689497237","0.94719999999999949","-0.30139998706951759","0.94720000000000693","SIDE","0.47832349636728705","0.57860412509962433","0.45566493398510033","0.4783234963672871","-178.42232747007267","-1.7182852863373277","139.74161640936478","0.000043612","0.000000122","197"
"198","hotpot","0.0","1.032600030657272","1.570796326794897","-0.81439999513757144","0.94719999999999949","-0.31139998754448589","0.94719999999999971","SIDE","0.50201708308413218","-0.42328181814885008","0.56284118453432519","-0.50201708308413262","-174.89016219893139","40.10066222646546","9.1841016296563254","0.000432020","0.000000918","198"
"199","hotpot","0.0","1.032600030657272","1.570796326794897","-0.31139998754449211","0.94719999999999949","-0.37539999058432849","0.94719999999999971","SIDE","3.2936538042964304e-16","0.064980473585605894","0.69476663310458742","0.71629383885184028","-24.859295390667","-174.17345290365253","122.53922046238853","0.000267247","0.000000120","199"
"200","hotpot","0.0","1.0326000306572749","1.570796326794897","-0.90639999624770762","0.9471999999999986","-0.26239998847674501","0.94719999999999849","SIDE","0.49934983126364452","-0.41978902477790758","0.57015494973730818","-0.49934983126364474","-218.10285923107918","65.296660620969732","11.024752644861691","0.000139627","0.000000413","200"
"201","hotpot","1.6653345369377351e-16","1.0326000306572669","1.5707963267948959","-0.60439999168237935","1.570796326794897","-0.9853999999999995","1.570796326794897","SIDE","0.47641466491823187","0.585858272953103","0.45036453913924629","0.47641466491823159","-136.90523236013004","33.9356745065163","137.55335811176209","0.000008149","0.000001599","201"
"202","hotpot","0.0","-0.89839999586772801","0.94719999999998972","-0.69539999274499475","1.425200009665275","-0.60139999153987345","0.94719999999999849","SIDE","-0.41948764042418157","0.56151884674102492","0.57685078124011802","0.41948764042418174","2.6693786460045832","-212.10608282718323","116.13677083093134","0.000177842","0.000104542","202"
"203","hotpot","0.0","0.60460002662652046","0.94719999999999793","-0.98539999999999872","1.570796326794895","-0.77639999659229209","1.570796326794897","SIDE","0.5199389111065803","-0.52825753885772631","-0.42458336057196749","0.51993891110658019","138.73373707086284","-15.73996653735165","0.46472365586998499","0.006474856","0.000020570","203"
"204","hotpot","0.0","1.0326000306572769","1.570796326794897","-0.39639998832214202","0.94719999999999827","-0.65839999424722107","0.97020000109243909","SIDE","0.47641466491823187","0.585858272953103","0.45036453913924629","0.47641466491823153","-161.49995863642562","37.151615379865767","139.8479743527088","0.007921171","0.000036633","204"
"205","hotpot","0.0","1.032600030657274","1.570796326794897","-0.98539999999999961","1.5707963267948959","-0.16239998698662839","0.94719999999999949","SIDE","5.832281074885919e-17","-0.10207537266299313","-0.69282607933521934","0.71384356976070007","37.097178115006642","154.58391736285725","8.3033523816747117","0.000003522","0.000000006","205"
"206","hotpot","0.0","-0.75239999545235581","0.94719999999999693","-0.74639999516737077","0.94719999999999938","-0.5343999916171619","0.94719999999999971","SIDE","1.9499620953706226e-16","0.711695260167442","-0.098865470086349383","0.69549656755429223","-237.15755743851278","28.043160454765736","57.709538511163892","0.000030952","0.000099722","206"
"207","hotpot","0.0","0.51460002561137608","0.94720000000000126","-0.98539999999999961","0.94719999999999971","-0.53939999185466037","0.94719999999999949","SIDE","0.50272395908225798","0.45767351525972294","-0.53392152546898486","0.50272395908225864","12.873261286242522","205.7821567070379","48.720269173167509","0.000482934","0.000029155","207"
"208","hotpot","0.0","-0.36039998987186739","1.570796326794897","-0.98540000000000016","1.570796326794897","-0.6893999924600156","1.570796326794897","SIDE","-0.39746887763650629","-0.50055244073470417","0.6583951979588567","0.39746887763650668","131.95224929020623","-17.64028051515459","163.06322459758752","0.002535196","0.000012196","208"
"209","hotpot","0.0","1.032600030657272","1.570796326794897","-0.98539999999999961","1.394200008192841","-0.16139998693912941","1.3472000092200931","SIDE","0.50201708308413218","-0.42328181814885008","0.56284118453432519","-0.50201708308413262","-150.22674163727862","36.610213938455544","9.3854891858713589","0.009209890","0.000038217","209"
"210","hotpot","0.0","1.0326000306572749","1.570796326794897","-0.25039998790677132","0.94719999999999827","-0.91839999681766693","0.94719999999999938","SIDE","0.51985064509534029","-0.52853912236732092","-0.42444906610228206","0.51985064509534029","184.9618496622405","19.576013985319939","-9.6418679935801332","0.000002921","0.000000008","210"
"211","hotpot","0.0","1.0326000306572769","1.5707963267948959","-0.29539998678451052","0.94719999999999949","-0.86139999736994688","0.94719999999999915","SIDE","-0.49535298104524361","-0.44450551511142306","0.55827027090353742","0.49535298104524406","177.66740491827247","-59.364796957087187","128.8749900111128","0.001302214","0.000004187","211"
"212","hotpot","0.0","-0.98540000000000016","1.570796326794897","-0.39439998822714439","0.94719999999999938","-0.31339998763948712","0.94719999999999949","SIDE","0.99136822306218519","-0.11093829688307781","0.06986945389229389","1.3911129399949052e-16","-27.72468377240838","-64.262658801694613","-100.59578997533031","0.007861765","0.000029320","212"
"213","hotpot","0.0","1.0326000306572749","1.570796326794897","-0.98540000000000016","1.416200009237782","-0.18739998491443491","1.267200005420307","SIDE","0.51759805994959918","-0.52874024924482865","-0.42967225358561234","0.51759805994959929","149.92633023878983","-34.947114467231032","0.72384963525999679","0.010392862","0.000056428","213"
"214","hotpot","0.0","0.56160002458411318","0.94719999999999827","-0.4773999921694389","1.570796326794895","-0.98539999999999983","1.5707963267948959","SIDE","0.5199389111065803","-0.52825753885772631","-0.42458336057196749","0.51993891110658019","146.6567063608087","3.6347442469643685","-0.007082507328321188","0.000001458","0.000014225","214"
"215","hotpot","0.0","1.0326000306572709","1.570796326794897","-0.71739999378993957","0.94719999999999949","-0.33239998854193242","0.94719999999999849","SIDE","-0.47248764787118375","-0.5000404166656266","0.55088149988829616","0.47248764787118386","170.93915347426085","-2.6212931516697004","142.06929933263822","0.000096373","0.000000315","215"
"216","hotpot","0.0","0.53960002353917491","0.94719999999999793","-0.61639999225233921","1.1062000042924609","-0.47339999197944632","1.05720000196509","SIDE","0.50201708308413229","-0.42328181814885013","0.56284118453432508","-0.50201708308413251","-164.25524900338326","18.19499789321527","9.294052286813459","0.011185864","0.000065038","216"
"217","hotpot","0.0","-0.66939999476969403","0.94719999999999949","-0.79439999418761109","0.94720000000000149","-0.98540000000000016","1.570796326794897","SIDE","0.50272395908225864","0.5339215254689843","0.45767351525972283","-0.50272395908225853","10.044381691338002","169.16138966100709","64.493210457549935","0.001073130","0.000036119","217"
"218","hotpot","0.0","1.0326000306572749","1.570796326794897","-0.38939998798966058","0.94719999999999949","-0.30939998744949532","0.94719999999999938","SIDE","0.0","0.068143932767932208","0.70606253463427071","-0.70486317935663856","12.733419932279165","171.34122325377098","11.293537435837608","0.000029984","0.000000020","218"
"219","hotpot","0.0","1.03260003065728","1.570796326794897","-0.80739999480507696","0.94719999999999915","-0.3213999880194765","0.94720000000000371","SIDE","0.51759805994959907","-0.52874024924482854","-0.42967225358561234","0.51759805994959907","174.55136676085914","-37.492524720198098","-1.0540319499010571","0.000444500","0.000001171","219"
"220","hotpot","0.0","1.032600030657274","1.570796326794897","-0.41939998941458551","0.94719999999999949","-0.27539998909421232","0.94719999999999949","SIDE","3.1967816335818293e-16","0.064980473585605908","0.69476663310458742","0.71629383885184006","-11.728215838097134","-179.81927473907945","122.42414405572966","0.000236937","0.000000073","220"
"221","hotpot","0.0","0.60260002653151301","0.94719999999999815","-0.98539999999999994","1.570796326794897","-0.81439999513755645","1.570796326794897","SIDE","0.50201708308413218","-0.42328181814885008","0.56284118453432508","-0.50201708308413251","-139.591828441731","14.704549605205353","9.4954398430284908","0.001372303","0.000011160","221"
"222","hotpot","0.0","-0.37339999048933331","0.9471999999999986","-0.98539999999999961","1.42720000976026","-0.84139999641999774","1.5472000122003271","SIDE","0.69313006233206031","0.1098053841121073","0.71239981352576642","-2.4026292141112134e-16","-146.9602698416069","46.803994487331103","71.162700096689875","0.011642766","0.000181664","222"
"223","hotpot","0.0","0.63860002498178969","0.94719999999999815","-0.62439999263230517","1.1012000040549741","-0.45339999102949879","0.99820000242237794","SIDE","0.5199389111065803","-0.52825753885772631","-0.42458336057196749","0.51993891110658019","163.41551462548054","-18.425475742653742","-1.5616023427378325","0.011592542","0.000080985","223"
"224","hotpot","0.0","0.66560002626422188","0.94719999999999815","-0.54039999190215382","1.570796326794897","-0.98539999999999872","1.570796326794897","SIDE","0.50530574728965927","-0.43605651198948586","0.54697981851585808","-0.5053057472896596","-146.55091612085857","-6.7689496503652666","7.7827170388891505","0.004068501","0.000020515","224"
"225","hotpot","0.0","1.032600030657264","1.570796326794897","-0.28539998630957819","0.94719999999999882","-0.87439999798741119","0.94719999999999938","SIDE","0.48058493439448063","0.5742429103461768","0.45642230618502677","0.48058493439448058","-173.75674330792279","56.362381432843662","138.51205593765471","0.000010494","0.000000027","225"
"226","hotpot","0.0","1.0326000306572749","1.570796326794897","-0.4503999908870065","0.94719999999999949","-0.24639998771678709","0.94719999999999938","SIDE","0.69850923100749651","-0.70942150085353883","0.093840227642671054","1.1920633708274232e-16","-30.163552045812004","-178.28950036025071","13.639870307367685","0.000056918","0.000000018","226"
"227","hotpot","0.0","1.032600030657274","1.5707963267948959","-0.2303999869568262","0.94719999999999949","-0.30039998702201948","0.96020000061746535","SIDE","3.2936538042964304e-16","0.064980473585605894","0.69476663310458742","0.71629383885184006","-22.540417867232261","-149.38017823759122","123.19070980580005","0.005518077","0.000028570","227"
"228","hotpot","0.0","-0.50439999019225279","0.94719999999999827","-0.3933999881796672","0.94719999999999827","-0.65539999410472694","0.97220000118743544","SIDE","0.4919246898214597","0.57307628461406801","0.43313250986396412","0.4919246898214597","-164.88193941899979","38.413793434315394","55.343047752683724","0.018481178","0.000220237","228"
"229","hotpot","0.0","-0.98539999999999994","0.94720000000000026","-0.98539999999999983","0.94719999999999938","-0.3523999894918885","0.94719999999999938","SIDE","2.7565841408609065e-16","-0.7042934559409898","0.084865934198884316","0.70481806243260225","219.64733698259232","-45.254657039755848","107.16743700368816","0.000370884","0.000043182","229"
"230","hotpot","0.0","-0.98540000000000016","1.570796326794897","-0.77539999654479408","1.570796326794897","-0.21139998605437599","0.94719999999999949","SIDE","1.6216934049802012e-16","0.077632974799050264","0.72739517842377266","0.68181329968672366","-11.464524756640976","-161.92828041169273","58.416813163507314","0.007977714","0.000086200","230"
"231","hotpot","3.3306690738754691e-16","-0.54839999228213476","0.94719999999999815","-0.90439999615270805","0.94719999999999971","-0.228399986861828","0.94719999999999938","SIDE","0.70709653943947404","-0.0052667026855355917","-0.0011089040817727485","0.70709653943947426","2.3912759344857371","-42.213962725601021","-209.75560252255309","0.009008943","0.000036869","231"
"232","hotpot","0.0","-0.98540000000000083","1.5707963267948959","-0.75739999568983973","1.556796329389573","-0.6403999933922786","1.570796326794897","SIDE","0.51342884567583735","-0.40338280421446732","0.5568338658163916","-0.51342884567583735","-147.92123609178731","18.528028661629367","78.605086488635436","0.007692238","0.000123164","232"
"233","hotpot","0.0","-0.42839998984205752","0.94719999999999949","-0.30339998716450478","0.94719999999999971","-0.79139999404513628","0.94719999999999949","SIDE","0.49096413106645237","0.59104913487771293","0.41057199633271835","0.49096413106645259","-167.66481534151367","57.525348507444505","56.116138192871198","0.004950761","0.000036093","233"
"234","hotpot","0.0","-0.5243999911421966","1.570796326794897","-0.20939998595938281","1.5707963267948959","-0.98539999999999961","1.4582000079730519","SIDE","0.49096413106645237","0.59104913487771293","0.41057199633271835","0.49096413106645259","-143.16532973308833","53.110907836559839","55.223939512176862","0.012838918","0.000095477","234"
"235","hotpot","0.0","-0.46239999145697758","0.94719999999999938","1.0986000337921089","1.5707963267948959","-0.32739998830445177","1.152200003217718","TOP","0.056592516830074976","0.011931775848829986","0.99832605884246606","-8.3297742148550293e-17","-24.026194616148445","-40.8398256109135","226.65785278414643","0.007538127","0.000055617","235"
"236","hotpot","0.0","-0.30139998706951882","0.94719999999999949","-0.26039998838174983","0.94719999999999949","-0.71139999350495897","1.570796326794897","TOP","-0.023546315496519227","-0.33981909254329751","0.93990112586171881","0.023546315496519508","6.812485407170473","-43.937904318217633","235.13323462421423","0.003083662","0.000053354","236"
"237","hotpot","0.0","-0.68439999548215524","0.94720000000000037","-0.93939999781512074","0.94719999999999938","-0.53839999180715747","0.94719999999999949","SIDE","1.9499620953706226e-16","0.711695260167442","-0.098865470086349383","0.69549656755429223","-211.81218500335874","5.653157188257433","56.791091302763832","0.006500110","0.000032545","237"
"238","hotpot","0.0","1.032600030657278","1.570796326794897","-0.36939999029932857","0.94719999999999815","-0.69839999288749577","0.94719999999999938","SIDE","0.51993891110658019","-0.52825753885772631","-0.42458336057196738","0.51993891110658019","171.33848391542639","0.94923504166227468","-2.0334085059361393","0.000000361","0.000000001","238"
"239","hotpot","0.0","1.0326000306572769","1.570796326794895","-0.20739998586438499","0.94720000000000115","-0.38839998794216751","1.026200003752298","SIDE","0.68727936075004747","0.72438844292383353","-0.053930177501933754","-2.3221206528840933e-16","28.105064729020963","144.90402895538207","131.53919987733497","0.006432229","0.000035293","239"
"240","hotpot","0.0","1.032600030657274","1.5707963267948959","-0.28539998630955538","0.94719999999999949","-0.41539998922460042","0.94720000000000326","SIDE","0.68727936075004747","0.72438844292383353","-0.053930177501933747","-2.3221206528840937e-16","29.951647907328848","169.70727595407521","132.91657741723358","0.000311140","0.000000123","240"
"241","hotpot","0.0","-0.54039999190215127","1.0292000038947791","-0.4033999886546209","0.94920000009499561","-0.6473999937247541","1.0462000047022419","SIDE","0.50750290964395384","0.42024619545474534","-0.55522493514939819","-0.50750290964395428","163.89530774253092","-41.398272836308593","45.977414458636453","0.022466432","0.000207334","241"
"242","hotpot","0.0","1.032600030657272","1.570796326794897","-0.98539999999999872","1.570796326794895","-0.1713999874141065","0.94719999999999971","SIDE","0.69850923100749651","-0.70942150085353883","0.093840227642671054","1.1920633708274232e-16","-26.897937471144086","-153.60182375324564","13.037802871257391","0.000264342","0.000000702","242"
"243","hotpot","0.0","0.46060002304650799","0.94719999999999793","-0.0083999829316575118","0.94820000004750038","-0.98540000000000016","1.1552000033602079","SIDE","0.50530574728965905","-0.43605651198948586","0.5469798185158582","-0.50530574728965971","-161.41477235081132","-25.346395921333993","7.5119683542056155","0.012323685","0.000079770","243"
"244","hotpot","0.0","-0.82039999542255626","1.570796326794897","-0.59339999115989917","1.5707963267948959","-0.98539999999999994","1.5707963267948959","SIDE","0.49192468982145976","0.57307628461406801","0.43313250986396412","0.49192468982145976","-140.31118438472166","34.996486582271004","54.54780506994922","0.000009095","0.000031935","244"
"245","hotpot","0.0","-0.42239998955707819","0.94719999999999949","-0.360399989871866","0.94719999999999971","-0.3513999894443911","0.97320000123493411","SIDE","2.7758981634247276e-16","0.041598187194127466","0.0087453727701906642","0.99909614616275677","-21.632729024315076","-4.2622786159393833","-100.81565134342993","0.012475747","0.000199383","245"
"246","hotpot","0.0","-0.34739998925440152","1.570796326794897","-0.04039998445157577","1.331200008460137","-0.98540000000000016","1.237200007255004","SIDE","0.48528509554231086","0.6057263977241707","0.40260685934181517","0.48528509554231086","-143.16369342862677","64.054556938503808","58.285269812416004","0.012908609","0.000140857","246"
"247","hotpot","0.0","-0.1543999866066483","0.94719999999999793","-0.9223999970076594","1.5707963267948959","-0.1713999874141075","0.94720000000000004","SIDE","0.6476424398905527","0.75550661825218668","-0.098838352018619277","-2.7856611980536086e-16","13.811221667879755","146.67089558145526","142.62634202673249","0.007153039","0.000046373","247"
"248","hotpot","0.0","-0.37439999053682921","0.94719999999999971","-0.28539998630955971","0.94719999999999949","-0.85739999717995818","0.94719999999999938","SIDE","0.50935679194767314","0.41658240893979409","-0.55459031145113502","-0.50935679194767391","174.26547487745455","-63.802847012472967","44.350679035898956","0.010395939","0.000060902","248"
"249","hotpot","0.0","-0.75739999568983818","0.94719999999999904","-0.65339999400973181","0.94719999999999793","-0.45139999093450273","0.94719999999999938","SIDE","0.49179033920960802","0.57315298892597621","0.43333610027946845","0.49179033920960796","-174.19589531633471","19.296812584378873","55.638146950905956","0.008327249","0.000040648","249"
"250","hotpot","0.0","-0.36439999006185569","0.94719999999999915","-0.2463999877167849","0.94719999999999949","-0.89339999563024119","0.94720000000000126","SIDE","0.48528509554231075","0.6057263977241707","0.40260685934181528","0.48528509554231086","-167.54206924013593","68.96535840879703","59.729888001489151","0.008493424","0.000080162","250"
"251","hotpot","1.110223024625157e-16","-0.36939999029934339","0.94719999999999849","-0.98540000000000016","0.94719999999999938","-0.20439998572189011","0.94719999999999949","SIDE","0.70654285472389589","-0.039430116391720504","-0.006297205614454798","-0.706542854723896","-9.0842450245537254","24.333967911137478","-202.55343678801103","0.006264394","0.000012201","251"
"252","hotpot","0.0","0.32060001965648971","0.94719999999999827","-0.28639998635705732","0.9471999999999986","-0.8643999975124369","0.94719999999999949","SIDE","0.51985064509534007","-0.52853912236732081","-0.424449066102282","0.5198506450953404","182.78203914119425","14.811901888574287","-2.778599795958181","0.003859893","0.000014328","252"
"253","hotpot","0.0","-0.107399984374267","0.94719999999999549","-0.79139999404512884","1.492200009587962","-0.9854000000000005","1.3222000080326519","SIDE","0.69432813279289907","0.12761660851430959","0.70825309405863646","-1.3991153471477875e-16","-147.59117044433859","53.908378099850303","55.385115518343916","0.011648660","0.000173572","253"
"254","hotpot","0.0","0.37460002222137068","0.94719999999999815","-0.26239998847669482","0.94720000000000026","-0.90239999605772292","0.94719999999999938","SIDE","0.50530574728965927","-0.43605651198948575","0.5469798185158582","-0.5053057472896596","-186.07264352401964","-22.564064772873202","6.9824189365452778","0.008104789","0.000034500","254"
"255","hotpot","4.4408920985006252e-16","-0.75139999540485369","0.94719999999999904","-0.65939999429471896","0.94719999999999938","-0.44139999045953021","0.94719999999999849","SIDE","0.50750290964395373","0.42024619545474534","-0.5552249351493983","-0.50750290964395439","174.971790199266","-24.064603443435416","45.717377858847101","0.008464002","0.000024861","255"
"256","hotpot","0.0","-0.92839999729264922","0.94719999999999938","-0.83939999632500106","0.94719999999999938","-0.37339999048933259","0.94719999999999949","SIDE","0.48962500046386676","-0.41805543542360374","0.5880173218148409","-0.48962500046386664","-205.36586176175487","53.917400890360454","93.872266997571785","0.015213999","0.000083296","256"
"257","hotpot","0.0","-0.93439999757763326","0.94719999999999938","1.098600033792106","1.5707963267948959","-0.36739999020435121","0.94720000000000115","SIDE","-0.49535385202208604","-0.43091061816025433","0.56882788410072682","-0.49535385202208615","45.257274095201751","221.84430565760934","33.839455217498205","0.000139936","0.000007504","257"
"258","hotpot","0.0","1.032600030657268","1.5707963267948959","-0.2493999878592803","0.94719999999999915","-0.90839999634269075","0.94719999999999827","SIDE","0.51454564713477247","-0.52459162150843075","-0.44191535917239966","0.51454564713477313","183.84181507610185","23.604623036998287","0.81679073352081288","0.001367627","0.000002543","258"
"259","hotpot","0.0","-0.69539999274500364","0.9472000000000016","-0.59539999125487797","0.94719999999999971","-0.5163999907622232","0.9472000000000016","SIDE","0.51342884567583735","-0.40338280421446732","0.55683386581639149","-0.51342884567583746","-172.48264238785049","22.45315721667307","77.249067836079107","0.010386789","0.000037112","259"
"260","hotpot","0.0","-0.89639999577272855","0.94719999999999915","-0.79639999428261687","0.94719999999999827","-0.35839998977687149","0.94720000000000093","SIDE","0.51613513686495072","-0.54966130572836358","-0.40630221507122866","0.51613513686495127","179.97639345552537","-45.314532204924987","75.067287439100511","0.010320236","0.000054323","260"
"261","hotpot","0.0","-0.98540000000000028","1.5637963297220481","-0.88339999841488925","1.5707963267948959","-0.52439999114219438","1.570796326794897","SIDE","0.50750290964395384","0.42024619545474534","-0.55522493514939819","-0.50750290964395417","150.30817814517181","-20.651828665244196","46.470576875368224","0.005112241","0.000097638","261"
"262","hotpot","0.0","-0.41439998917709547","0.94719999999999915","-0.9853999999999975","1.5707963267948959","-0.28639998635705699","0.94719999999999949","TOP","1.6657900605867181e-16","-0.034726672931487082","0.99907567834753075","-0.025334701923074607","0.30120499707012621","2.8350683914996595","235.10471773015462","0.009828152","0.000022764","262"
"263","hotpot","0.0","-0.34639998920689552","0.94719999999999915","-0.79839999437760023","0.94719999999999949","-0.67839999519717231","0.94719999999999915","SIDE","0.69313006233206043","0.1098053841121073","0.71239981352576642","-2.6028483152871479e-16","-171.56067476844328","50.595765429739984","72.137713202263143","0.006075460","0.000037410","263"
"264","hotpot","0.0","-0.27039998885672789","1.307200007320197","-0.077399986208976243","1.1962000053076089","-0.98539999999999994","1.2912000065602309","SIDE","0.50935679194767336","0.41658240893979398","-0.55459031145113491","-0.5093567919476738","149.70988624484639","-60.31339018263796","45.288313260339265","0.020428136","0.000188374","264"
"265","hotpot","0.0","-0.98540000000000028","1.56479632976955","-0.86139999736994621","1.570796326794897","-0.53439999161717133","1.5707963267948959","SIDE","0.49179033920960796","0.5731529889259761","0.43333610027946839","0.49179033920960796","-149.53591147668507","15.871159736761193","54.826851939309798","0.003883060","0.000063791","265"
"266","hotpot","0.0","-0.4793999922644322","0.9471999999999986","-0.38639998784717761","0.94719999999999949","-0.68839999241252836","0.94719999999999971","SIDE","0.48972563172879974","-0.44293925054914829","0.5693350784719089","-0.48972563172879996","-171.55456921672331","-1.8935882393572567","92.123564932822035","0.004290698","0.000058790","266"
"267","hotpot","4.4408920985006271e-16","-0.68139999533966178","1.5707963267948959","-0.51339999061971642","1.570796326794897","-0.98540000000000016","1.570796326794897","SIDE","0.48972563172879974","-0.44293925054914834","0.5693350784719089","-0.48972563172879985","-146.85696755693644","-4.9774102034232044","91.110345140065235","0.000015980","0.000055888","267"
"268","hotpot","0.0","-0.92439999710265996","0.94719999999999949","-0.8103999949475742","0.9471999999999976","-0.33439998863693071","0.94719999999999938","SIDE","0.4936244121643738","-0.42902675752591313","0.57324159021965104","-0.4936244121643738","-176.81941573866843","41.018750235448429","90.034039364631056","0.010413148","0.000050827","268"
"269","hotpot","0.0","-0.98540000000000016","0.94719999999999949","-0.94239999795761009","0.94719999999999938","-0.2423999875267924","0.94720000000000004","SIDE","0.49214921278956958","-0.42277038234507069","0.5803822089907793","-0.49214921278956975","-211.94231940341723","69.187371906871007","92.211149898507756","0.000821533","0.000049619","269"
"270","hotpot","0.0","-0.98540000000000016","1.5707963267948959","-0.74239999497737741","1.4682000084480269","-0.56339999299459453","1.4482000074980761","SIDE","0.54191806433284528","-0.5016152176573323","-0.40128767301534557","0.54191806433284551","151.73041951249257","-17.08329676305156","62.360008423365812","0.009736961","0.000173486","270"
"271","hotpot","0.0","-0.98540000000000016","1.1262000052424219","-0.93339999753014036","1.2762000058477789","-0.163399987034126","1.198200005402595","SIDE","0.49362441216437375","-0.42902675752591313","0.57324159021965104","-0.4936244121643738","-152.17126348164311","37.472165967919423","89.402825971390826","0.018740877","0.000157342","271"
"272","hotpot","0.0","-0.98540000000000016","1.570796326794897","-0.79339999414011797","1.570796326794897","-0.1783999877465893","0.94719999999999949","SIDE","5.8854836287889102e-17","-0.084703765002731052","-0.70172906435680282","0.70739069292102519","34.839335009250448","161.83046527297984","85.759307595544371","0.004114228","0.000062116","272"
"273","hotpot","0.0","-0.62039999244233679","1.570796326794897","-0.48039999231193442","1.5707963267948959","-0.98540000000000016","1.5707963267948959","SIDE","0.50600796978542606","-0.54439570239154345","-0.43765875776097607","0.50600796978542606","150.30646949898778","3.5859220937802032","82.732181760435381","0.005473997","0.000036265","273"
"274","hotpot","0.0","-0.98540000000000028","1.5707963267948959","-0.72239999402743293","1.5472000122003251","-0.64939999381974189","1.5432000120103291","SIDE","0.54191806433284551","-0.5016152176573323","-0.40128767301534557","0.54191806433284562","149.8461951491976","-13.534397711878666","62.761820182181182","0.009706922","0.000184182","274"
"275","hotpot","0.0","-0.8863999952977516","0.94719999999999605","-0.82539999566003819","0.94719999999999949","-0.31739998782947387","0.94719999999999827","SIDE","0.5084998218204585","0.44191605917420862","-0.53625186159216365","-0.50849982182045894","183.53235807326996","-2.1211492343135023","44.865874979710838","0.011584951","0.000047413","275"
"276","hotpot","0.0","-0.98540000000000016","0.94720000000000004","1.098600033792092","1.570796326794897","-0.2183999863868531","0.94719999999999938","SIDE","0.48058493439448063","-0.45642230618502722","0.57424291034617636","-0.48058493439448063","-212.1838382047676","60.755178884714788","141.4660108063853","0.000010842","0.000000059","276"
"277","hotpot","0.0","-0.98540000000000016","0.94719999999999938","-0.84839999675248901","0.94719999999999704","-0.32939998839944801","0.94719999999999938","SIDE","0.48962500046386676","-0.41805543542360374","0.5880173218148409","-0.48962500046386676","-180.82461075763814","49.771500621169608","92.849227354707338","0.009493484","0.000054575","277"
"278","hotpot","0.0","0.34460002079644109","0.94719999999999882","-0.98539999999999983","1.3862000078128689","-0.81239999504258131","1.5032000101104419","SIDE","2.132713878609443e-16","-0.68985633705682714","0.10842232628986202","0.71578127482103926","148.91623762345239","-62.156014803786817","62.486166379885681","0.011827304","0.000209811","278"
"279","hotpot","0.0","-0.93539999762513404","0.94719999999999849","-0.86739999765492981","0.94719999999999949","-0.28339998947419071","0.94719999999999949","SIDE","0.5084998218204585","0.44191605917420856","-0.53625186159216376","-0.50849982182045883","184.21054543887095","1.7876977113945323","44.855588496519154","0.011276386","0.000049720","279"
"280","hotpot","0.0","1.0326000306572689","1.570796326794897","0.0056000177332962897","0.94719999999999949","-0.98539999999999994","1.110200004482452","SIDE","0.51985064509534007","-0.52853912236732081","-0.42444906610228217","0.51985064509534029","160.36962158386851","22.262098068346432","-7.6319748520842987","0.001375729","0.000023509","280"
"281","hotpot","0.0","-0.66839999472219191","0.94719999999999938","-0.63739999324976848","0.94719999999999815","-0.52839999133218052","0.94720000000000248","SIDE","0.56420442910050062","-0.46751477238598343","-0.38049528507937924","0.56420442910050095","177.59004728119928","-18.700254948036509","20.650609052792479","0.011926463","0.000051844","281"
"282","hotpot","0.0","-0.30339998716451011","0.94719999999999782","-0.21339998614936481","0.94719999999999938","-0.5683999932320809","1.4252000096652691","SIDE","0.71125080444378674","0.69780843366782985","-0.084768408502908718","-9.7559030661956029e-17","32.952318717984255","145.1841895495543","49.270331119458099","0.012372771","0.000137078","282"
"283","hotpot","0.0","-0.37039999034684112","0.94719999999999882","-0.29239998664203409","0.94719999999999949","-0.40639998879712202","0.94719999999999971","SIDE","0.71125080444378685","0.69780843366782985","-0.084768408502908732","-9.7559030661956017e-17","35.956046167166853","169.91069301348637","48.97750376558929","0.007883087","0.000014304","283"
"284","hotpot","0.0","-0.44639999069700731","0.94719999999999571","-0.3753999905843266","0.94719999999999949","-0.69739999284001297","0.94720000000000026","SIDE","0.50600796978542606","-0.54439570239154345","-0.43765875776097607","0.50600796978542606","175.06339174996421","0.8951566151372814","82.129951075373683","0.009218539","0.000098097","284"
